( Made using CamBam - http://www.cambam.co.uk )
( dual_vca_panel 3/8/2015 8:49:51 PM )
( T3 : 3.175 )
( T10 : 0.0 )
G21 G90 G61 G40
G0 Z3.0
( T10 : 0.0 )
T10 M6
( Engrave1 )
G17
M3 S1000
G0 X16.3024 Y106.1306
G0 Z0.405
G1 F1000.0 Z-0.005
G1 F2000.0 Y109.2634
G1 Y106.1306
G0 Z3.0
G0 X18.1266
G0 Z0.405
G1 F1000.0 Z-0.005
G1 F2000.0 Y108.0173
G2 X18.2047 Y108.5017 I1.5702 J-0.0048
G2 X18.4508 Y108.9392 I1.2293 J-0.4035
G2 X18.8532 Y109.2517 I0.9813 J-0.8482
G2 X19.4157 Y109.3728 I0.5366 J-1.1257
G2 X19.9703 Y109.2517 I0.0257 J-1.2131
G2 X20.3727 Y108.9392 I-0.5431 J-1.1145
G2 X20.6149 Y108.5017 I-1.0221 J-0.8516
G2 X20.7008 Y108.0173 I-1.355 J-0.4902
G1 Y106.1306
G1 Y108.0173
G3 X20.6149 Y108.5017 I-1.4409 J-0.0058
G3 X20.3727 Y108.9392 I-1.2642 J-0.4141
G3 X19.9703 Y109.2517 I-0.9454 J-0.802
G3 X19.4157 Y109.3728 I-0.5289 J-1.0919
G3 X18.8532 Y109.2517 I-0.0259 J-1.2467
G3 X18.4508 Y108.9392 I0.5789 J-1.1606
G3 X18.2047 Y108.5017 I0.9833 J-0.8411
G3 X18.1266 Y108.0173 I1.4925 J-0.4892
G1 Y106.1306
G0 Z3.0
G0 X16.3323 Y110.4085
G0 Z0.405
G1 F1000.0 Z-0.005
G3 F2000.0 X16.3571 Y110.4274 I-0.024 J0.0571
G3 X16.3766 Y110.4743 I-0.0545 J0.0502
G3 X16.3024 Y110.5485 I-0.0649 J0.0093
G3 X16.2321 Y110.4743 I-0.0072 J-0.0636
G3 X16.2477 Y110.4274 I0.0844 J0.0021
G3 X16.3024 Y110.404 I0.0487 J0.0382
G3 X16.3323 Y110.4085 I0.0059 J0.0616
G3 X16.3571 Y110.4274 I-0.024 J0.0571
G3 X16.3766 Y110.4743 I-0.0545 J0.0502
G3 X16.3024 Y110.5485 I-0.0649 J0.0093
G3 X16.2321 Y110.4743 I-0.0072 J-0.0636
G3 X16.2477 Y110.4274 I0.0844 J0.0021
G3 X16.3024 Y110.404 I0.0487 J0.0382
G3 X16.3323 Y110.4085 I0.0059 J0.0616
G2 X16.3024 Y110.404 I-0.024 J0.0571
G2 X16.2477 Y110.4274 I-0.0059 J0.0616
G2 X16.2321 Y110.4743 I0.0688 J0.049
G2 X16.3024 Y110.5485 I0.0631 J0.0106
G2 X16.3766 Y110.4743 I0.0093 J-0.0649
G2 X16.3571 Y110.4274 I-0.0741 J0.0034
G2 X16.3323 Y110.4085 I-0.0487 J0.0382
G2 X16.3024 Y110.404 I-0.024 J0.0571
G2 X16.2477 Y110.4274 I-0.0059 J0.0616
G2 X16.2321 Y110.4743 I0.0688 J0.049
G2 X16.3024 Y110.5485 I0.0631 J0.0106
G2 X16.3766 Y110.4743 I0.0093 J-0.0649
G2 X16.3571 Y110.4274 I-0.0741 J0.0034
G2 X16.3323 Y110.4085 I-0.0487 J0.0382
G0 Z3.0
G0 X22.7594 Y111.0251
G0 Z0.405
G1 F1000.0 Z-0.005
G1 F2000.0 X23.693
G1 Y106.1267
G1 Y111.0251
G1 X22.7594
G0 Z3.0
G0 Y118.33
G0 Z0.405
G1 F1000.0 Z-0.005
G1 F2000.0 X22.2373
G1 X24.464 Y124.1281
G1 X25.2906
G1 X27.6636 Y118.33
G1 X26.7896
G1 X26.1132 Y120.0861
G1 X23.6888
G1 X23.052 Y118.33
G1 X22.7594
G0 Z3.0
G0 X21.293 Y119.1703
G0 Z0.405
G1 F1000.0 Z-0.005
G2 F2000.0 X20.6829 Y118.5515 I-1.4781 J0.8471
G2 X20.0287 Y118.298 I-1.0475 J1.7324
G2 X19.3303 Y118.2311 I-0.6703 J3.3205
G2 X18.6467 Y118.2899 I-0.0263 J3.6964
G2 X17.9974 Y118.5119 I0.3881 J2.1955
G2 X17.2578 Y119.3227 I0.7439 J1.4213
G2 X17.0795 Y120.0402 I2.6678 J1.044
G2 X17.0363 Y120.7782 I5.7327 J0.7055
G1 Y124.1281
G1 X17.8036
G1 Y120.7821
G3 X17.8279 Y120.2189 I5.8597 J-0.0297
G3 X17.942 Y119.6668 I2.2081 J0.1687
G3 X18.4246 Y119.1171 I1.0039 J0.3945
G3 X18.8313 Y118.9661 I0.6994 J1.2611
G3 X19.263 Y118.9233 I0.4179 J2.0141
G3 X19.9044 Y118.9951 I0.0363 J2.5752
G3 X20.209 Y119.1109 I-0.3458 J1.3678
G3 X20.4693 Y119.3069 I-0.4558 J0.8765
G3 X20.6688 Y119.6401 I-0.7666 J0.6853
G3 X20.7985 Y120.2042 I-2.2161 J0.8063
G3 X20.8292 Y120.7821 I-4.9178 J0.5518
G1 Y124.1281
G1 X21.5965
G1 Y120.7782
G2 X21.5579 Y120.0755 I-5.8485 J-0.0305
G2 X21.3988 Y119.39 I-2.9121 J0.3145
G2 X21.293 Y119.1703 I-1.5839 J0.6274
G0 Z3.0
G0 X23.9103 Y120.711
G0 Z0.405
G1 F1000.0 Z-0.005
G1 F2000.0 X25.8759
G1 X25.2708 Y122.3167
G2 X24.8595 Y123.5191 I15.1948 J5.8698
G2 X24.547 Y122.4116 I-7.2479 J1.4471
G1 X23.9103 Y120.711
G0 Z3.0
G0 X28.249
G0 Z0.405
G1 F1000.0 Z-0.005
G1 F2000.0 Y124.1281
G1 X29.0163
G1 Y119.0142
G1 X31.8718
G1 Y118.33
G1 X28.249
G1 Y120.711
G0 Z3.0
G0 X32.4176
G0 Z0.405
G1 F1000.0 Z-0.005
G1 F2000.0 Y120.7861
G1 X34.6048
G1 Y120.0702
G1 X32.4176
G1 Y120.711
G0 Z3.0
G0 X35.7215 Y121.991
G0 Z0.405
G1 F1000.0 Z-0.005
G1 F2000.0 X34.8935 Y124.1281
G1 X35.7241
G1 X37.231 Y119.916
G2 X37.5355 Y118.9668 I-12.5994 J-4.5658
G2 X37.8479 Y119.916 I11.6353 J-3.3039
G1 X39.4142 Y124.1281
G1 X40.1973
G1 X37.9271 Y118.33
G1 X37.14
G1 X35.7215 Y121.991
G0 Z3.0
G0 X40.676 Y121.6057
G0 Z0.405
G1 F1000.0 Z-0.005
G2 F2000.0 X40.742 Y122.0821 I3.9991 J-0.311
G2 X41.0081 Y122.8507 I2.9569 J-0.5935
G2 X41.9929 Y123.875 I2.1241 J-1.0565
G2 X43.4009 Y124.227 I1.3792 J-2.5246
G2 X44.169 Y124.1259 I0.0244 J-2.7834
G2 X44.8643 Y123.7841 I-0.5789 J-2.0551
G2 X45.3814 Y123.23 I-1.2741 J-1.7075
G2 X45.6909 Y122.5382 I-2.1962 J-1.3977
G1 X44.9354 Y122.3602
G3 X44.7136 Y122.866 I-2.3099 J-0.7119
G3 X44.3501 Y123.2818 I-1.2413 J-0.7183
G3 X43.8914 Y123.5057 I-0.8201 J-1.0978
G3 X43.3851 Y123.5705 I-0.4889 J-1.8111
G3 X42.8002 Y123.4985 I-0.0194 J-2.2542
G3 X42.2658 Y123.2501 I0.4196 J-1.6021
G3 X41.6369 Y122.3879 I0.9859 J-1.3795
G3 X41.455 Y121.2765 I3.2634 J-1.1048
G3 X41.5025 Y120.6201 I4.3073 J-0.0181
G3 X41.6686 Y119.9832 I3.0383 J0.4521
G3 X41.9353 Y119.5152 I1.6878 J0.6519
G3 X42.3409 Y119.1606 I1.1822 J0.943
G3 X43.3257 Y118.8877 I0.9756 J1.6072
G3 X43.905 Y118.9753 I0.017 J1.8469
G3 X44.4173 Y119.2594 I-0.4837 J1.476
G3 X44.8129 Y119.7602 I-1.032 J1.2217
G3 X45.0225 Y120.3629 I-2.1634 J1.0901
G1 X45.7897 Y120.1691
G2 X45.4748 Y119.3749 I-3.0361 J0.7444
G2 X44.9196 Y118.7255 I-1.9698 J1.122
G2 X44.197 Y118.346 I-1.3685 J1.7281
G2 X43.389 Y118.2311 I-0.7835 J2.6114
G2 X42.5985 Y118.3119 I-0.0305 J3.611
G2 X41.8624 Y118.6108 I0.4735 J2.2219
G2 X41.332 Y119.0972 I1.2267 J1.8697
G2 X40.9685 Y119.7182 I2.1308 J1.6642
G2 X40.664 Y121.2726 I3.6635 J1.5248
G2 X40.676 Y121.6057 I4.0111 J0.0221
G0 Z3.0
G0 X46.4976 Y119.37
G0 Z0.405
G1 F1000.0 Z-0.005
G1 F2000.0 X48.325 Y124.1281
G1 X49.1516
G1 X51.5246 Y118.33
G1 X50.6505
G1 X49.9742 Y120.0861
G1 X47.5498
G1 X46.913 Y118.33
G1 X46.0982
G1 X46.4976 Y119.37
G0 Z3.0
G0 X47.7712 Y120.711
G0 Z0.405
G1 F1000.0 Z-0.005
G1 F2000.0 X49.7369
G1 X49.1318 Y122.3167
G2 X48.7205 Y123.5191 I15.1948 J5.8698
G2 X48.408 Y122.4116 I-7.2479 J1.4471
G1 X47.7712 Y120.711
G0 Z3.0
G0 X42.4335 Y106.1106
G0 Z0.405
G1 F1000.0 Z-0.005
G2 F2000.0 X42.2628 Y106.1203 I-0.0111 J1.3028
G2 X42.1014 Y106.177 I0.0234 J0.3248
G2 X42.0311 Y106.3567 I0.1657 J0.1684
G2 X42.0389 Y106.4035 I0.1473 J-0.0005
G2 X42.0897 Y106.466 I0.1744 J-0.0898
G2 X42.2147 Y106.5754 I3.1527 J-3.477
G2 X42.4413 Y106.7551 I3.3188 J-3.9519
G1 X44.1991 Y108.134
G3 X44.5467 Y108.4309 I-7.7838 J9.4672
G3 X44.8514 Y108.7746 I-1.4235 J1.5686
G3 X45.0624 Y109.1887 I-1.4168 J0.9825
G3 X45.1444 Y109.6848 I-1.3479 J0.4777
G3 X45.0116 Y110.3254 I-1.4294 J0.0377
G3 X44.6717 Y110.7668 I-1.1977 J-0.5706
G3 X44.2069 Y111.0207 I-0.8369 J-0.9796
G3 X43.6952 Y111.1028 I-0.5147 J-1.5738
G3 X43.1444 Y111.0207 I0.0109 J-1.9633
G3 X42.6366 Y110.7629 I0.3762 J-1.37
G3 X42.2733 Y110.302 I0.83 J-1.0278
G3 X42.1366 Y109.6223 I1.4178 J-0.6388
G3 X42.3436 Y108.9153 I1.3276 J0.0049
G3 X42.9178 Y108.3801 I1.2735 J0.7908
G2 X42.3436 Y108.9153 I0.6992 J1.3259
G2 X42.1366 Y109.6223 I1.1205 J0.7119
G2 X42.2733 Y110.302 I1.5546 J0.0409
G2 X42.6366 Y110.7629 I1.1933 J-0.5669
G2 X43.1444 Y111.0207 I0.884 J-1.1122
G2 X43.6952 Y111.1028 I0.5617 J-1.8811
G2 X44.2069 Y111.0207 I-0.003 J-1.6557
G2 X44.6717 Y110.7668 I-0.372 J-1.2336
G2 X45.0116 Y110.3254 I-0.8578 J-1.0119
G2 X45.1444 Y109.6848 I-1.2966 J-0.6029
G2 X45.0624 Y109.1887 I-1.4298 J-0.0184
G2 X44.8514 Y108.7746 I-1.6276 J0.5684
G2 X44.5467 Y108.4309 I-1.7277 J1.2244
G2 X44.1991 Y108.134 I-8.2248 J9.2796
G1 X42.4413 Y106.7551
G3 X42.2147 Y106.5754 I3.0917 J-4.1309
G3 X42.0897 Y106.466 I3.112 J-3.6827
G3 X42.0389 Y106.4035 I0.1236 J-0.1523
G3 X42.0311 Y106.3567 I0.1399 J-0.0474
G3 X42.1014 Y106.177 I0.236 J-0.0113
G3 X42.2628 Y106.1203 I0.1848 J0.2681
G3 X42.4335 Y106.1106 I0.1597 J1.2958
G1 X45.1444
G1 X42.4335
G0 Z3.0
G0 X40.7108
G0 Z0.405
G1 F1000.0 Z-0.005
G1 F2000.0 Y107.9973
G3 X40.6249 Y108.4817 I-1.4409 J-0.0058
G3 X40.3827 Y108.9192 I-1.2642 J-0.4141
G3 X39.9803 Y109.2317 I-0.9454 J-0.802
G3 X39.4257 Y109.3528 I-0.5289 J-1.0919
G3 X38.8632 Y109.2317 I-0.0259 J-1.2467
G3 X38.4608 Y108.9192 I0.5789 J-1.1606
G3 X38.2147 Y108.4817 I0.9833 J-0.8411
G3 X38.1366 Y107.9973 I1.4925 J-0.4892
G1 Y106.1106
G1 Y107.9973
G2 X38.2147 Y108.4817 I1.5702 J-0.0048
G2 X38.4608 Y108.9192 I1.2293 J-0.4035
G2 X38.8632 Y109.2317 I0.9813 J-0.8482
G2 X39.4257 Y109.3528 I0.5366 J-1.1257
G2 X39.9803 Y109.2317 I0.0257 J-1.2131
G2 X40.3827 Y108.9192 I-0.5431 J-1.1145
G2 X40.6249 Y108.4817 I-1.0221 J-0.8516
G2 X40.7108 Y107.9973 I-1.355 J-0.4902
G1 Y106.1106
G0 Z3.0
G0 X36.3124
G0 Z0.405
G1 F1000.0 Z-0.005
G1 F2000.0 Y109.2434
G1 Y106.1106
G0 Z3.0
G0 X36.3065 Y110.3837
G0 Z0.405
G1 F1000.0 Z-0.005
G2 F2000.0 X36.2577 Y110.4074 I-0.0001 J0.0619
G2 X36.2421 Y110.4543 I0.0688 J0.049
G2 X36.3124 Y110.5285 I0.0631 J0.0106
G2 X36.3866 Y110.4543 I0.0093 J-0.0649
G2 X36.3671 Y110.4074 I-0.0741 J0.0034
G2 X36.3124 Y110.384 I-0.0487 J0.0382
G2 X36.3065 Y110.3837 I-0.0059 J0.0616
G2 X36.2577 Y110.4074 I-0.0001 J0.0619
G2 X36.2421 Y110.4543 I0.0688 J0.049
G2 X36.3124 Y110.5285 I0.0631 J0.0106
G2 X36.3866 Y110.4543 I0.0093 J-0.0649
G2 X36.3671 Y110.4074 I-0.0741 J0.0034
G2 X36.3124 Y110.384 I-0.0487 J0.0382
G2 X36.3065 Y110.3837 I-0.0059 J0.0616
G3 X36.3124 Y110.384 I-0.0001 J0.0619
G3 X36.3671 Y110.4074 I0.0059 J0.0616
G3 X36.3866 Y110.4543 I-0.0545 J0.0502
G3 X36.3124 Y110.5285 I-0.0649 J0.0093
G3 X36.2421 Y110.4543 I-0.0072 J-0.0636
G3 X36.2577 Y110.4074 I0.0844 J0.0021
G3 X36.3065 Y110.3837 I0.0487 J0.0382
G3 X36.3124 Y110.384 I-0.0001 J0.0619
G3 X36.3671 Y110.4074 I0.0059 J0.0616
G3 X36.3866 Y110.4543 I-0.0545 J0.0502
G3 X36.3124 Y110.5285 I-0.0649 J0.0093
G3 X36.2421 Y110.4543 I-0.0072 J-0.0636
G3 X36.2577 Y110.4074 I0.0844 J0.0021
G3 X36.3065 Y110.3837 I0.0487 J0.0382
G0 Z3.0
G0 X35.2443 Y98.1582
G0 Z0.405
G1 F1000.0 Z-0.005
G1 F2000.0 X33.2773 Y92.1096
G2 X33.1676 Y91.8196 I-3.5919 J1.1928
G2 X33.0136 Y91.5506 I-1.0236 J0.4073
G2 X32.9301 Y91.4683 I-0.5456 J0.47
G2 X32.8238 Y91.4188 I-0.1289 J0.1379
G2 X32.7135 Y91.4659 I0.0151 J0.1881
G2 X32.6287 Y91.5506 I0.3801 J0.4654
G2 X32.4829 Y91.8225 I1.1803 J0.8077
G2 X32.3703 Y92.1096 I4.7639 J2.0349
G1 X30.3294 Y98.1582
G1 X32.3703 Y92.1096
G3 X32.4829 Y91.8225 I4.9029 J1.7581
G3 X32.6287 Y91.5506 I1.3248 J0.5352
G3 X32.7135 Y91.4659 I0.4636 J0.3793
G3 X32.8238 Y91.4188 I0.1254 J0.141
G3 X32.9301 Y91.4683 I-0.0226 J0.1874
G3 X33.0136 Y91.5506 I-0.4608 J0.5509
G3 X33.1676 Y91.8196 I-0.8694 J0.6763
G3 X33.2773 Y92.1096 I-3.4866 J1.4844
G1 X35.2443 Y98.1582
G0 Z3.0
G0 X29.0322
G0 Z0.405
G1 F1000.0 Z-0.005
G1 F2000.0 X28.7632
G3 X28.0012 Y98.0907 I-0.0189 J-4.1234
G3 X27.2708 Y97.8629 I0.5724 J-3.1191
G3 X26.1792 Y97.1035 I1.3444 J-3.0968
G3 X25.5148 Y96.0383 I2.3604 J-2.2122
G3 X25.288 Y94.8518 I3.0927 J-1.206
G3 X25.5623 Y93.4332 I3.4745 J-0.0641
G3 X26.2794 Y92.3996 I2.9684 J1.2941
G3 X27.2814 Y91.7615 I2.0925 J2.18
G3 X28.431 Y91.5453 I1.1542 J2.9727
G1 X29.0322
G1 X28.431
G2 X27.2814 Y91.7615 I0.0047 J3.1893
G2 X26.2794 Y92.3996 I1.0905 J2.8181
G2 X25.5623 Y93.4332 I2.2511 J2.3276
G2 X25.288 Y94.8518 I3.2005 J1.3545
G2 X25.5148 Y96.0383 I3.3195 J-0.0195
G2 X26.1792 Y97.1035 I3.0249 J-1.147
G2 X27.2708 Y97.8629 I2.436 J-2.3375
G2 X28.7632 Y98.1582 I1.4253 J-3.2845
G1 X29.0322
G0 Z3.0
G0 X29.9563 Y74.3747
G0 Z0.405
G1 F1000.0 Z-0.005
G2 F2000.0 X30.0325 Y74.3751 I0.0446 J-1.1479
G1 X30.2278
G1 X30.0325
G3 X29.5364 Y74.2774 I-0.0316 J-1.1485
G3 X29.2122 Y74.0274 I0.4091 J-0.8658
G3 X29.0325 Y73.6915 I0.7723 J-0.6291
G3 X28.9778 Y73.3321 I1.2016 J-0.3667
G1 Y69.4767
G1 Y73.3321
G2 X29.0325 Y73.6915 I1.2565 J-0.0074
G2 X29.2122 Y74.0274 I0.952 J-0.2932
G2 X29.5364 Y74.2774 I0.7333 J-0.6158
G2 X29.9563 Y74.3747 I0.4645 J-1.0507
G0 Z3.0
G0 X31.2933 Y73.7947
G0 Z0.405
G1 F1000.0 Z-0.005
G2 F2000.0 X31.4349 Y74.0274 I0.9138 J-0.3964
G2 X31.7591 Y74.2774 I0.7333 J-0.6158
G2 X32.2552 Y74.3751 I0.4645 J-1.0507
G1 X32.4505
G1 X32.2552
G3 X31.7591 Y74.2774 I-0.0316 J-1.1485
G3 X31.4349 Y74.0274 I0.4091 J-0.8658
G3 X31.2552 Y73.6915 I0.7723 J-0.6291
G3 X31.2005 Y73.3321 I1.2016 J-0.3667
G1 Y69.4767
G1 Y73.3321
G2 X31.2552 Y73.6915 I1.2565 J-0.0074
G2 X31.2933 Y73.7947 I0.952 J-0.2932
G0 Z3.0
G0 X32.3528 Y72.6329
G0 Z0.405
G1 F1000.0 Z-0.005
G1 F2000.0 X31.2005
G1 X32.3528
G0 Z3.0
G0 X34.8489 Y69.4806
G0 Z0.405
G1 F1000.0 Z-0.005
G3 F2000.0 X35.1684 Y69.5117 I0.0159 J1.4917
G3 X35.4622 Y69.6407 I-0.1425 J0.7236
G3 X35.6315 Y69.8874 I-0.3049 J0.3906
G3 X35.6732 Y70.1837 I-0.9127 J0.2794
G3 X35.6308 Y70.4267 I-0.6636 J0.0097
G3 X35.4896 Y70.629 I-0.4888 J-0.191
G3 X35.0403 Y70.8985 I-0.9517 J-1.077
G3 X34.4583 Y71.0821 I-1.4383 J-3.5453
G2 X33.8724 Y71.2618 I1.2301 J5.0563
G2 X33.4271 Y71.5235 I0.5475 J1.4413
G2 X33.2474 Y71.9415 I0.3467 J0.3967
G2 X33.3177 Y72.2892 I0.7432 J0.0306
G2 X33.513 Y72.4923 I0.4621 J-0.2488
G2 X33.7982 Y72.5899 I0.388 J-0.6678
G2 X34.1263 Y72.6173 I0.3252 J-1.9199
G1 X35.4974
G1 X34.1263
G3 X33.7982 Y72.5899 I-0.003 J-1.9461
G3 X33.513 Y72.4923 I0.1028 J-0.7655
G3 X33.3177 Y72.2892 I0.2667 J-0.4519
G3 X33.2474 Y71.9415 I0.6729 J-0.317
G3 X33.4271 Y71.5235 I0.5264 J-0.0213
G3 X33.8724 Y71.2618 I0.9929 J1.1797
G3 X34.4583 Y71.0821 I1.8164 J4.878
G2 X35.0403 Y70.8985 I-0.8561 J-3.7285
G2 X35.4896 Y70.629 I-0.5026 J-1.3467
G2 X35.6732 Y70.1837 I-0.3845 J-0.419
G2 X35.6315 Y69.8874 I-0.954 J-0.0169
G2 X35.4622 Y69.6407 I-0.4742 J0.144
G2 X35.1684 Y69.5117 I-0.4364 J0.5946
G2 X34.8489 Y69.4806 I-0.3036 J1.4612
G1 X33.2317
G1 X34.8489
G0 Z3.0
G0 X40.0052 Y70.5352
G0 Z0.405
G1 F1000.0 Z-0.005
G2 F2000.0 X39.788 Y70.0556 I-1.7368 J0.4975
G2 X39.4232 Y69.6759 I-1.1762 J0.7649
G2 X38.4388 Y69.3868 I-0.9397 J1.3794
G2 X37.7864 Y69.504 I-0.0164 J1.7832
G2 X37.2708 Y69.8438 I0.548 J1.3925
G2 X36.931 Y70.3712 I1.1967 J1.1444
G2 X36.806 Y71.0509 I1.6718 J0.6588
G2 X36.931 Y71.7227 I1.7566 J0.0208
G2 X37.2708 Y72.2501 I1.4895 J-0.5867
G2 X37.7864 Y72.5938 I1.0546 J-1.0234
G2 X38.4388 Y72.7149 I0.6364 J-1.6107
G2 X39.2903 Y72.4962 I0.024 J-1.6733
G2 X39.5996 Y72.2552 I-0.6133 J-1.1061
G2 X39.806 Y71.922 I-0.7536 J-0.6972
G1 X37.8685 Y70.8477
G1 X39.806 Y71.922
G3 X39.2903 Y72.4962 I-1.0337 J-0.4096
G3 X38.4388 Y72.7149 I-0.8275 J-1.4545
G3 X37.7864 Y72.5938 I-0.0159 J-1.732
G3 X37.2708 Y72.2501 I0.539 J-1.367
G3 X36.931 Y71.7227 I1.1496 J-1.114
G3 X36.806 Y71.0509 I1.6315 J-0.6511
G3 X36.931 Y70.3712 I1.797 J-0.0209
G3 X37.2708 Y69.8438 I1.5367 J0.6172
G3 X37.7864 Y69.504 I1.0637 J1.0527
G3 X38.4388 Y69.3868 I0.6359 J1.6658
G3 X38.9537 Y69.4538 I0.0146 J1.8997
G3 X39.4232 Y69.6759 I-0.4076 J1.4689
G3 X39.788 Y70.0556 I-0.8115 J1.1447
G3 X40.0052 Y70.5352 I-1.5191 J0.977
G0 Z3.0
G0 X42.3099 Y69.4806
G0 Z0.405
G1 F1000.0 Z-0.005
G2 F2000.0 X41.9881 Y69.5218 I-0.0133 J1.1718
G2 X41.7005 Y69.672 I0.2031 J0.7395
G2 X41.5197 Y69.9765 I0.4076 J0.4479
G2 X41.4778 Y70.3282 I1.2862 J0.3314
G1 Y73.5782
G1 Y70.3282
G3 X41.5197 Y69.9765 I1.3277 J-0.0203
G3 X41.7005 Y69.672 I0.5884 J0.1433
G3 X41.9881 Y69.5218 I0.4906 J0.5892
G3 X42.3099 Y69.4806 I0.3085 J1.1306
G1 X42.8567
G1 X42.3099
G0 Z3.0
G0 X42.8567 Y72.6329
G0 Z0.405
G1 F1000.0 Z-0.005
G1 F2000.0 X41.4778
G1 X42.8567
G0 Z3.0
G0 X30.1302
G0 Z0.405
G1 F1000.0 Z-0.005
G1 F2000.0 X28.9778
G1 X30.1302
G0 Z3.0
G0 X27.5036 Y71.6853
G0 Z0.405
G1 F1000.0 Z-0.005
G3 F2000.0 X27.4896 Y71.7227 I-1.6996 J-0.6132
G3 X27.1536 Y72.2501 I-1.4498 J-0.5529
G3 X26.638 Y72.5938 I-1.0546 J-1.0234
G3 X25.9857 Y72.7149 I-0.6364 J-1.6107
G3 X25.3333 Y72.5938 I-0.0159 J-1.732
G3 X24.8177 Y72.2501 I0.539 J-1.367
G3 X24.4817 Y71.7227 I1.1137 J-1.0802
G3 X24.3607 Y71.0509 I1.6857 J-0.6507
G3 X24.4817 Y70.3712 I1.8485 J-0.0213
G3 X24.8177 Y69.8438 I1.4941 J0.5811
G3 X25.3333 Y69.504 I1.0637 J1.0527
G3 X25.9857 Y69.3868 I0.6359 J1.6658
G3 X26.638 Y69.504 I0.0164 J1.7832
G3 X27.1536 Y69.8438 I-0.548 J1.3925
G3 X27.4896 Y70.3712 I-1.1581 J1.1084
G3 X27.6107 Y71.0509 I-1.7272 J0.6584
G3 X27.5036 Y71.6853 I-1.8067 J0.0212
G3 X27.4896 Y71.7227 I-1.6996 J-0.6132
G3 X27.1536 Y72.2501 I-1.4498 J-0.5529
G3 X26.638 Y72.5938 I-1.0546 J-1.0234
G3 X25.9857 Y72.7149 I-0.6364 J-1.6107
G3 X25.3333 Y72.5938 I-0.0159 J-1.732
G3 X24.8177 Y72.2501 I0.539 J-1.367
G3 X24.4817 Y71.7227 I1.1137 J-1.0802
G3 X24.3607 Y71.0509 I1.6857 J-0.6507
G3 X24.4817 Y70.3712 I1.8485 J-0.0213
G3 X24.8177 Y69.8438 I1.4941 J0.5811
G3 X25.3333 Y69.504 I1.0637 J1.0527
G3 X25.9857 Y69.3868 I0.6359 J1.6658
G3 X26.638 Y69.504 I0.0164 J1.7832
G3 X27.1536 Y69.8438 I-0.548 J1.3925
G3 X27.4896 Y70.3712 I-1.1581 J1.1084
G3 X27.6107 Y71.0509 I-1.7272 J0.6584
G3 X27.5036 Y71.6853 I-1.8067 J0.0212
G2 X27.6107 Y71.0509 I-1.6996 J-0.6132
G2 X27.4896 Y70.3712 I-1.8485 J-0.0213
G2 X27.1536 Y69.8438 I-1.4941 J0.5811
G2 X26.638 Y69.504 I-1.0637 J1.0527
G2 X25.9857 Y69.3868 I-0.6359 J1.6658
G2 X25.3333 Y69.504 I-0.0164 J1.7832
G2 X24.8177 Y69.8438 I0.548 J1.3925
G2 X24.4817 Y70.3712 I1.1581 J1.1084
G2 X24.3607 Y71.0509 I1.7272 J0.6584
G2 X24.4817 Y71.7227 I1.8067 J0.0212
G2 X24.8177 Y72.2501 I1.4498 J-0.5529
G2 X25.3333 Y72.5938 I1.0546 J-1.0234
G2 X25.9857 Y72.7149 I0.6364 J-1.6107
G2 X26.638 Y72.5938 I0.0159 J-1.732
G2 X27.1536 Y72.2501 I-0.539 J-1.367
G2 X27.4896 Y71.7227 I-1.1137 J-1.0802
G2 X27.5036 Y71.6853 I-1.6857 J-0.6507
G2 X27.6107 Y71.0509 I-1.6996 J-0.6132
G2 X27.4896 Y70.3712 I-1.8485 J-0.0213
G2 X27.1536 Y69.8438 I-1.4941 J0.5811
G2 X26.638 Y69.504 I-1.0637 J1.0527
G2 X25.9857 Y69.3868 I-0.6359 J1.6658
G2 X25.3333 Y69.504 I-0.0164 J1.7832
G2 X24.8177 Y69.8438 I0.548 J1.3925
G2 X24.4817 Y70.3712 I1.1581 J1.1084
G2 X24.3607 Y71.0509 I1.7272 J0.6584
G2 X24.4817 Y71.7227 I1.8067 J0.0212
G2 X24.8177 Y72.2501 I1.4498 J-0.5529
G2 X25.3333 Y72.5938 I1.0546 J-1.0234
G2 X25.9857 Y72.7149 I0.6364 J-1.6107
G2 X26.638 Y72.5938 I0.0159 J-1.732
G2 X27.1536 Y72.2501 I-0.539 J-1.367
G2 X27.4896 Y71.7227 I-1.1137 J-1.0802
G2 X27.5036 Y71.6853 I-1.6857 J-0.6507
G0 Z3.0
G0 X26.0797 Y48.1051
G0 Z0.405
G1 F1000.0 Z-0.005
G1 F2000.0 Y44.7574
G3 X26.2047 Y44.0309 I1.8928 J-0.0484
G3 X26.5367 Y43.5504 I1.2736 J0.5252
G3 X27.0016 Y43.2848 I0.8526 J0.9525
G3 X27.5367 Y43.2067 I0.5336 J1.783
G1 X27.9664
G1 X27.5367
G2 X27.0016 Y43.2848 I-0.0016 J1.8612
G2 X26.5367 Y43.5504 I0.3877 J1.2181
G2 X26.2047 Y44.0309 I0.9416 J1.0056
G2 X26.1065 Y44.388 I1.4204 J0.5826
G2 X26.0797 Y44.7574 I2.3623 J0.357
G1 Y48.1051
G0 Z3.0
G0 X29.3453 Y47.5752
G0 Z0.405
G1 F1000.0 Z-0.005
G2 F2000.0 X29.4157 Y47.6285 I0.0632 J-0.0102
G2 X29.4899 Y47.5543 I0.0093 J-0.0649
G2 X29.4703 Y47.5074 I-0.0741 J0.0034
G2 X29.4157 Y47.484 I-0.0487 J0.0382
G2 X29.361 Y47.5074 I-0.0059 J0.0616
G2 X29.3453 Y47.5543 I0.0688 J0.049
G2 Y47.5752 I0.0631 J0.0106
G2 X29.4157 Y47.6285 I0.0632 J-0.0102
G2 X29.4899 Y47.5543 I0.0093 J-0.0649
G2 X29.4703 Y47.5074 I-0.0741 J0.0034
G2 X29.4157 Y47.484 I-0.0487 J0.0382
G2 X29.361 Y47.5074 I-0.0059 J0.0616
G2 X29.3453 Y47.5543 I0.0688 J0.049
G2 Y47.5752 I0.0631 J0.0106
G3 Y47.5543 I0.0632 J-0.0102
G3 X29.361 Y47.5074 I0.0844 J0.0021
G3 X29.4157 Y47.484 I0.0487 J0.0382
G3 X29.4703 Y47.5074 I0.0059 J0.0616
G3 X29.4899 Y47.5543 I-0.0545 J0.0502
G3 X29.4157 Y47.6285 I-0.0649 J0.0093
G3 X29.3453 Y47.5752 I-0.0072 J-0.0636
G3 Y47.5543 I0.0632 J-0.0102
G3 X29.361 Y47.5074 I0.0844 J0.0021
G3 X29.4157 Y47.484 I0.0487 J0.0382
G3 X29.4703 Y47.5074 I0.0059 J0.0616
G3 X29.4899 Y47.5543 I-0.0545 J0.0502
G3 X29.4157 Y47.6285 I-0.0649 J0.0093
G3 X29.3453 Y47.5752 I-0.0072 J-0.0636
G0 Z3.0
G0 X29.4157 Y46.3434
G0 Z0.405
G1 F1000.0 Z-0.005
G1 F2000.0 Y43.2106
G1 Y46.3434
G0 Z3.0
G0 X31.2399 Y45.0973
G0 Z0.405
G1 F1000.0 Z-0.005
G2 F2000.0 X31.318 Y45.5817 I1.5702 J-0.0048
G2 X31.5641 Y46.0192 I1.2293 J-0.4035
G2 X31.9664 Y46.3317 I0.9813 J-0.8482
G2 X32.5289 Y46.4528 I0.5366 J-1.1257
G2 X33.0836 Y46.3317 I0.0257 J-1.2131
G2 X33.486 Y46.0192 I-0.5431 J-1.1145
G2 X33.7282 Y45.5817 I-1.0221 J-0.8516
G2 X33.8141 Y45.0973 I-1.355 J-0.4902
G1 Y43.2106
G1 Y45.0973
G3 X33.7282 Y45.5817 I-1.4409 J-0.0058
G3 X33.486 Y46.0192 I-1.2642 J-0.4141
G3 X33.0836 Y46.3317 I-0.9454 J-0.802
G3 X32.5289 Y46.4528 I-0.5289 J-1.0919
G3 X31.9664 Y46.3317 I-0.0259 J-1.2467
G3 X31.5641 Y46.0192 I0.5789 J-1.1606
G3 X31.318 Y45.5817 I0.9833 J-0.8411
G3 X31.2399 Y45.0973 I1.4925 J-0.4892
G1 Y43.2106
G1 Y45.0973
G0 Z3.0
G0 X29.931 Y37.8077
G0 Z0.405
G1 F1000.0 Z-0.005
G3 F2000.0 X29.6089 Y37.8349 I-0.3061 J-1.7046
G3 X28.9566 Y37.7138 I-0.0159 J-1.732
G3 X28.441 Y37.3701 I0.539 J-1.367
G3 X28.105 Y36.8428 I1.1137 J-1.0802
G3 X27.9839 Y36.1709 I1.6857 J-0.6507
G3 X28.105 Y35.4912 I1.8485 J-0.0213
G3 X28.441 Y34.9638 I1.4941 J0.5811
G3 X28.9566 Y34.624 I1.0637 J1.0527
G3 X29.6089 Y34.5068 I0.6359 J1.6658
G3 X30.2613 Y34.624 I0.0164 J1.7832
G3 X30.7769 Y34.9638 I-0.548 J1.3925
G3 X31.1128 Y35.4912 I-1.1581 J1.1084
G3 X31.2339 Y36.1709 I-1.7272 J0.6584
G3 X31.1128 Y36.8428 I-1.8067 J0.0212
G3 X30.7769 Y37.3701 I-1.4498 J-0.5529
G3 X30.2613 Y37.7138 I-1.0546 J-1.0234
G3 X29.931 Y37.8077 I-0.6364 J-1.6107
G3 X29.6089 Y37.8349 I-0.3061 J-1.7046
G3 X28.9566 Y37.7138 I-0.0159 J-1.732
G3 X28.441 Y37.3701 I0.539 J-1.367
G3 X28.105 Y36.8428 I1.1137 J-1.0802
G3 X27.9839 Y36.1709 I1.6857 J-0.6507
G3 X28.105 Y35.4912 I1.8485 J-0.0213
G3 X28.441 Y34.9638 I1.4941 J0.5811
G3 X28.9566 Y34.624 I1.0637 J1.0527
G3 X29.6089 Y34.5068 I0.6359 J1.6658
G3 X30.2613 Y34.624 I0.0164 J1.7832
G3 X30.7769 Y34.9638 I-0.548 J1.3925
G3 X31.1128 Y35.4912 I-1.1581 J1.1084
G3 X31.2339 Y36.1709 I-1.7272 J0.6584
G3 X31.1128 Y36.8428 I-1.8067 J0.0212
G3 X30.7769 Y37.3701 I-1.4498 J-0.5529
G3 X30.2613 Y37.7138 I-1.0546 J-1.0234
G3 X29.931 Y37.8077 I-0.6364 J-1.6107
G2 X30.2613 Y37.7138 I-0.3061 J-1.7048
G2 X30.7769 Y37.3701 I-0.539 J-1.367
G2 X31.1128 Y36.8428 I-1.1137 J-1.0802
G2 X31.2339 Y36.1709 I-1.6857 J-0.6507
G2 X31.1128 Y35.4912 I-1.8485 J-0.0213
G2 X30.7769 Y34.9638 I-1.4941 J0.5811
G2 X30.2613 Y34.624 I-1.0637 J1.0527
G2 X29.6089 Y34.5068 I-0.6359 J1.6658
G2 X28.9566 Y34.624 I-0.0164 J1.7832
G2 X28.441 Y34.9638 I0.548 J1.3925
G2 X28.105 Y35.4912 I1.1581 J1.1084
G2 X27.9839 Y36.1709 I1.7272 J0.6584
G2 X28.105 Y36.8428 I1.8067 J0.0212
G2 X28.441 Y37.3701 I1.4498 J-0.5529
G2 X28.9566 Y37.7138 I1.0546 J-1.0234
G2 X29.6089 Y37.8349 I0.6364 J-1.6107
G2 X29.931 Y37.8077 I0.0159 J-1.732
G2 X30.2613 Y37.7138 I-0.3061 J-1.7048
G2 X30.7769 Y37.3701 I-0.539 J-1.367
G2 X31.1128 Y36.8428 I-1.1137 J-1.0802
G2 X31.2339 Y36.1709 I-1.6857 J-0.6507
G2 X31.1128 Y35.4912 I-1.8485 J-0.0213
G2 X30.7769 Y34.9638 I-1.4941 J0.5811
G2 X30.2613 Y34.624 I-1.0637 J1.0527
G2 X29.6089 Y34.5068 I-0.6359 J1.6658
G2 X28.9566 Y34.624 I-0.0164 J1.7832
G2 X28.441 Y34.9638 I0.548 J1.3925
G2 X28.105 Y35.4912 I1.1581 J1.1084
G2 X27.9839 Y36.1709 I1.7272 J0.6584
G2 X28.105 Y36.8428 I1.8067 J0.0212
G2 X28.441 Y37.3701 I1.4498 J-0.5529
G2 X28.9566 Y37.7138 I1.0546 J-1.0234
G2 X29.6089 Y37.8349 I0.6364 J-1.6107
G2 X29.931 Y37.8077 I0.0159 J-1.732
G0 Z3.0
G0 X33.1128 Y32.8701
G0 Z0.405
G1 F1000.0 Z-0.005
G3 F2000.0 X33.9371 Y32.7607 I0.8726 J3.4156
G3 X34.6949 Y32.8935 I0.0455 J1.9688
G3 X35.2144 Y33.2529 I-0.4975 J1.2744
G3 X35.5113 Y33.7842 I-1.0472 J0.9338
G3 X35.6089 Y34.4326 I-2.0158 J0.6352
G1 Y36.1826
G3 X35.4878 Y36.8193 I-1.9199 J-0.0353
G3 X35.1753 Y37.3428 I-1.4673 J-0.521
G3 X34.691 Y37.7021 I-1.0897 J-0.9625
G3 X34.0582 Y37.8349 I-0.6103 J-1.334
G3 X33.4175 Y37.7178 I-0.0145 J-1.7302
G3 X32.9058 Y37.3779 I0.5184 J-1.3357
G3 X32.566 Y36.8349 I1.1337 J-1.0874
G3 X32.441 Y36.1045 I1.8988 J-0.7009
G3 X32.5738 Y35.4365 I1.6222 J-0.0247
G3 X32.9253 Y34.9326 I1.4825 J0.6597
G3 X33.4449 Y34.6123 I1.0476 J1.1177
G3 X34.0816 Y34.5029 I0.6266 J1.7398
G3 X34.6246 Y34.5967 I0.0036 J1.5982
G2 X34.0816 Y34.5029 I-0.5393 J1.5043
G2 X33.4449 Y34.6123 I-0.0101 J1.849
G2 X32.9253 Y34.9326 I0.528 J1.4379
G2 X32.5738 Y35.4365 I1.1309 J1.1636
G2 X32.441 Y36.1045 I1.4892 J0.6433
G2 X32.566 Y36.8349 I2.024 J0.0296
G2 X32.9058 Y37.3779 I1.4737 J-0.5446
G2 X33.4175 Y37.7178 I1.0301 J-0.9959
G2 X34.0582 Y37.8349 I0.6261 J-1.6131
G2 X34.691 Y37.7021 I0.0225 J-1.4668
G2 X35.1753 Y37.3428 I-0.6052 J-1.3218
G2 X35.4878 Y36.8193 I-1.1547 J-1.0444
G2 X35.6089 Y36.1826 I-1.799 J-0.672
G1 Y34.4326
G2 X35.5113 Y33.7842 I-2.1134 J-0.0133
G2 X35.2144 Y33.2529 I-1.3441 J0.4026
G2 X34.6949 Y32.8935 I-1.017 J0.915
G2 X33.9371 Y32.7607 I-0.7123 J1.8358
G2 X33.1128 Y32.8701 I0.0485 J3.5254
G0 Z3.0
G0 X27.0464 Y34.5967
G0 Z0.405
G1 F1000.0 Z-0.005
G1 F2000.0 X26.6167
G2 X26.0816 Y34.6748 I-0.0016 J1.8612
G2 X25.6167 Y34.9404 I0.3877 J1.2181
G2 X25.2847 Y35.4209 I0.9416 J1.0056
G2 X25.1865 Y35.778 I1.4204 J0.5826
G2 X25.1597 Y36.1474 I2.3623 J0.357
G1 Y39.4951
G1 Y36.1474
G3 X25.2847 Y35.4209 I1.8928 J-0.0484
G3 X25.6167 Y34.9404 I1.2736 J0.5252
G3 X26.0816 Y34.6748 I0.8526 J0.9525
G3 X26.6167 Y34.5967 I0.5336 J1.783
G1 X27.0464
G0 Z3.0
G0 X24.6964 Y20.5434
G0 Z0.405
G1 F1000.0 Z-0.005
G3 F2000.0 X24.244 Y20.5789 I-0.4285 J-2.5623
G3 X23.2655 Y20.3973 I-0.0239 J-2.598
G3 X22.492 Y19.8816 I0.8084 J-2.0506
G3 X21.9881 Y19.0906 I1.6706 J-1.6202
G3 X21.8065 Y18.0828 I2.5285 J-0.976
G3 X21.9881 Y17.0633 I2.7727 J-0.032
G3 X22.492 Y16.2723 I2.2412 J0.8717
G3 X23.2655 Y15.7625 I1.5955 J1.5791
G3 X24.244 Y15.5867 I0.9539 J2.4987
G3 X25.2225 Y15.7625 I0.0245 J2.6748
G3 X25.9959 Y16.2723 I-0.822 J2.0888
G3 X26.4998 Y17.0633 I-1.7371 J1.6626
G3 X26.6815 Y18.0828 I-2.5908 J0.9875
G3 X26.4998 Y19.0906 I-2.71 J0.0318
G3 X25.9959 Y19.8816 I-2.1747 J-0.8294
G3 X25.2225 Y20.3973 I-1.5819 J-1.535
G3 X24.6964 Y20.5434 I-0.9546 J-2.4161
G3 X24.244 Y20.5789 I-0.4285 J-2.5623
G3 X23.2655 Y20.3973 I-0.0239 J-2.598
G3 X22.492 Y19.8816 I0.8084 J-2.0506
G3 X21.9881 Y19.0906 I1.6706 J-1.6202
G3 X21.8065 Y18.0828 I2.5285 J-0.976
G3 X21.9881 Y17.0633 I2.7727 J-0.032
G3 X22.492 Y16.2723 I2.2412 J0.8717
G3 X23.2655 Y15.7625 I1.5955 J1.5791
G3 X24.244 Y15.5867 I0.9539 J2.4987
G3 X25.2225 Y15.7625 I0.0245 J2.6748
G3 X25.9959 Y16.2723 I-0.822 J2.0888
G3 X26.4998 Y17.0633 I-1.7371 J1.6626
G3 X26.6815 Y18.0828 I-2.5908 J0.9875
G3 X26.4998 Y19.0906 I-2.71 J0.0318
G3 X25.9959 Y19.8816 I-2.1747 J-0.8294
G3 X25.2225 Y20.3973 I-1.5819 J-1.535
G3 X24.6964 Y20.5434 I-0.9546 J-2.4161
G2 X25.2225 Y20.3973 I-0.4285 J-2.5625
G2 X25.9959 Y19.8816 I-0.8084 J-2.0506
G2 X26.4998 Y19.0906 I-1.6706 J-1.6202
G2 X26.6815 Y18.0828 I-2.5285 J-0.976
G2 X26.4998 Y17.0633 I-2.7727 J-0.032
G2 X25.9959 Y16.2723 I-2.2412 J0.8717
G2 X25.2225 Y15.7625 I-1.5955 J1.5791
G2 X24.244 Y15.5867 I-0.9539 J2.4987
G2 X23.2655 Y15.7625 I-0.0245 J2.6748
G2 X22.492 Y16.2723 I0.822 J2.0888
G2 X21.9881 Y17.0633 I1.7371 J1.6626
G2 X21.8065 Y18.0828 I2.5908 J0.9875
G2 X21.9881 Y19.0906 I2.71 J0.0318
G2 X22.492 Y19.8816 I2.1747 J-0.8294
G2 X23.2655 Y20.3973 I1.5819 J-1.535
G2 X24.244 Y20.5789 I0.9546 J-2.4161
G2 X24.6964 Y20.5434 I0.0239 J-2.598
G2 X25.2225 Y20.3973 I-0.4285 J-2.5625
G2 X25.9959 Y19.8816 I-0.8084 J-2.0506
G2 X26.4998 Y19.0906 I-1.6706 J-1.6202
G2 X26.6815 Y18.0828 I-2.5285 J-0.976
G2 X26.4998 Y17.0633 I-2.7727 J-0.032
G2 X25.9959 Y16.2723 I-2.2412 J0.8717
G2 X25.2225 Y15.7625 I-1.5955 J1.5791
G2 X24.244 Y15.5867 I-0.9539 J2.4987
G2 X23.2655 Y15.7625 I-0.0245 J2.6748
G2 X22.492 Y16.2723 I0.822 J2.0888
G2 X21.9881 Y17.0633 I1.7371 J1.6626
G2 X21.8065 Y18.0828 I2.5908 J0.9875
G2 X21.9881 Y19.0906 I2.71 J0.0318
G2 X22.492 Y19.8816 I2.1747 J-0.8294
G2 X23.2655 Y20.3973 I1.5819 J-1.535
G2 X24.244 Y20.5789 I0.9546 J-2.4161
G2 X24.6964 Y20.5434 I0.0239 J-2.598
G0 Z3.0
G0 X28.6502 Y20.4324
G0 Z0.405
G1 F1000.0 Z-0.005
G1 F2000.0 Y17.5965
G3 X28.7674 Y16.8758 I2.3387 J0.0104
G3 X29.1307 Y16.2313 I1.7896 J0.584
G3 X29.7342 Y15.7625 I1.472 J1.2723
G3 X30.578 Y15.5809 I0.8049 J1.6885
G3 X31.4159 Y15.7625 I0.041 J1.8344
G3 X32.0194 Y16.2313 I-0.8146 J1.6717
G3 X32.3827 Y16.8758 I-1.5489 J1.2977
G3 X32.5116 Y17.5965 I-2.0172 J0.7327
G1 Y20.4324
G1 Y17.5965
G2 X32.3827 Y16.8758 I-2.1458 J0.0119
G2 X32.0194 Y16.2313 I-1.912 J0.653
G2 X31.4159 Y15.7625 I-1.4181 J1.2029
G2 X30.578 Y15.5809 I-0.7969 J1.6526
G2 X29.7342 Y15.7625 I-0.0388 J1.87
G2 X29.1307 Y16.2313 I0.8684 J1.7409
G2 X28.7674 Y16.8758 I1.4264 J1.2286
G2 X28.6502 Y17.5965 I2.2211 J0.731
G1 Y20.4324
G0 Z3.0
G0 X36.0623 Y15.7273
G0 Z0.405
G1 F1000.0 Z-0.005
G2 F2000.0 X35.5797 Y15.7892 I-0.0199 J1.7577
G2 X35.1483 Y16.0145 I0.3046 J1.1092
G2 X34.8771 Y16.4713 I0.6113 J0.6718
G2 X34.8143 Y16.9988 I1.9292 J0.4971
G1 Y21.8738
G1 Y16.9988
G3 X34.8771 Y16.4713 I1.9916 J-0.0305
G3 X35.1483 Y16.0145 I0.8826 J0.215
G3 X35.5797 Y15.7892 I0.7359 J0.8839
G3 X36.0623 Y15.7273 I0.4628 J1.6959
G1 X36.8827
G1 X36.0623
G0 Z3.0
G0 X36.8827 Y20.4559
G0 Z0.405
G1 F1000.0 Z-0.005
G1 F2000.0 X34.8143
G1 X36.8827
G0 Z3.0
G0 X49.52 Y41.0
G0 Z0.405
G1 F1000.0 Z-0.005
G1 F2000.0 X10.9 Y41.18
G0 Z3.0
G0 X11.1749 Y118.33
G0 Z0.405
G1 F1000.0 Z-0.005
G1 F2000.0 Y124.1281
G1 X13.1722
G2 X13.6905 Y124.1131 I0.0255 J-8.0345
G2 X14.2045 Y124.0451 I-0.1768 J-3.3145
G2 X15.0548 Y123.6298 I-0.4125 J-1.9228
G2 X15.7391 Y122.6371 I-1.5225 J-1.7815
G2 X15.9165 Y121.9593 I-3.1548 J-1.1879
G2 X15.9685 Y121.2607 I-4.4371 J-0.6814
G2 X15.8142 Y120.09 I-4.0731 J-0.0589
G2 X15.4187 Y119.2436 I-2.7838 J0.7852
G2 X14.8887 Y118.7176 I-1.7476 J1.2308
G2 X14.1966 Y118.4289 I-1.1675 J1.8248
G2 X13.2671 Y118.33 I-0.8799 J3.8531
G1 X11.1749
G0 Z3.0
G0 X11.9422 Y119.0142
G0 Z0.405
G1 F1000.0 Z-0.005
G1 F2000.0 X13.1801
G3 X13.633 Y119.0345 I0.0206 J4.5982
G3 X14.0779 Y119.121 I-0.1834 J2.132
G3 X14.6 Y119.4216 I-0.3678 J1.2425
G3 X14.8546 Y119.7626 I-1.1039 J1.0895
G3 X15.0232 Y120.1533 I-1.9283 J1.064
G3 X15.1445 Y120.7069 I-2.7615 J0.895
G3 X15.1774 Y121.2726 I-4.5199 J0.5473
G3 X15.1194 Y121.9905 I-4.0422 J0.0343
G3 X14.8769 Y122.6687 I-1.9406 J-0.3115
G3 X14.5698 Y123.0575 I-1.5913 J-0.9412
G3 X14.1531 Y123.3253 I-0.8874 J-0.9228
G3 X13.6614 Y123.4237 I-0.6261 J-1.8506
G3 X13.1604 Y123.4439 I-0.4738 J-5.5194
G1 X11.9422
G1 Y119.0142
( mounting )
G0 Z3.0
( T3 : 3.175 )
T3 M6
M3 S1000
G0 X49.1 Y17.79
G0 Z3.0
G0 X49.1125 Y17.79
G0 Z0.01
G1 F1000.0 Z0.0
G2 F2000.0 X49.0938 Y17.7792 Z-0.0333 I-0.0125 J0.0
G2 Y17.8008 Z-0.0667 I0.0063 J0.0108
G2 X49.1125 Y17.79 Z-0.1 I0.0063 J-0.0108
G2 X49.0938 Y17.7792 Z-0.1333 I-0.0125 J0.0
G2 Y17.8008 Z-0.1667 I0.0063 J0.0108
G2 X49.1125 Y17.79 Z-0.2 I0.0063 J-0.0108
G2 X49.0938 Y17.7792 Z-0.2333 I-0.0125 J0.0
G2 Y17.8008 Z-0.2667 I0.0063 J0.0108
G2 X49.1125 Y17.79 Z-0.3 I0.0063 J-0.0108
G2 X49.0938 Y17.7792 Z-0.3333 I-0.0125 J0.0
G2 Y17.8008 Z-0.3667 I0.0063 J0.0108
G2 X49.1125 Y17.79 Z-0.4 I0.0063 J-0.0108
G2 X49.0938 Y17.7792 Z-0.4333 I-0.0125 J0.0
G2 Y17.8008 Z-0.4667 I0.0063 J0.0108
G2 X49.1125 Y17.79 Z-0.5 I0.0063 J-0.0108
G2 X49.0938 Y17.7792 Z-0.5333 I-0.0125 J0.0
G2 Y17.8008 Z-0.5667 I0.0063 J0.0108
G2 X49.1125 Y17.79 Z-0.6 I0.0063 J-0.0108
G2 X49.0938 Y17.7792 Z-0.6333 I-0.0125 J0.0
G2 Y17.8008 Z-0.6667 I0.0063 J0.0108
G2 X49.1125 Y17.79 Z-0.7 I0.0063 J-0.0108
G2 X49.0938 Y17.7792 Z-0.7333 I-0.0125 J0.0
G2 Y17.8008 Z-0.7667 I0.0063 J0.0108
G2 X49.1125 Y17.79 Z-0.8 I0.0063 J-0.0108
G2 X49.0938 Y17.7792 Z-0.8333 I-0.0125 J0.0
G2 Y17.8008 Z-0.8667 I0.0063 J0.0108
G2 X49.1125 Y17.79 Z-0.9 I0.0063 J-0.0108
G2 X49.0938 Y17.7792 Z-0.9333 I-0.0125 J0.0
G2 Y17.8008 Z-0.9667 I0.0063 J0.0108
G2 X49.1125 Y17.79 Z-1.0 I0.0063 J-0.0108
G2 X49.0938 Y17.7792 Z-1.0333 I-0.0125 J0.0
G2 Y17.8008 Z-1.0667 I0.0063 J0.0108
G2 X49.1125 Y17.79 Z-1.1 I0.0063 J-0.0108
G2 X49.0938 Y17.7792 Z-1.1333 I-0.0125 J0.0
G2 Y17.8008 Z-1.1667 I0.0063 J0.0108
G2 X49.1125 Y17.79 Z-1.2 I0.0063 J-0.0108
G2 X49.0938 Y17.7792 Z-1.2333 I-0.0125 J0.0
G2 Y17.8008 Z-1.2667 I0.0063 J0.0108
G2 X49.1125 Y17.79 Z-1.3 I0.0063 J-0.0108
G2 X49.0938 Y17.7792 Z-1.3333 I-0.0125 J0.0
G2 Y17.8008 Z-1.3667 I0.0063 J0.0108
G2 X49.1125 Y17.79 Z-1.4 I0.0063 J-0.0108
G2 X49.0938 Y17.7792 Z-1.4333 I-0.0125 J0.0
G2 Y17.8008 Z-1.4667 I0.0063 J0.0108
G2 X49.1125 Y17.79 Z-1.5 I0.0063 J-0.0108
G2 X49.0938 Y17.7792 Z-1.5333 I-0.0125 J0.0
G2 Y17.8008 Z-1.5667 I0.0063 J0.0108
G2 X49.1125 Y17.79 Z-1.6 I0.0063 J-0.0108
G2 X49.0938 Y17.7792 Z-1.6333 I-0.0125 J0.0
G2 Y17.8008 Z-1.6667 I0.0063 J0.0108
G2 X49.1125 Y17.79 Z-1.7 I0.0063 J-0.0108
G2 X49.0938 Y17.7792 Z-1.7333 I-0.0125 J0.0
G2 Y17.8008 Z-1.7667 I0.0063 J0.0108
G2 X49.1125 Y17.79 Z-1.8 I0.0063 J-0.0108
G2 X49.0938 Y17.7792 Z-1.8333 I-0.0125 J0.0
G2 Y17.8008 Z-1.8667 I0.0063 J0.0108
G2 X49.1125 Y17.79 Z-1.9 I0.0063 J-0.0108
G2 X49.0938 Y17.7792 Z-1.9333 I-0.0125 J0.0
G2 Y17.8008 Z-1.9667 I0.0063 J0.0108
G2 X49.1125 Y17.79 Z-2.0 I0.0063 J-0.0108
G2 X49.0938 Y17.7792 Z-2.0333 I-0.0125 J0.0
G2 Y17.8008 Z-2.0667 I0.0063 J0.0108
G2 X49.1125 Y17.79 Z-2.1 I0.0063 J-0.0108
G2 X49.0938 Y17.7792 Z-2.1333 I-0.0125 J0.0
G2 Y17.8008 Z-2.1667 I0.0063 J0.0108
G2 X49.1125 Y17.79 Z-2.2 I0.0063 J-0.0108
G2 X49.0938 Y17.7792 Z-2.2333 I-0.0125 J0.0
G2 Y17.8008 Z-2.2667 I0.0063 J0.0108
G2 X49.1125 Y17.79 Z-2.3 I0.0063 J-0.0108
G2 X49.0938 Y17.7792 Z-2.3333 I-0.0125 J0.0
G2 Y17.8008 Z-2.3667 I0.0063 J0.0108
G2 X49.1125 Y17.79 Z-2.4 I0.0063 J-0.0108
G2 X49.0938 Y17.7792 Z-2.4333 I-0.0125 J0.0
G2 Y17.8008 Z-2.4667 I0.0063 J0.0108
G2 X49.1125 Y17.79 Z-2.5 I0.0063 J-0.0108
G2 X49.0938 Y17.7792 Z-2.5333 I-0.0125 J0.0
G2 Y17.8008 Z-2.5667 I0.0063 J0.0108
G2 X49.1125 Y17.79 Z-2.6 I0.0063 J-0.0108
G2 X49.0938 Y17.7792 Z-2.6333 I-0.0125 J0.0
G2 Y17.8008 Z-2.6667 I0.0063 J0.0108
G2 X49.1125 Y17.79 Z-2.7 I0.0063 J-0.0108
G2 X49.0938 Y17.7792 Z-2.7333 I-0.0125 J0.0
G2 Y17.8008 Z-2.7667 I0.0063 J0.0108
G2 X49.1125 Y17.79 Z-2.8 I0.0063 J-0.0108
G2 X49.0938 Y17.7792 Z-2.8333 I-0.0125 J0.0
G2 Y17.8008 Z-2.8667 I0.0063 J0.0108
G2 X49.1125 Y17.79 Z-2.9 I0.0063 J-0.0108
G2 X49.0938 Y17.7792 Z-2.9333 I-0.0125 J0.0
G2 Y17.8008 Z-2.9667 I0.0063 J0.0108
G2 X49.1125 Y17.79 Z-3.0 I0.0062 J-0.0108
G2 X49.0938 Y17.7792 Z-3.0333 I-0.0125 J0.0
G2 Y17.8008 Z-3.0667 I0.0063 J0.0108
G2 X49.1125 Y17.79 Z-3.1 I0.0062 J-0.0108
G2 X49.0938 Y17.7792 Z-3.1333 I-0.0125 J0.0
G2 Y17.8008 Z-3.1667 I0.0063 J0.0108
G2 X49.1125 Y17.79 Z-3.2 I0.0062 J-0.0108
G2 X49.0938 Y17.7792 I-0.0125 J0.0
G2 Y17.8008 I0.0063 J0.0108
G2 X49.1125 Y17.79 I0.0062 J-0.0108
G0 Z3.0
G0 X53.0225 Y3.0
G0 Z0.01
G1 F1000.0 Z0.0
G2 F2000.0 X53.0037 Y2.9892 Z-0.0333 I-0.0125 J0.0
G2 Y3.0108 Z-0.0667 I0.0063 J0.0108
G2 X53.0225 Y3.0 Z-0.1 I0.0063 J-0.0108
G2 X53.0037 Y2.9892 Z-0.1333 I-0.0125 J0.0
G2 Y3.0108 Z-0.1667 I0.0063 J0.0108
G2 X53.0225 Y3.0 Z-0.2 I0.0063 J-0.0108
G2 X53.0037 Y2.9892 Z-0.2333 I-0.0125 J0.0
G2 Y3.0108 Z-0.2667 I0.0063 J0.0108
G2 X53.0225 Y3.0 Z-0.3 I0.0063 J-0.0108
G2 X53.0037 Y2.9892 Z-0.3333 I-0.0125 J0.0
G2 Y3.0108 Z-0.3667 I0.0063 J0.0108
G2 X53.0225 Y3.0 Z-0.4 I0.0063 J-0.0108
G2 X53.0037 Y2.9892 Z-0.4333 I-0.0125 J0.0
G2 Y3.0108 Z-0.4667 I0.0063 J0.0108
G2 X53.0225 Y3.0 Z-0.5 I0.0063 J-0.0108
G2 X53.0037 Y2.9892 Z-0.5333 I-0.0125 J0.0
G2 Y3.0108 Z-0.5667 I0.0063 J0.0108
G2 X53.0225 Y3.0 Z-0.6 I0.0063 J-0.0108
G2 X53.0037 Y2.9892 Z-0.6333 I-0.0125 J0.0
G2 Y3.0108 Z-0.6667 I0.0063 J0.0108
G2 X53.0225 Y3.0 Z-0.7 I0.0063 J-0.0108
G2 X53.0037 Y2.9892 Z-0.7333 I-0.0125 J0.0
G2 Y3.0108 Z-0.7667 I0.0063 J0.0108
G2 X53.0225 Y3.0 Z-0.8 I0.0063 J-0.0108
G2 X53.0037 Y2.9892 Z-0.8333 I-0.0125 J0.0
G2 Y3.0108 Z-0.8667 I0.0063 J0.0108
G2 X53.0225 Y3.0 Z-0.9 I0.0063 J-0.0108
G2 X53.0037 Y2.9892 Z-0.9333 I-0.0125 J0.0
G2 Y3.0108 Z-0.9667 I0.0063 J0.0108
G2 X53.0225 Y3.0 Z-1.0 I0.0063 J-0.0108
G2 X53.0037 Y2.9892 Z-1.0333 I-0.0125 J0.0
G2 Y3.0108 Z-1.0667 I0.0063 J0.0108
G2 X53.0225 Y3.0 Z-1.1 I0.0063 J-0.0108
G2 X53.0037 Y2.9892 Z-1.1333 I-0.0125 J0.0
G2 Y3.0108 Z-1.1667 I0.0063 J0.0108
G2 X53.0225 Y3.0 Z-1.2 I0.0063 J-0.0108
G2 X53.0037 Y2.9892 Z-1.2333 I-0.0125 J0.0
G2 Y3.0108 Z-1.2667 I0.0063 J0.0108
G2 X53.0225 Y3.0 Z-1.3 I0.0063 J-0.0108
G2 X53.0037 Y2.9892 Z-1.3333 I-0.0125 J0.0
G2 Y3.0108 Z-1.3667 I0.0063 J0.0108
G2 X53.0225 Y3.0 Z-1.4 I0.0063 J-0.0108
G2 X53.0037 Y2.9892 Z-1.4333 I-0.0125 J0.0
G2 Y3.0108 Z-1.4667 I0.0063 J0.0108
G2 X53.0225 Y3.0 Z-1.5 I0.0063 J-0.0108
G2 X53.0037 Y2.9892 Z-1.5333 I-0.0125 J0.0
G2 Y3.0108 Z-1.5667 I0.0063 J0.0108
G2 X53.0225 Y3.0 Z-1.6 I0.0063 J-0.0108
G2 X53.0037 Y2.9892 Z-1.6333 I-0.0125 J0.0
G2 Y3.0108 Z-1.6667 I0.0063 J0.0108
G2 X53.0225 Y3.0 Z-1.7 I0.0063 J-0.0108
G2 X53.0037 Y2.9892 Z-1.7333 I-0.0125 J0.0
G2 Y3.0108 Z-1.7667 I0.0063 J0.0108
G2 X53.0225 Y3.0 Z-1.8 I0.0063 J-0.0108
G2 X53.0037 Y2.9892 Z-1.8333 I-0.0125 J0.0
G2 Y3.0108 Z-1.8667 I0.0063 J0.0108
G2 X53.0225 Y3.0 Z-1.9 I0.0063 J-0.0108
G2 X53.0037 Y2.9892 Z-1.9333 I-0.0125 J0.0
G2 Y3.0108 Z-1.9667 I0.0063 J0.0108
G2 X53.0225 Y3.0 Z-2.0 I0.0063 J-0.0108
G2 X53.0037 Y2.9892 Z-2.0333 I-0.0125 J0.0
G2 Y3.0108 Z-2.0667 I0.0063 J0.0108
G2 X53.0225 Y3.0 Z-2.1 I0.0063 J-0.0108
G2 X53.0037 Y2.9892 Z-2.1333 I-0.0125 J0.0
G2 Y3.0108 Z-2.1667 I0.0063 J0.0108
G2 X53.0225 Y3.0 Z-2.2 I0.0063 J-0.0108
G2 X53.0037 Y2.9892 Z-2.2333 I-0.0125 J0.0
G2 Y3.0108 Z-2.2667 I0.0063 J0.0108
G2 X53.0225 Y3.0 Z-2.3 I0.0063 J-0.0108
G2 X53.0037 Y2.9892 Z-2.3333 I-0.0125 J0.0
G2 Y3.0108 Z-2.3667 I0.0063 J0.0108
G2 X53.0225 Y3.0 Z-2.4 I0.0063 J-0.0108
G2 X53.0037 Y2.9892 Z-2.4333 I-0.0125 J0.0
G2 Y3.0108 Z-2.4667 I0.0063 J0.0108
G2 X53.0225 Y3.0 Z-2.5 I0.0063 J-0.0108
G2 X53.0037 Y2.9892 Z-2.5333 I-0.0125 J0.0
G2 Y3.0108 Z-2.5667 I0.0063 J0.0108
G2 X53.0225 Y3.0 Z-2.6 I0.0063 J-0.0108
G2 X53.0037 Y2.9892 Z-2.6333 I-0.0125 J0.0
G2 Y3.0108 Z-2.6667 I0.0063 J0.0108
G2 X53.0225 Y3.0 Z-2.7 I0.0063 J-0.0108
G2 X53.0037 Y2.9892 Z-2.7333 I-0.0125 J0.0
G2 Y3.0108 Z-2.7667 I0.0063 J0.0108
G2 X53.0225 Y3.0 Z-2.8 I0.0063 J-0.0108
G2 X53.0037 Y2.9892 Z-2.8333 I-0.0125 J0.0
G2 Y3.0108 Z-2.8667 I0.0063 J0.0108
G2 X53.0225 Y3.0 Z-2.9 I0.0063 J-0.0108
G2 X53.0037 Y2.9892 Z-2.9333 I-0.0125 J0.0
G2 Y3.0108 Z-2.9667 I0.0063 J0.0108
G2 X53.0225 Y3.0 Z-3.0 I0.0062 J-0.0108
G2 X53.0037 Y2.9892 Z-3.0333 I-0.0125 J0.0
G2 Y3.0108 Z-3.0667 I0.0063 J0.0108
G2 X53.0225 Y3.0 Z-3.1 I0.0062 J-0.0108
G2 X53.0037 Y2.9892 Z-3.1333 I-0.0125 J0.0
G2 Y3.0108 Z-3.1667 I0.0063 J0.0108
G2 X53.0225 Y3.0 Z-3.2 I0.0062 J-0.0108
G2 X53.0037 Y2.9892 I-0.0125 J0.0
G2 Y3.0108 I0.0063 J0.0108
G2 X53.0225 Y3.0 I0.0062 J-0.0108
G0 Z3.0
G0 X49.3225 Y41.0
G0 Z0.01
G1 F1000.0 Z0.0
G2 F2000.0 X49.3038 Y40.9892 Z-0.0333 I-0.0125 J0.0
G2 Y41.0108 Z-0.0667 I0.0063 J0.0108
G2 X49.3225 Y41.0 Z-0.1 I0.0063 J-0.0108
G2 X49.3038 Y40.9892 Z-0.1333 I-0.0125 J0.0
G2 Y41.0108 Z-0.1667 I0.0063 J0.0108
G2 X49.3225 Y41.0 Z-0.2 I0.0063 J-0.0108
G2 X49.3038 Y40.9892 Z-0.2333 I-0.0125 J0.0
G2 Y41.0108 Z-0.2667 I0.0063 J0.0108
G2 X49.3225 Y41.0 Z-0.3 I0.0063 J-0.0108
G2 X49.3038 Y40.9892 Z-0.3333 I-0.0125 J0.0
G2 Y41.0108 Z-0.3667 I0.0063 J0.0108
G2 X49.3225 Y41.0 Z-0.4 I0.0063 J-0.0108
G2 X49.3038 Y40.9892 Z-0.4333 I-0.0125 J0.0
G2 Y41.0108 Z-0.4667 I0.0063 J0.0108
G2 X49.3225 Y41.0 Z-0.5 I0.0063 J-0.0108
G2 X49.3038 Y40.9892 Z-0.5333 I-0.0125 J0.0
G2 Y41.0108 Z-0.5667 I0.0063 J0.0108
G2 X49.3225 Y41.0 Z-0.6 I0.0063 J-0.0108
G2 X49.3038 Y40.9892 Z-0.6333 I-0.0125 J0.0
G2 Y41.0108 Z-0.6667 I0.0063 J0.0108
G2 X49.3225 Y41.0 Z-0.7 I0.0063 J-0.0108
G2 X49.3038 Y40.9892 Z-0.7333 I-0.0125 J0.0
G2 Y41.0108 Z-0.7667 I0.0063 J0.0108
G2 X49.3225 Y41.0 Z-0.8 I0.0063 J-0.0108
G2 X49.3038 Y40.9892 Z-0.8333 I-0.0125 J0.0
G2 Y41.0108 Z-0.8667 I0.0063 J0.0108
G2 X49.3225 Y41.0 Z-0.9 I0.0063 J-0.0108
G2 X49.3038 Y40.9892 Z-0.9333 I-0.0125 J0.0
G2 Y41.0108 Z-0.9667 I0.0063 J0.0108
G2 X49.3225 Y41.0 Z-1.0 I0.0063 J-0.0108
G2 X49.3038 Y40.9892 Z-1.0333 I-0.0125 J0.0
G2 Y41.0108 Z-1.0667 I0.0063 J0.0108
G2 X49.3225 Y41.0 Z-1.1 I0.0063 J-0.0108
G2 X49.3038 Y40.9892 Z-1.1333 I-0.0125 J0.0
G2 Y41.0108 Z-1.1667 I0.0063 J0.0108
G2 X49.3225 Y41.0 Z-1.2 I0.0063 J-0.0108
G2 X49.3038 Y40.9892 Z-1.2333 I-0.0125 J0.0
G2 Y41.0108 Z-1.2667 I0.0063 J0.0108
G2 X49.3225 Y41.0 Z-1.3 I0.0063 J-0.0108
G2 X49.3038 Y40.9892 Z-1.3333 I-0.0125 J0.0
G2 Y41.0108 Z-1.3667 I0.0063 J0.0108
G2 X49.3225 Y41.0 Z-1.4 I0.0063 J-0.0108
G2 X49.3038 Y40.9892 Z-1.4333 I-0.0125 J0.0
G2 Y41.0108 Z-1.4667 I0.0063 J0.0108
G2 X49.3225 Y41.0 Z-1.5 I0.0063 J-0.0108
G2 X49.3038 Y40.9892 Z-1.5333 I-0.0125 J0.0
G2 Y41.0108 Z-1.5667 I0.0063 J0.0108
G2 X49.3225 Y41.0 Z-1.6 I0.0063 J-0.0108
G2 X49.3038 Y40.9892 Z-1.6333 I-0.0125 J0.0
G2 Y41.0108 Z-1.6667 I0.0063 J0.0108
G2 X49.3225 Y41.0 Z-1.7 I0.0063 J-0.0108
G2 X49.3038 Y40.9892 Z-1.7333 I-0.0125 J0.0
G2 Y41.0108 Z-1.7667 I0.0063 J0.0108
G2 X49.3225 Y41.0 Z-1.8 I0.0063 J-0.0108
G2 X49.3038 Y40.9892 Z-1.8333 I-0.0125 J0.0
G2 Y41.0108 Z-1.8667 I0.0063 J0.0108
G2 X49.3225 Y41.0 Z-1.9 I0.0063 J-0.0108
G2 X49.3038 Y40.9892 Z-1.9333 I-0.0125 J0.0
G2 Y41.0108 Z-1.9667 I0.0063 J0.0108
G2 X49.3225 Y41.0 Z-2.0 I0.0063 J-0.0108
G2 X49.3038 Y40.9892 Z-2.0333 I-0.0125 J0.0
G2 Y41.0108 Z-2.0667 I0.0063 J0.0108
G2 X49.3225 Y41.0 Z-2.1 I0.0063 J-0.0108
G2 X49.3038 Y40.9892 Z-2.1333 I-0.0125 J0.0
G2 Y41.0108 Z-2.1667 I0.0063 J0.0108
G2 X49.3225 Y41.0 Z-2.2 I0.0063 J-0.0108
G2 X49.3038 Y40.9892 Z-2.2333 I-0.0125 J0.0
G2 Y41.0108 Z-2.2667 I0.0063 J0.0108
G2 X49.3225 Y41.0 Z-2.3 I0.0063 J-0.0108
G2 X49.3038 Y40.9892 Z-2.3333 I-0.0125 J0.0
G2 Y41.0108 Z-2.3667 I0.0063 J0.0108
G2 X49.3225 Y41.0 Z-2.4 I0.0063 J-0.0108
G2 X49.3038 Y40.9892 Z-2.4333 I-0.0125 J0.0
G2 Y41.0108 Z-2.4667 I0.0063 J0.0108
G2 X49.3225 Y41.0 Z-2.5 I0.0063 J-0.0108
G2 X49.3038 Y40.9892 Z-2.5333 I-0.0125 J0.0
G2 Y41.0108 Z-2.5667 I0.0063 J0.0108
G2 X49.3225 Y41.0 Z-2.6 I0.0063 J-0.0108
G2 X49.3038 Y40.9892 Z-2.6333 I-0.0125 J0.0
G2 Y41.0108 Z-2.6667 I0.0063 J0.0108
G2 X49.3225 Y41.0 Z-2.7 I0.0063 J-0.0108
G2 X49.3038 Y40.9892 Z-2.7333 I-0.0125 J0.0
G2 Y41.0108 Z-2.7667 I0.0063 J0.0108
G2 X49.3225 Y41.0 Z-2.8 I0.0063 J-0.0108
G2 X49.3038 Y40.9892 Z-2.8333 I-0.0125 J0.0
G2 Y41.0108 Z-2.8667 I0.0063 J0.0108
G2 X49.3225 Y41.0 Z-2.9 I0.0063 J-0.0108
G2 X49.3038 Y40.9892 Z-2.9333 I-0.0125 J0.0
G2 Y41.0108 Z-2.9667 I0.0063 J0.0108
G2 X49.3225 Y41.0 Z-3.0 I0.0062 J-0.0108
G2 X49.3038 Y40.9892 Z-3.0333 I-0.0125 J0.0
G2 Y41.0108 Z-3.0667 I0.0063 J0.0108
G2 X49.3225 Y41.0 Z-3.1 I0.0062 J-0.0108
G2 X49.3038 Y40.9892 Z-3.1333 I-0.0125 J0.0
G2 Y41.0108 Z-3.1667 I0.0063 J0.0108
G2 X49.3225 Y41.0 Z-3.2 I0.0062 J-0.0108
G2 X49.3038 Y40.9892 I-0.0125 J0.0
G2 Y41.0108 I0.0063 J0.0108
G2 X49.3225 Y41.0 I0.0062 J-0.0108
G0 Z3.0
G0 X49.4725 Y67.33
G0 Z0.01
G1 F1000.0 Z0.0
G2 F2000.0 X49.4538 Y67.3192 Z-0.0333 I-0.0125 J0.0
G2 Y67.3408 Z-0.0667 I0.0062 J0.0108
G2 X49.4725 Y67.33 Z-0.1 I0.0063 J-0.0108
G2 X49.4538 Y67.3192 Z-0.1333 I-0.0125 J0.0
G2 Y67.3408 Z-0.1667 I0.0062 J0.0108
G2 X49.4725 Y67.33 Z-0.2 I0.0063 J-0.0108
G2 X49.4538 Y67.3192 Z-0.2333 I-0.0125 J0.0
G2 Y67.3408 Z-0.2667 I0.0062 J0.0108
G2 X49.4725 Y67.33 Z-0.3 I0.0063 J-0.0108
G2 X49.4538 Y67.3192 Z-0.3333 I-0.0125 J0.0
G2 Y67.3408 Z-0.3667 I0.0062 J0.0108
G2 X49.4725 Y67.33 Z-0.4 I0.0063 J-0.0108
G2 X49.4538 Y67.3192 Z-0.4333 I-0.0125 J0.0
G2 Y67.3408 Z-0.4667 I0.0062 J0.0108
G2 X49.4725 Y67.33 Z-0.5 I0.0063 J-0.0108
G2 X49.4538 Y67.3192 Z-0.5333 I-0.0125 J0.0
G2 Y67.3408 Z-0.5667 I0.0062 J0.0108
G2 X49.4725 Y67.33 Z-0.6 I0.0063 J-0.0108
G2 X49.4538 Y67.3192 Z-0.6333 I-0.0125 J0.0
G2 Y67.3408 Z-0.6667 I0.0062 J0.0108
G2 X49.4725 Y67.33 Z-0.7 I0.0063 J-0.0108
G2 X49.4538 Y67.3192 Z-0.7333 I-0.0125 J0.0
G2 Y67.3408 Z-0.7667 I0.0062 J0.0108
G2 X49.4725 Y67.33 Z-0.8 I0.0063 J-0.0108
G2 X49.4538 Y67.3192 Z-0.8333 I-0.0125 J0.0
G2 Y67.3408 Z-0.8667 I0.0062 J0.0108
G2 X49.4725 Y67.33 Z-0.9 I0.0063 J-0.0108
G2 X49.4538 Y67.3192 Z-0.9333 I-0.0125 J0.0
G2 Y67.3408 Z-0.9667 I0.0062 J0.0108
G2 X49.4725 Y67.33 Z-1.0 I0.0063 J-0.0108
G2 X49.4538 Y67.3192 Z-1.0333 I-0.0125 J0.0
G2 Y67.3408 Z-1.0667 I0.0062 J0.0108
G2 X49.4725 Y67.33 Z-1.1 I0.0063 J-0.0108
G2 X49.4538 Y67.3192 Z-1.1333 I-0.0125 J0.0
G2 Y67.3408 Z-1.1667 I0.0062 J0.0108
G2 X49.4725 Y67.33 Z-1.2 I0.0063 J-0.0108
G2 X49.4538 Y67.3192 Z-1.2333 I-0.0125 J0.0
G2 Y67.3408 Z-1.2667 I0.0062 J0.0108
G2 X49.4725 Y67.33 Z-1.3 I0.0063 J-0.0108
G2 X49.4538 Y67.3192 Z-1.3333 I-0.0125 J0.0
G2 Y67.3408 Z-1.3667 I0.0062 J0.0108
G2 X49.4725 Y67.33 Z-1.4 I0.0063 J-0.0108
G2 X49.4538 Y67.3192 Z-1.4333 I-0.0125 J0.0
G2 Y67.3408 Z-1.4667 I0.0062 J0.0108
G2 X49.4725 Y67.33 Z-1.5 I0.0063 J-0.0108
G2 X49.4538 Y67.3192 Z-1.5333 I-0.0125 J0.0
G2 Y67.3408 Z-1.5667 I0.0062 J0.0108
G2 X49.4725 Y67.33 Z-1.6 I0.0063 J-0.0108
G2 X49.4538 Y67.3192 Z-1.6333 I-0.0125 J0.0
G2 Y67.3408 Z-1.6667 I0.0062 J0.0108
G2 X49.4725 Y67.33 Z-1.7 I0.0063 J-0.0108
G2 X49.4538 Y67.3192 Z-1.7333 I-0.0125 J0.0
G2 Y67.3408 Z-1.7667 I0.0062 J0.0108
G2 X49.4725 Y67.33 Z-1.8 I0.0063 J-0.0108
G2 X49.4538 Y67.3192 Z-1.8333 I-0.0125 J0.0
G2 Y67.3408 Z-1.8667 I0.0062 J0.0108
G2 X49.4725 Y67.33 Z-1.9 I0.0063 J-0.0108
G2 X49.4538 Y67.3192 Z-1.9333 I-0.0125 J0.0
G2 Y67.3408 Z-1.9667 I0.0062 J0.0108
G2 X49.4725 Y67.33 Z-2.0 I0.0063 J-0.0108
G2 X49.4538 Y67.3192 Z-2.0333 I-0.0125 J0.0
G2 Y67.3408 Z-2.0667 I0.0062 J0.0108
G2 X49.4725 Y67.33 Z-2.1 I0.0063 J-0.0108
G2 X49.4538 Y67.3192 Z-2.1333 I-0.0125 J0.0
G2 Y67.3408 Z-2.1667 I0.0062 J0.0108
G2 X49.4725 Y67.33 Z-2.2 I0.0063 J-0.0108
G2 X49.4538 Y67.3192 Z-2.2333 I-0.0125 J0.0
G2 Y67.3408 Z-2.2667 I0.0062 J0.0108
G2 X49.4725 Y67.33 Z-2.3 I0.0063 J-0.0108
G2 X49.4538 Y67.3192 Z-2.3333 I-0.0125 J0.0
G2 Y67.3408 Z-2.3667 I0.0062 J0.0108
G2 X49.4725 Y67.33 Z-2.4 I0.0063 J-0.0108
G2 X49.4538 Y67.3192 Z-2.4333 I-0.0125 J0.0
G2 Y67.3408 Z-2.4667 I0.0062 J0.0108
G2 X49.4725 Y67.33 Z-2.5 I0.0063 J-0.0108
G2 X49.4538 Y67.3192 Z-2.5333 I-0.0125 J0.0
G2 Y67.3408 Z-2.5667 I0.0062 J0.0108
G2 X49.4725 Y67.33 Z-2.6 I0.0063 J-0.0108
G2 X49.4538 Y67.3192 Z-2.6333 I-0.0125 J0.0
G2 Y67.3408 Z-2.6667 I0.0062 J0.0108
G2 X49.4725 Y67.33 Z-2.7 I0.0063 J-0.0108
G2 X49.4538 Y67.3192 Z-2.7333 I-0.0125 J0.0
G2 Y67.3408 Z-2.7667 I0.0062 J0.0108
G2 X49.4725 Y67.33 Z-2.8 I0.0063 J-0.0108
G2 X49.4538 Y67.3192 Z-2.8333 I-0.0125 J0.0
G2 Y67.3408 Z-2.8667 I0.0062 J0.0108
G2 X49.4725 Y67.33 Z-2.9 I0.0063 J-0.0108
G2 X49.4538 Y67.3192 Z-2.9333 I-0.0125 J0.0
G2 Y67.3408 Z-2.9667 I0.0063 J0.0108
G2 X49.4725 Y67.33 Z-3.0 I0.0063 J-0.0108
G2 X49.4538 Y67.3192 Z-3.0333 I-0.0125 J0.0
G2 Y67.3408 Z-3.0667 I0.0063 J0.0108
G2 X49.4725 Y67.33 Z-3.1 I0.0063 J-0.0108
G2 X49.4538 Y67.3192 Z-3.1333 I-0.0125 J0.0
G2 Y67.3408 Z-3.1667 I0.0063 J0.0108
G2 X49.4725 Y67.33 Z-3.2 I0.0063 J-0.0108
G2 X49.4538 Y67.3192 I-0.0125 J0.0
G2 Y67.3408 I0.0063 J0.0108
G2 X49.4725 Y67.33 I0.0062 J-0.0108
G0 Z3.0
G0 X50.0825 Y94.86
G0 Z0.01
G1 F1000.0 Z0.0
G2 F2000.0 X50.0638 Y94.8492 Z-0.0333 I-0.0125 J0.0
G2 Y94.8708 Z-0.0667 I0.0062 J0.0108
G2 X50.0825 Y94.86 Z-0.1 I0.0063 J-0.0108
G2 X50.0638 Y94.8492 Z-0.1333 I-0.0125 J0.0
G2 Y94.8708 Z-0.1667 I0.0062 J0.0108
G2 X50.0825 Y94.86 Z-0.2 I0.0063 J-0.0108
G2 X50.0638 Y94.8492 Z-0.2333 I-0.0125 J0.0
G2 Y94.8708 Z-0.2667 I0.0062 J0.0108
G2 X50.0825 Y94.86 Z-0.3 I0.0063 J-0.0108
G2 X50.0638 Y94.8492 Z-0.3333 I-0.0125 J0.0
G2 Y94.8708 Z-0.3667 I0.0062 J0.0108
G2 X50.0825 Y94.86 Z-0.4 I0.0063 J-0.0108
G2 X50.0638 Y94.8492 Z-0.4333 I-0.0125 J0.0
G2 Y94.8708 Z-0.4667 I0.0062 J0.0108
G2 X50.0825 Y94.86 Z-0.5 I0.0063 J-0.0108
G2 X50.0638 Y94.8492 Z-0.5333 I-0.0125 J0.0
G2 Y94.8708 Z-0.5667 I0.0062 J0.0108
G2 X50.0825 Y94.86 Z-0.6 I0.0063 J-0.0108
G2 X50.0638 Y94.8492 Z-0.6333 I-0.0125 J0.0
G2 Y94.8708 Z-0.6667 I0.0062 J0.0108
G2 X50.0825 Y94.86 Z-0.7 I0.0063 J-0.0108
G2 X50.0638 Y94.8492 Z-0.7333 I-0.0125 J0.0
G2 Y94.8708 Z-0.7667 I0.0062 J0.0108
G2 X50.0825 Y94.86 Z-0.8 I0.0063 J-0.0108
G2 X50.0638 Y94.8492 Z-0.8333 I-0.0125 J0.0
G2 Y94.8708 Z-0.8667 I0.0062 J0.0108
G2 X50.0825 Y94.86 Z-0.9 I0.0063 J-0.0108
G2 X50.0638 Y94.8492 Z-0.9333 I-0.0125 J0.0
G2 Y94.8708 Z-0.9667 I0.0062 J0.0108
G2 X50.0825 Y94.86 Z-1.0 I0.0063 J-0.0108
G2 X50.0638 Y94.8492 Z-1.0333 I-0.0125 J0.0
G2 Y94.8708 Z-1.0667 I0.0062 J0.0108
G2 X50.0825 Y94.86 Z-1.1 I0.0063 J-0.0108
G2 X50.0638 Y94.8492 Z-1.1333 I-0.0125 J0.0
G2 Y94.8708 Z-1.1667 I0.0062 J0.0108
G2 X50.0825 Y94.86 Z-1.2 I0.0063 J-0.0108
G2 X50.0638 Y94.8492 Z-1.2333 I-0.0125 J0.0
G2 Y94.8708 Z-1.2667 I0.0062 J0.0108
G2 X50.0825 Y94.86 Z-1.3 I0.0063 J-0.0108
G2 X50.0638 Y94.8492 Z-1.3333 I-0.0125 J0.0
G2 Y94.8708 Z-1.3667 I0.0062 J0.0108
G2 X50.0825 Y94.86 Z-1.4 I0.0063 J-0.0108
G2 X50.0638 Y94.8492 Z-1.4333 I-0.0125 J0.0
G2 Y94.8708 Z-1.4667 I0.0062 J0.0108
G2 X50.0825 Y94.86 Z-1.5 I0.0063 J-0.0108
G2 X50.0638 Y94.8492 Z-1.5333 I-0.0125 J0.0
G2 Y94.8708 Z-1.5667 I0.0062 J0.0108
G2 X50.0825 Y94.86 Z-1.6 I0.0063 J-0.0108
G2 X50.0638 Y94.8492 Z-1.6333 I-0.0125 J0.0
G2 Y94.8708 Z-1.6667 I0.0062 J0.0108
G2 X50.0825 Y94.86 Z-1.7 I0.0063 J-0.0108
G2 X50.0638 Y94.8492 Z-1.7333 I-0.0125 J0.0
G2 Y94.8708 Z-1.7667 I0.0062 J0.0108
G2 X50.0825 Y94.86 Z-1.8 I0.0063 J-0.0108
G2 X50.0638 Y94.8492 Z-1.8333 I-0.0125 J0.0
G2 Y94.8708 Z-1.8667 I0.0062 J0.0108
G2 X50.0825 Y94.86 Z-1.9 I0.0063 J-0.0108
G2 X50.0638 Y94.8492 Z-1.9333 I-0.0125 J0.0
G2 Y94.8708 Z-1.9667 I0.0062 J0.0108
G2 X50.0825 Y94.86 Z-2.0 I0.0063 J-0.0108
G2 X50.0638 Y94.8492 Z-2.0333 I-0.0125 J0.0
G2 Y94.8708 Z-2.0667 I0.0062 J0.0108
G2 X50.0825 Y94.86 Z-2.1 I0.0063 J-0.0108
G2 X50.0638 Y94.8492 Z-2.1333 I-0.0125 J0.0
G2 Y94.8708 Z-2.1667 I0.0062 J0.0108
G2 X50.0825 Y94.86 Z-2.2 I0.0063 J-0.0108
G2 X50.0638 Y94.8492 Z-2.2333 I-0.0125 J0.0
G2 Y94.8708 Z-2.2667 I0.0062 J0.0108
G2 X50.0825 Y94.86 Z-2.3 I0.0063 J-0.0108
G2 X50.0638 Y94.8492 Z-2.3333 I-0.0125 J0.0
G2 Y94.8708 Z-2.3667 I0.0062 J0.0108
G2 X50.0825 Y94.86 Z-2.4 I0.0063 J-0.0108
G2 X50.0638 Y94.8492 Z-2.4333 I-0.0125 J0.0
G2 Y94.8708 Z-2.4667 I0.0062 J0.0108
G2 X50.0825 Y94.86 Z-2.5 I0.0063 J-0.0108
G2 X50.0638 Y94.8492 Z-2.5333 I-0.0125 J0.0
G2 Y94.8708 Z-2.5667 I0.0062 J0.0108
G2 X50.0825 Y94.86 Z-2.6 I0.0063 J-0.0108
G2 X50.0638 Y94.8492 Z-2.6333 I-0.0125 J0.0
G2 Y94.8708 Z-2.6667 I0.0062 J0.0108
G2 X50.0825 Y94.86 Z-2.7 I0.0063 J-0.0108
G2 X50.0638 Y94.8492 Z-2.7333 I-0.0125 J0.0
G2 Y94.8708 Z-2.7667 I0.0062 J0.0108
G2 X50.0825 Y94.86 Z-2.8 I0.0063 J-0.0108
G2 X50.0638 Y94.8492 Z-2.8333 I-0.0125 J0.0
G2 Y94.8708 Z-2.8667 I0.0062 J0.0108
G2 X50.0825 Y94.86 Z-2.9 I0.0063 J-0.0108
G2 X50.0638 Y94.8492 Z-2.9333 I-0.0125 J0.0
G2 Y94.8708 Z-2.9667 I0.0063 J0.0108
G2 X50.0825 Y94.86 Z-3.0 I0.0063 J-0.0108
G2 X50.0638 Y94.8492 Z-3.0333 I-0.0125 J0.0
G2 Y94.8708 Z-3.0667 I0.0063 J0.0108
G2 X50.0825 Y94.86 Z-3.1 I0.0063 J-0.0108
G2 X50.0638 Y94.8492 Z-3.1333 I-0.0125 J0.0
G2 Y94.8708 Z-3.1667 I0.0063 J0.0108
G2 X50.0825 Y94.86 Z-3.2 I0.0063 J-0.0108
G2 X50.0638 Y94.8492 I-0.0125 J0.0
G2 Y94.8708 I0.0063 J0.0108
G2 X50.0825 Y94.86 I0.0062 J-0.0108
G0 Z3.0
G0 X49.9225 Y108.24
G0 Z0.01
G1 F1000.0 Z0.0
G2 F2000.0 X49.9038 Y108.2292 Z-0.0333 I-0.0125 J0.0
G2 Y108.2508 Z-0.0667 I0.0062 J0.0108
G2 X49.9225 Y108.24 Z-0.1 I0.0063 J-0.0108
G2 X49.9038 Y108.2292 Z-0.1333 I-0.0125 J0.0
G2 Y108.2508 Z-0.1667 I0.0062 J0.0108
G2 X49.9225 Y108.24 Z-0.2 I0.0063 J-0.0108
G2 X49.9038 Y108.2292 Z-0.2333 I-0.0125 J0.0
G2 Y108.2508 Z-0.2667 I0.0062 J0.0108
G2 X49.9225 Y108.24 Z-0.3 I0.0063 J-0.0108
G2 X49.9038 Y108.2292 Z-0.3333 I-0.0125 J0.0
G2 Y108.2508 Z-0.3667 I0.0062 J0.0108
G2 X49.9225 Y108.24 Z-0.4 I0.0063 J-0.0108
G2 X49.9038 Y108.2292 Z-0.4333 I-0.0125 J0.0
G2 Y108.2508 Z-0.4667 I0.0062 J0.0108
G2 X49.9225 Y108.24 Z-0.5 I0.0063 J-0.0108
G2 X49.9038 Y108.2292 Z-0.5333 I-0.0125 J0.0
G2 Y108.2508 Z-0.5667 I0.0062 J0.0108
G2 X49.9225 Y108.24 Z-0.6 I0.0063 J-0.0108
G2 X49.9038 Y108.2292 Z-0.6333 I-0.0125 J0.0
G2 Y108.2508 Z-0.6667 I0.0062 J0.0108
G2 X49.9225 Y108.24 Z-0.7 I0.0063 J-0.0108
G2 X49.9038 Y108.2292 Z-0.7333 I-0.0125 J0.0
G2 Y108.2508 Z-0.7667 I0.0062 J0.0108
G2 X49.9225 Y108.24 Z-0.8 I0.0063 J-0.0108
G2 X49.9038 Y108.2292 Z-0.8333 I-0.0125 J0.0
G2 Y108.2508 Z-0.8667 I0.0062 J0.0108
G2 X49.9225 Y108.24 Z-0.9 I0.0063 J-0.0108
G2 X49.9038 Y108.2292 Z-0.9333 I-0.0125 J0.0
G2 Y108.2508 Z-0.9667 I0.0062 J0.0108
G2 X49.9225 Y108.24 Z-1.0 I0.0063 J-0.0108
G2 X49.9038 Y108.2292 Z-1.0333 I-0.0125 J0.0
G2 Y108.2508 Z-1.0667 I0.0062 J0.0108
G2 X49.9225 Y108.24 Z-1.1 I0.0063 J-0.0108
G2 X49.9038 Y108.2292 Z-1.1333 I-0.0125 J0.0
G2 Y108.2508 Z-1.1667 I0.0062 J0.0108
G2 X49.9225 Y108.24 Z-1.2 I0.0063 J-0.0108
G2 X49.9038 Y108.2292 Z-1.2333 I-0.0125 J0.0
G2 Y108.2508 Z-1.2667 I0.0062 J0.0108
G2 X49.9225 Y108.24 Z-1.3 I0.0063 J-0.0108
G2 X49.9038 Y108.2292 Z-1.3333 I-0.0125 J0.0
G2 Y108.2508 Z-1.3667 I0.0062 J0.0108
G2 X49.9225 Y108.24 Z-1.4 I0.0063 J-0.0108
G2 X49.9038 Y108.2292 Z-1.4333 I-0.0125 J0.0
G2 Y108.2508 Z-1.4667 I0.0062 J0.0108
G2 X49.9225 Y108.24 Z-1.5 I0.0063 J-0.0108
G2 X49.9038 Y108.2292 Z-1.5333 I-0.0125 J0.0
G2 Y108.2508 Z-1.5667 I0.0062 J0.0108
G2 X49.9225 Y108.24 Z-1.6 I0.0063 J-0.0108
G2 X49.9038 Y108.2292 Z-1.6333 I-0.0125 J0.0
G2 Y108.2508 Z-1.6667 I0.0062 J0.0108
G2 X49.9225 Y108.24 Z-1.7 I0.0063 J-0.0108
G2 X49.9038 Y108.2292 Z-1.7333 I-0.0125 J0.0
G2 Y108.2508 Z-1.7667 I0.0062 J0.0108
G2 X49.9225 Y108.24 Z-1.8 I0.0063 J-0.0108
G2 X49.9038 Y108.2292 Z-1.8333 I-0.0125 J0.0
G2 Y108.2508 Z-1.8667 I0.0062 J0.0108
G2 X49.9225 Y108.24 Z-1.9 I0.0063 J-0.0108
G2 X49.9038 Y108.2292 Z-1.9333 I-0.0125 J0.0
G2 Y108.2508 Z-1.9667 I0.0062 J0.0108
G2 X49.9225 Y108.24 Z-2.0 I0.0063 J-0.0108
G2 X49.9038 Y108.2292 Z-2.0333 I-0.0125 J0.0
G2 Y108.2508 Z-2.0667 I0.0062 J0.0108
G2 X49.9225 Y108.24 Z-2.1 I0.0063 J-0.0108
G2 X49.9038 Y108.2292 Z-2.1333 I-0.0125 J0.0
G2 Y108.2508 Z-2.1667 I0.0062 J0.0108
G2 X49.9225 Y108.24 Z-2.2 I0.0063 J-0.0108
G2 X49.9038 Y108.2292 Z-2.2333 I-0.0125 J0.0
G2 Y108.2508 Z-2.2667 I0.0062 J0.0108
G2 X49.9225 Y108.24 Z-2.3 I0.0063 J-0.0108
G2 X49.9038 Y108.2292 Z-2.3333 I-0.0125 J0.0
G2 Y108.2508 Z-2.3667 I0.0062 J0.0108
G2 X49.9225 Y108.24 Z-2.4 I0.0063 J-0.0108
G2 X49.9038 Y108.2292 Z-2.4333 I-0.0125 J0.0
G2 Y108.2508 Z-2.4667 I0.0062 J0.0108
G2 X49.9225 Y108.24 Z-2.5 I0.0063 J-0.0108
G2 X49.9038 Y108.2292 Z-2.5333 I-0.0125 J0.0
G2 Y108.2508 Z-2.5667 I0.0062 J0.0108
G2 X49.9225 Y108.24 Z-2.6 I0.0063 J-0.0108
G2 X49.9038 Y108.2292 Z-2.6333 I-0.0125 J0.0
G2 Y108.2508 Z-2.6667 I0.0062 J0.0108
G2 X49.9225 Y108.24 Z-2.7 I0.0063 J-0.0108
G2 X49.9038 Y108.2292 Z-2.7333 I-0.0125 J0.0
G2 Y108.2508 Z-2.7667 I0.0062 J0.0108
G2 X49.9225 Y108.24 Z-2.8 I0.0063 J-0.0108
G2 X49.9038 Y108.2292 Z-2.8333 I-0.0125 J0.0
G2 Y108.2508 Z-2.8667 I0.0062 J0.0108
G2 X49.9225 Y108.24 Z-2.9 I0.0063 J-0.0108
G2 X49.9038 Y108.2292 Z-2.9333 I-0.0125 J0.0
G2 Y108.2508 Z-2.9667 I0.0063 J0.0108
G2 X49.9225 Y108.24 Z-3.0 I0.0063 J-0.0108
G2 X49.9038 Y108.2292 Z-3.0333 I-0.0125 J0.0
G2 Y108.2508 Z-3.0667 I0.0063 J0.0108
G2 X49.9225 Y108.24 Z-3.1 I0.0063 J-0.0108
G2 X49.9038 Y108.2292 Z-3.1333 I-0.0125 J0.0
G2 Y108.2508 Z-3.1667 I0.0063 J0.0108
G2 X49.9225 Y108.24 Z-3.2 I0.0063 J-0.0108
G2 X49.9038 Y108.2292 I-0.0125 J0.0
G2 Y108.2508 I0.0063 J0.0108
G2 X49.9225 Y108.24 I0.0062 J-0.0108
G0 Z3.0
G0 X53.0225 Y125.5
G0 Z0.01
G1 F1000.0 Z0.0
G2 F2000.0 X53.0037 Y125.4892 Z-0.0333 I-0.0125 J0.0
G2 Y125.5108 Z-0.0667 I0.0062 J0.0108
G2 X53.0225 Y125.5 Z-0.1 I0.0063 J-0.0108
G2 X53.0037 Y125.4892 Z-0.1333 I-0.0125 J0.0
G2 Y125.5108 Z-0.1667 I0.0062 J0.0108
G2 X53.0225 Y125.5 Z-0.2 I0.0063 J-0.0108
G2 X53.0037 Y125.4892 Z-0.2333 I-0.0125 J0.0
G2 Y125.5108 Z-0.2667 I0.0062 J0.0108
G2 X53.0225 Y125.5 Z-0.3 I0.0063 J-0.0108
G2 X53.0037 Y125.4892 Z-0.3333 I-0.0125 J0.0
G2 Y125.5108 Z-0.3667 I0.0062 J0.0108
G2 X53.0225 Y125.5 Z-0.4 I0.0063 J-0.0108
G2 X53.0037 Y125.4892 Z-0.4333 I-0.0125 J0.0
G2 Y125.5108 Z-0.4667 I0.0062 J0.0108
G2 X53.0225 Y125.5 Z-0.5 I0.0063 J-0.0108
G2 X53.0037 Y125.4892 Z-0.5333 I-0.0125 J0.0
G2 Y125.5108 Z-0.5667 I0.0062 J0.0108
G2 X53.0225 Y125.5 Z-0.6 I0.0063 J-0.0108
G2 X53.0037 Y125.4892 Z-0.6333 I-0.0125 J0.0
G2 Y125.5108 Z-0.6667 I0.0062 J0.0108
G2 X53.0225 Y125.5 Z-0.7 I0.0063 J-0.0108
G2 X53.0037 Y125.4892 Z-0.7333 I-0.0125 J0.0
G2 Y125.5108 Z-0.7667 I0.0062 J0.0108
G2 X53.0225 Y125.5 Z-0.8 I0.0063 J-0.0108
G2 X53.0037 Y125.4892 Z-0.8333 I-0.0125 J0.0
G2 Y125.5108 Z-0.8667 I0.0062 J0.0108
G2 X53.0225 Y125.5 Z-0.9 I0.0063 J-0.0108
G2 X53.0037 Y125.4892 Z-0.9333 I-0.0125 J0.0
G2 Y125.5108 Z-0.9667 I0.0062 J0.0108
G2 X53.0225 Y125.5 Z-1.0 I0.0063 J-0.0108
G2 X53.0037 Y125.4892 Z-1.0333 I-0.0125 J0.0
G2 Y125.5108 Z-1.0667 I0.0062 J0.0108
G2 X53.0225 Y125.5 Z-1.1 I0.0063 J-0.0108
G2 X53.0037 Y125.4892 Z-1.1333 I-0.0125 J0.0
G2 Y125.5108 Z-1.1667 I0.0062 J0.0108
G2 X53.0225 Y125.5 Z-1.2 I0.0063 J-0.0108
G2 X53.0037 Y125.4892 Z-1.2333 I-0.0125 J0.0
G2 Y125.5108 Z-1.2667 I0.0062 J0.0108
G2 X53.0225 Y125.5 Z-1.3 I0.0063 J-0.0108
G2 X53.0037 Y125.4892 Z-1.3333 I-0.0125 J0.0
G2 Y125.5108 Z-1.3667 I0.0062 J0.0108
G2 X53.0225 Y125.5 Z-1.4 I0.0063 J-0.0108
G2 X53.0037 Y125.4892 Z-1.4333 I-0.0125 J0.0
G2 Y125.5108 Z-1.4667 I0.0062 J0.0108
G2 X53.0225 Y125.5 Z-1.5 I0.0063 J-0.0108
G2 X53.0037 Y125.4892 Z-1.5333 I-0.0125 J0.0
G2 Y125.5108 Z-1.5667 I0.0062 J0.0108
G2 X53.0225 Y125.5 Z-1.6 I0.0063 J-0.0108
G2 X53.0037 Y125.4892 Z-1.6333 I-0.0125 J0.0
G2 Y125.5108 Z-1.6667 I0.0062 J0.0108
G2 X53.0225 Y125.5 Z-1.7 I0.0063 J-0.0108
G2 X53.0037 Y125.4892 Z-1.7333 I-0.0125 J0.0
G2 Y125.5108 Z-1.7667 I0.0062 J0.0108
G2 X53.0225 Y125.5 Z-1.8 I0.0063 J-0.0108
G2 X53.0037 Y125.4892 Z-1.8333 I-0.0125 J0.0
G2 Y125.5108 Z-1.8667 I0.0062 J0.0108
G2 X53.0225 Y125.5 Z-1.9 I0.0063 J-0.0108
G2 X53.0037 Y125.4892 Z-1.9333 I-0.0125 J0.0
G2 Y125.5108 Z-1.9667 I0.0062 J0.0108
G2 X53.0225 Y125.5 Z-2.0 I0.0063 J-0.0108
G2 X53.0037 Y125.4892 Z-2.0333 I-0.0125 J0.0
G2 Y125.5108 Z-2.0667 I0.0062 J0.0108
G2 X53.0225 Y125.5 Z-2.1 I0.0063 J-0.0108
G2 X53.0037 Y125.4892 Z-2.1333 I-0.0125 J0.0
G2 Y125.5108 Z-2.1667 I0.0062 J0.0108
G2 X53.0225 Y125.5 Z-2.2 I0.0063 J-0.0108
G2 X53.0037 Y125.4892 Z-2.2333 I-0.0125 J0.0
G2 Y125.5108 Z-2.2667 I0.0062 J0.0108
G2 X53.0225 Y125.5 Z-2.3 I0.0063 J-0.0108
G2 X53.0037 Y125.4892 Z-2.3333 I-0.0125 J0.0
G2 Y125.5108 Z-2.3667 I0.0062 J0.0108
G2 X53.0225 Y125.5 Z-2.4 I0.0063 J-0.0108
G2 X53.0037 Y125.4892 Z-2.4333 I-0.0125 J0.0
G2 Y125.5108 Z-2.4667 I0.0062 J0.0108
G2 X53.0225 Y125.5 Z-2.5 I0.0063 J-0.0108
G2 X53.0037 Y125.4892 Z-2.5333 I-0.0125 J0.0
G2 Y125.5108 Z-2.5667 I0.0062 J0.0108
G2 X53.0225 Y125.5 Z-2.6 I0.0063 J-0.0108
G2 X53.0037 Y125.4892 Z-2.6333 I-0.0125 J0.0
G2 Y125.5108 Z-2.6667 I0.0062 J0.0108
G2 X53.0225 Y125.5 Z-2.7 I0.0063 J-0.0108
G2 X53.0037 Y125.4892 Z-2.7333 I-0.0125 J0.0
G2 Y125.5108 Z-2.7667 I0.0062 J0.0108
G2 X53.0225 Y125.5 Z-2.8 I0.0063 J-0.0108
G2 X53.0037 Y125.4892 Z-2.8333 I-0.0125 J0.0
G2 Y125.5108 Z-2.8667 I0.0062 J0.0108
G2 X53.0225 Y125.5 Z-2.9 I0.0063 J-0.0108
G2 X53.0037 Y125.4892 Z-2.9333 I-0.0125 J0.0
G2 Y125.5108 Z-2.9667 I0.0063 J0.0108
G2 X53.0225 Y125.5 Z-3.0 I0.0063 J-0.0108
G2 X53.0037 Y125.4892 Z-3.0333 I-0.0125 J0.0
G2 Y125.5108 Z-3.0667 I0.0063 J0.0108
G2 X53.0225 Y125.5 Z-3.1 I0.0063 J-0.0108
G2 X53.0037 Y125.4892 Z-3.1333 I-0.0125 J0.0
G2 Y125.5108 Z-3.1667 I0.0063 J0.0108
G2 X53.0225 Y125.5 Z-3.2 I0.0063 J-0.0108
G2 X53.0037 Y125.4892 I-0.0125 J0.0
G2 Y125.5108 I0.0063 J0.0108
G2 X53.0225 Y125.5 I0.0062 J-0.0108
G0 Z3.0
G0 X7.3025
G0 Z0.01
G1 F1000.0 Z0.0
G2 F2000.0 X7.2838 Y125.4892 Z-0.0333 I-0.0125 J0.0
G2 Y125.5108 Z-0.0667 I0.0062 J0.0108
G2 X7.3025 Y125.5 Z-0.1 I0.0063 J-0.0108
G2 X7.2838 Y125.4892 Z-0.1333 I-0.0125 J0.0
G2 Y125.5108 Z-0.1667 I0.0062 J0.0108
G2 X7.3025 Y125.5 Z-0.2 I0.0063 J-0.0108
G2 X7.2838 Y125.4892 Z-0.2333 I-0.0125 J0.0
G2 Y125.5108 Z-0.2667 I0.0062 J0.0108
G2 X7.3025 Y125.5 Z-0.3 I0.0063 J-0.0108
G2 X7.2838 Y125.4892 Z-0.3333 I-0.0125 J0.0
G2 Y125.5108 Z-0.3667 I0.0062 J0.0108
G2 X7.3025 Y125.5 Z-0.4 I0.0063 J-0.0108
G2 X7.2838 Y125.4892 Z-0.4333 I-0.0125 J0.0
G2 Y125.5108 Z-0.4667 I0.0062 J0.0108
G2 X7.3025 Y125.5 Z-0.5 I0.0063 J-0.0108
G2 X7.2838 Y125.4892 Z-0.5333 I-0.0125 J0.0
G2 Y125.5108 Z-0.5667 I0.0062 J0.0108
G2 X7.3025 Y125.5 Z-0.6 I0.0063 J-0.0108
G2 X7.2838 Y125.4892 Z-0.6333 I-0.0125 J0.0
G2 Y125.5108 Z-0.6667 I0.0062 J0.0108
G2 X7.3025 Y125.5 Z-0.7 I0.0063 J-0.0108
G2 X7.2838 Y125.4892 Z-0.7333 I-0.0125 J0.0
G2 Y125.5108 Z-0.7667 I0.0062 J0.0108
G2 X7.3025 Y125.5 Z-0.8 I0.0063 J-0.0108
G2 X7.2838 Y125.4892 Z-0.8333 I-0.0125 J0.0
G2 Y125.5108 Z-0.8667 I0.0062 J0.0108
G2 X7.3025 Y125.5 Z-0.9 I0.0063 J-0.0108
G2 X7.2838 Y125.4892 Z-0.9333 I-0.0125 J0.0
G2 Y125.5108 Z-0.9667 I0.0062 J0.0108
G2 X7.3025 Y125.5 Z-1.0 I0.0063 J-0.0108
G2 X7.2838 Y125.4892 Z-1.0333 I-0.0125 J0.0
G2 Y125.5108 Z-1.0667 I0.0062 J0.0108
G2 X7.3025 Y125.5 Z-1.1 I0.0063 J-0.0108
G2 X7.2838 Y125.4892 Z-1.1333 I-0.0125 J0.0
G2 Y125.5108 Z-1.1667 I0.0062 J0.0108
G2 X7.3025 Y125.5 Z-1.2 I0.0063 J-0.0108
G2 X7.2838 Y125.4892 Z-1.2333 I-0.0125 J0.0
G2 Y125.5108 Z-1.2667 I0.0062 J0.0108
G2 X7.3025 Y125.5 Z-1.3 I0.0063 J-0.0108
G2 X7.2838 Y125.4892 Z-1.3333 I-0.0125 J0.0
G2 Y125.5108 Z-1.3667 I0.0062 J0.0108
G2 X7.3025 Y125.5 Z-1.4 I0.0063 J-0.0108
G2 X7.2838 Y125.4892 Z-1.4333 I-0.0125 J0.0
G2 Y125.5108 Z-1.4667 I0.0062 J0.0108
G2 X7.3025 Y125.5 Z-1.5 I0.0063 J-0.0108
G2 X7.2838 Y125.4892 Z-1.5333 I-0.0125 J0.0
G2 Y125.5108 Z-1.5667 I0.0062 J0.0108
G2 X7.3025 Y125.5 Z-1.6 I0.0063 J-0.0108
G2 X7.2838 Y125.4892 Z-1.6333 I-0.0125 J0.0
G2 Y125.5108 Z-1.6667 I0.0062 J0.0108
G2 X7.3025 Y125.5 Z-1.7 I0.0063 J-0.0108
G2 X7.2838 Y125.4892 Z-1.7333 I-0.0125 J0.0
G2 Y125.5108 Z-1.7667 I0.0062 J0.0108
G2 X7.3025 Y125.5 Z-1.8 I0.0063 J-0.0108
G2 X7.2838 Y125.4892 Z-1.8333 I-0.0125 J0.0
G2 Y125.5108 Z-1.8667 I0.0062 J0.0108
G2 X7.3025 Y125.5 Z-1.9 I0.0063 J-0.0108
G2 X7.2838 Y125.4892 Z-1.9333 I-0.0125 J0.0
G2 Y125.5108 Z-1.9667 I0.0062 J0.0108
G2 X7.3025 Y125.5 Z-2.0 I0.0063 J-0.0108
G2 X7.2838 Y125.4892 Z-2.0333 I-0.0125 J0.0
G2 Y125.5108 Z-2.0667 I0.0062 J0.0108
G2 X7.3025 Y125.5 Z-2.1 I0.0063 J-0.0108
G2 X7.2838 Y125.4892 Z-2.1333 I-0.0125 J0.0
G2 Y125.5108 Z-2.1667 I0.0062 J0.0108
G2 X7.3025 Y125.5 Z-2.2 I0.0063 J-0.0108
G2 X7.2838 Y125.4892 Z-2.2333 I-0.0125 J0.0
G2 Y125.5108 Z-2.2667 I0.0062 J0.0108
G2 X7.3025 Y125.5 Z-2.3 I0.0063 J-0.0108
G2 X7.2838 Y125.4892 Z-2.3333 I-0.0125 J0.0
G2 Y125.5108 Z-2.3667 I0.0062 J0.0108
G2 X7.3025 Y125.5 Z-2.4 I0.0063 J-0.0108
G2 X7.2838 Y125.4892 Z-2.4333 I-0.0125 J0.0
G2 Y125.5108 Z-2.4667 I0.0062 J0.0108
G2 X7.3025 Y125.5 Z-2.5 I0.0063 J-0.0108
G2 X7.2838 Y125.4892 Z-2.5333 I-0.0125 J0.0
G2 Y125.5108 Z-2.5667 I0.0062 J0.0108
G2 X7.3025 Y125.5 Z-2.6 I0.0063 J-0.0108
G2 X7.2838 Y125.4892 Z-2.6333 I-0.0125 J0.0
G2 Y125.5108 Z-2.6667 I0.0062 J0.0108
G2 X7.3025 Y125.5 Z-2.7 I0.0063 J-0.0108
G2 X7.2838 Y125.4892 Z-2.7333 I-0.0125 J0.0
G2 Y125.5108 Z-2.7667 I0.0062 J0.0108
G2 X7.3025 Y125.5 Z-2.8 I0.0063 J-0.0108
G2 X7.2838 Y125.4892 Z-2.8333 I-0.0125 J0.0
G2 Y125.5108 Z-2.8667 I0.0062 J0.0108
G2 X7.3025 Y125.5 Z-2.9 I0.0063 J-0.0108
G2 X7.2838 Y125.4892 Z-2.9333 I-0.0125 J0.0
G2 Y125.5108 Z-2.9667 I0.0062 J0.0108
G2 X7.3025 Y125.5 Z-3.0 I0.0063 J-0.0108
G2 X7.2838 Y125.4892 Z-3.0333 I-0.0125 J0.0
G2 Y125.5108 Z-3.0667 I0.0062 J0.0108
G2 X7.3025 Y125.5 Z-3.1 I0.0062 J-0.0108
G2 X7.2838 Y125.4892 Z-3.1333 I-0.0125 J0.0
G2 Y125.5108 Z-3.1667 I0.0063 J0.0108
G2 X7.3025 Y125.5 Z-3.2 I0.0062 J-0.0108
G2 X7.2838 Y125.4892 I-0.0125 J0.0
G2 Y125.5108 I0.0063 J0.0108
G2 X7.3025 Y125.5 I0.0062 J-0.0108
G0 Z3.0
G0 X10.6525 Y107.94
G0 Z0.01
G1 F1000.0 Z0.0
G2 F2000.0 X10.6337 Y107.9292 Z-0.0333 I-0.0125 J0.0
G2 Y107.9508 Z-0.0667 I0.0062 J0.0108
G2 X10.6525 Y107.94 Z-0.1 I0.0063 J-0.0108
G2 X10.6337 Y107.9292 Z-0.1333 I-0.0125 J0.0
G2 Y107.9508 Z-0.1667 I0.0062 J0.0108
G2 X10.6525 Y107.94 Z-0.2 I0.0063 J-0.0108
G2 X10.6337 Y107.9292 Z-0.2333 I-0.0125 J0.0
G2 Y107.9508 Z-0.2667 I0.0062 J0.0108
G2 X10.6525 Y107.94 Z-0.3 I0.0063 J-0.0108
G2 X10.6337 Y107.9292 Z-0.3333 I-0.0125 J0.0
G2 Y107.9508 Z-0.3667 I0.0062 J0.0108
G2 X10.6525 Y107.94 Z-0.4 I0.0063 J-0.0108
G2 X10.6337 Y107.9292 Z-0.4333 I-0.0125 J0.0
G2 Y107.9508 Z-0.4667 I0.0062 J0.0108
G2 X10.6525 Y107.94 Z-0.5 I0.0063 J-0.0108
G2 X10.6337 Y107.9292 Z-0.5333 I-0.0125 J0.0
G2 Y107.9508 Z-0.5667 I0.0062 J0.0108
G2 X10.6525 Y107.94 Z-0.6 I0.0063 J-0.0108
G2 X10.6337 Y107.9292 Z-0.6333 I-0.0125 J0.0
G2 Y107.9508 Z-0.6667 I0.0062 J0.0108
G2 X10.6525 Y107.94 Z-0.7 I0.0063 J-0.0108
G2 X10.6337 Y107.9292 Z-0.7333 I-0.0125 J0.0
G2 Y107.9508 Z-0.7667 I0.0062 J0.0108
G2 X10.6525 Y107.94 Z-0.8 I0.0063 J-0.0108
G2 X10.6337 Y107.9292 Z-0.8333 I-0.0125 J0.0
G2 Y107.9508 Z-0.8667 I0.0062 J0.0108
G2 X10.6525 Y107.94 Z-0.9 I0.0063 J-0.0108
G2 X10.6337 Y107.9292 Z-0.9333 I-0.0125 J0.0
G2 Y107.9508 Z-0.9667 I0.0062 J0.0108
G2 X10.6525 Y107.94 Z-1.0 I0.0063 J-0.0108
G2 X10.6337 Y107.9292 Z-1.0333 I-0.0125 J0.0
G2 Y107.9508 Z-1.0667 I0.0062 J0.0108
G2 X10.6525 Y107.94 Z-1.1 I0.0063 J-0.0108
G2 X10.6337 Y107.9292 Z-1.1333 I-0.0125 J0.0
G2 Y107.9508 Z-1.1667 I0.0062 J0.0108
G2 X10.6525 Y107.94 Z-1.2 I0.0063 J-0.0108
G2 X10.6337 Y107.9292 Z-1.2333 I-0.0125 J0.0
G2 Y107.9508 Z-1.2667 I0.0062 J0.0108
G2 X10.6525 Y107.94 Z-1.3 I0.0063 J-0.0108
G2 X10.6337 Y107.9292 Z-1.3333 I-0.0125 J0.0
G2 Y107.9508 Z-1.3667 I0.0062 J0.0108
G2 X10.6525 Y107.94 Z-1.4 I0.0063 J-0.0108
G2 X10.6337 Y107.9292 Z-1.4333 I-0.0125 J0.0
G2 Y107.9508 Z-1.4667 I0.0062 J0.0108
G2 X10.6525 Y107.94 Z-1.5 I0.0063 J-0.0108
G2 X10.6337 Y107.9292 Z-1.5333 I-0.0125 J0.0
G2 Y107.9508 Z-1.5667 I0.0062 J0.0108
G2 X10.6525 Y107.94 Z-1.6 I0.0063 J-0.0108
G2 X10.6337 Y107.9292 Z-1.6333 I-0.0125 J0.0
G2 Y107.9508 Z-1.6667 I0.0062 J0.0108
G2 X10.6525 Y107.94 Z-1.7 I0.0063 J-0.0108
G2 X10.6337 Y107.9292 Z-1.7333 I-0.0125 J0.0
G2 Y107.9508 Z-1.7667 I0.0062 J0.0108
G2 X10.6525 Y107.94 Z-1.8 I0.0063 J-0.0108
G2 X10.6337 Y107.9292 Z-1.8333 I-0.0125 J0.0
G2 Y107.9508 Z-1.8667 I0.0062 J0.0108
G2 X10.6525 Y107.94 Z-1.9 I0.0063 J-0.0108
G2 X10.6337 Y107.9292 Z-1.9333 I-0.0125 J0.0
G2 Y107.9508 Z-1.9667 I0.0062 J0.0108
G2 X10.6525 Y107.94 Z-2.0 I0.0063 J-0.0108
G2 X10.6337 Y107.9292 Z-2.0333 I-0.0125 J0.0
G2 Y107.9508 Z-2.0667 I0.0062 J0.0108
G2 X10.6525 Y107.94 Z-2.1 I0.0063 J-0.0108
G2 X10.6337 Y107.9292 Z-2.1333 I-0.0125 J0.0
G2 Y107.9508 Z-2.1667 I0.0062 J0.0108
G2 X10.6525 Y107.94 Z-2.2 I0.0063 J-0.0108
G2 X10.6337 Y107.9292 Z-2.2333 I-0.0125 J0.0
G2 Y107.9508 Z-2.2667 I0.0062 J0.0108
G2 X10.6525 Y107.94 Z-2.3 I0.0063 J-0.0108
G2 X10.6337 Y107.9292 Z-2.3333 I-0.0125 J0.0
G2 Y107.9508 Z-2.3667 I0.0062 J0.0108
G2 X10.6525 Y107.94 Z-2.4 I0.0063 J-0.0108
G2 X10.6337 Y107.9292 Z-2.4333 I-0.0125 J0.0
G2 Y107.9508 Z-2.4667 I0.0062 J0.0108
G2 X10.6525 Y107.94 Z-2.5 I0.0063 J-0.0108
G2 X10.6337 Y107.9292 Z-2.5333 I-0.0125 J0.0
G2 Y107.9508 Z-2.5667 I0.0062 J0.0108
G2 X10.6525 Y107.94 Z-2.6 I0.0063 J-0.0108
G2 X10.6337 Y107.9292 Z-2.6333 I-0.0125 J0.0
G2 Y107.9508 Z-2.6667 I0.0062 J0.0108
G2 X10.6525 Y107.94 Z-2.7 I0.0063 J-0.0108
G2 X10.6337 Y107.9292 Z-2.7333 I-0.0125 J0.0
G2 Y107.9508 Z-2.7667 I0.0062 J0.0108
G2 X10.6525 Y107.94 Z-2.8 I0.0062 J-0.0108
G2 X10.6337 Y107.9292 Z-2.8333 I-0.0125 J0.0
G2 Y107.9508 Z-2.8667 I0.0062 J0.0108
G2 X10.6525 Y107.94 Z-2.9 I0.0062 J-0.0108
G2 X10.6337 Y107.9292 Z-2.9333 I-0.0125 J0.0
G2 Y107.9508 Z-2.9667 I0.0062 J0.0108
G2 X10.6525 Y107.94 Z-3.0 I0.0062 J-0.0108
G2 X10.6337 Y107.9292 Z-3.0333 I-0.0125 J0.0
G2 Y107.9508 Z-3.0667 I0.0062 J0.0108
G2 X10.6525 Y107.94 Z-3.1 I0.0062 J-0.0108
G2 X10.6337 Y107.9292 Z-3.1333 I-0.0125 J0.0
G2 Y107.9508 Z-3.1667 I0.0063 J0.0108
G2 X10.6525 Y107.94 Z-3.2 I0.0062 J-0.0108
G2 X10.6337 Y107.9292 I-0.0125 J0.0
G2 Y107.9508 I0.0063 J0.0108
G2 X10.6525 Y107.94 I0.0062 J-0.0108
G0 Z3.0
G0 X10.6025 Y94.56
G0 Z0.01
G1 F1000.0 Z0.0
G2 F2000.0 X10.5837 Y94.5492 Z-0.0333 I-0.0125 J0.0
G2 Y94.5708 Z-0.0667 I0.0062 J0.0108
G2 X10.6025 Y94.56 Z-0.1 I0.0063 J-0.0108
G2 X10.5837 Y94.5492 Z-0.1333 I-0.0125 J0.0
G2 Y94.5708 Z-0.1667 I0.0062 J0.0108
G2 X10.6025 Y94.56 Z-0.2 I0.0063 J-0.0108
G2 X10.5837 Y94.5492 Z-0.2333 I-0.0125 J0.0
G2 Y94.5708 Z-0.2667 I0.0062 J0.0108
G2 X10.6025 Y94.56 Z-0.3 I0.0063 J-0.0108
G2 X10.5837 Y94.5492 Z-0.3333 I-0.0125 J0.0
G2 Y94.5708 Z-0.3667 I0.0062 J0.0108
G2 X10.6025 Y94.56 Z-0.4 I0.0063 J-0.0108
G2 X10.5837 Y94.5492 Z-0.4333 I-0.0125 J0.0
G2 Y94.5708 Z-0.4667 I0.0062 J0.0108
G2 X10.6025 Y94.56 Z-0.5 I0.0063 J-0.0108
G2 X10.5837 Y94.5492 Z-0.5333 I-0.0125 J0.0
G2 Y94.5708 Z-0.5667 I0.0062 J0.0108
G2 X10.6025 Y94.56 Z-0.6 I0.0063 J-0.0108
G2 X10.5837 Y94.5492 Z-0.6333 I-0.0125 J0.0
G2 Y94.5708 Z-0.6667 I0.0062 J0.0108
G2 X10.6025 Y94.56 Z-0.7 I0.0063 J-0.0108
G2 X10.5837 Y94.5492 Z-0.7333 I-0.0125 J0.0
G2 Y94.5708 Z-0.7667 I0.0062 J0.0108
G2 X10.6025 Y94.56 Z-0.8 I0.0063 J-0.0108
G2 X10.5837 Y94.5492 Z-0.8333 I-0.0125 J0.0
G2 Y94.5708 Z-0.8667 I0.0062 J0.0108
G2 X10.6025 Y94.56 Z-0.9 I0.0063 J-0.0108
G2 X10.5837 Y94.5492 Z-0.9333 I-0.0125 J0.0
G2 Y94.5708 Z-0.9667 I0.0062 J0.0108
G2 X10.6025 Y94.56 Z-1.0 I0.0063 J-0.0108
G2 X10.5837 Y94.5492 Z-1.0333 I-0.0125 J0.0
G2 Y94.5708 Z-1.0667 I0.0062 J0.0108
G2 X10.6025 Y94.56 Z-1.1 I0.0063 J-0.0108
G2 X10.5837 Y94.5492 Z-1.1333 I-0.0125 J0.0
G2 Y94.5708 Z-1.1667 I0.0062 J0.0108
G2 X10.6025 Y94.56 Z-1.2 I0.0063 J-0.0108
G2 X10.5837 Y94.5492 Z-1.2333 I-0.0125 J0.0
G2 Y94.5708 Z-1.2667 I0.0062 J0.0108
G2 X10.6025 Y94.56 Z-1.3 I0.0063 J-0.0108
G2 X10.5837 Y94.5492 Z-1.3333 I-0.0125 J0.0
G2 Y94.5708 Z-1.3667 I0.0062 J0.0108
G2 X10.6025 Y94.56 Z-1.4 I0.0063 J-0.0108
G2 X10.5837 Y94.5492 Z-1.4333 I-0.0125 J0.0
G2 Y94.5708 Z-1.4667 I0.0062 J0.0108
G2 X10.6025 Y94.56 Z-1.5 I0.0063 J-0.0108
G2 X10.5837 Y94.5492 Z-1.5333 I-0.0125 J0.0
G2 Y94.5708 Z-1.5667 I0.0062 J0.0108
G2 X10.6025 Y94.56 Z-1.6 I0.0063 J-0.0108
G2 X10.5837 Y94.5492 Z-1.6333 I-0.0125 J0.0
G2 Y94.5708 Z-1.6667 I0.0062 J0.0108
G2 X10.6025 Y94.56 Z-1.7 I0.0063 J-0.0108
G2 X10.5837 Y94.5492 Z-1.7333 I-0.0125 J0.0
G2 Y94.5708 Z-1.7667 I0.0062 J0.0108
G2 X10.6025 Y94.56 Z-1.8 I0.0063 J-0.0108
G2 X10.5837 Y94.5492 Z-1.8333 I-0.0125 J0.0
G2 Y94.5708 Z-1.8667 I0.0062 J0.0108
G2 X10.6025 Y94.56 Z-1.9 I0.0063 J-0.0108
G2 X10.5837 Y94.5492 Z-1.9333 I-0.0125 J0.0
G2 Y94.5708 Z-1.9667 I0.0062 J0.0108
G2 X10.6025 Y94.56 Z-2.0 I0.0063 J-0.0108
G2 X10.5837 Y94.5492 Z-2.0333 I-0.0125 J0.0
G2 Y94.5708 Z-2.0667 I0.0062 J0.0108
G2 X10.6025 Y94.56 Z-2.1 I0.0063 J-0.0108
G2 X10.5837 Y94.5492 Z-2.1333 I-0.0125 J0.0
G2 Y94.5708 Z-2.1667 I0.0062 J0.0108
G2 X10.6025 Y94.56 Z-2.2 I0.0063 J-0.0108
G2 X10.5837 Y94.5492 Z-2.2333 I-0.0125 J0.0
G2 Y94.5708 Z-2.2667 I0.0062 J0.0108
G2 X10.6025 Y94.56 Z-2.3 I0.0063 J-0.0108
G2 X10.5837 Y94.5492 Z-2.3333 I-0.0125 J0.0
G2 Y94.5708 Z-2.3667 I0.0062 J0.0108
G2 X10.6025 Y94.56 Z-2.4 I0.0063 J-0.0108
G2 X10.5837 Y94.5492 Z-2.4333 I-0.0125 J0.0
G2 Y94.5708 Z-2.4667 I0.0062 J0.0108
G2 X10.6025 Y94.56 Z-2.5 I0.0063 J-0.0108
G2 X10.5837 Y94.5492 Z-2.5333 I-0.0125 J0.0
G2 Y94.5708 Z-2.5667 I0.0062 J0.0108
G2 X10.6025 Y94.56 Z-2.6 I0.0063 J-0.0108
G2 X10.5837 Y94.5492 Z-2.6333 I-0.0125 J0.0
G2 Y94.5708 Z-2.6667 I0.0062 J0.0108
G2 X10.6025 Y94.56 Z-2.7 I0.0063 J-0.0108
G2 X10.5837 Y94.5492 Z-2.7333 I-0.0125 J0.0
G2 Y94.5708 Z-2.7667 I0.0062 J0.0108
G2 X10.6025 Y94.56 Z-2.8 I0.0063 J-0.0108
G2 X10.5837 Y94.5492 Z-2.8333 I-0.0125 J0.0
G2 Y94.5708 Z-2.8667 I0.0062 J0.0108
G2 X10.6025 Y94.56 Z-2.9 I0.0063 J-0.0108
G2 X10.5837 Y94.5492 Z-2.9333 I-0.0125 J0.0
G2 Y94.5708 Z-2.9667 I0.0062 J0.0108
G2 X10.6025 Y94.56 Z-3.0 I0.0063 J-0.0108
G2 X10.5837 Y94.5492 Z-3.0333 I-0.0125 J0.0
G2 Y94.5708 Z-3.0667 I0.0062 J0.0108
G2 X10.6025 Y94.56 Z-3.1 I0.0063 J-0.0108
G2 X10.5837 Y94.5492 Z-3.1333 I-0.0125 J0.0
G2 Y94.5708 Z-3.1667 I0.0063 J0.0108
G2 X10.6025 Y94.56 Z-3.2 I0.0062 J-0.0108
G2 X10.5837 Y94.5492 I-0.0125 J0.0
G2 Y94.5708 I0.0063 J0.0108
G2 X10.6025 Y94.56 I0.0062 J-0.0108
G0 Z3.0
G0 X17.6325 Y67.21
G0 Z0.01
G1 F1000.0 Z0.0
G2 F2000.0 X17.6137 Y67.1992 Z-0.0333 I-0.0125 J0.0
G2 Y67.2208 Z-0.0667 I0.0062 J0.0108
G2 X17.6325 Y67.21 Z-0.1 I0.0063 J-0.0108
G2 X17.6137 Y67.1992 Z-0.1333 I-0.0125 J0.0
G2 Y67.2208 Z-0.1667 I0.0062 J0.0108
G2 X17.6325 Y67.21 Z-0.2 I0.0063 J-0.0108
G2 X17.6137 Y67.1992 Z-0.2333 I-0.0125 J0.0
G2 Y67.2208 Z-0.2667 I0.0062 J0.0108
G2 X17.6325 Y67.21 Z-0.3 I0.0063 J-0.0108
G2 X17.6137 Y67.1992 Z-0.3333 I-0.0125 J0.0
G2 Y67.2208 Z-0.3667 I0.0062 J0.0108
G2 X17.6325 Y67.21 Z-0.4 I0.0063 J-0.0108
G2 X17.6137 Y67.1992 Z-0.4333 I-0.0125 J0.0
G2 Y67.2208 Z-0.4667 I0.0062 J0.0108
G2 X17.6325 Y67.21 Z-0.5 I0.0063 J-0.0108
G2 X17.6137 Y67.1992 Z-0.5333 I-0.0125 J0.0
G2 Y67.2208 Z-0.5667 I0.0062 J0.0108
G2 X17.6325 Y67.21 Z-0.6 I0.0063 J-0.0108
G2 X17.6137 Y67.1992 Z-0.6333 I-0.0125 J0.0
G2 Y67.2208 Z-0.6667 I0.0062 J0.0108
G2 X17.6325 Y67.21 Z-0.7 I0.0063 J-0.0108
G2 X17.6137 Y67.1992 Z-0.7333 I-0.0125 J0.0
G2 Y67.2208 Z-0.7667 I0.0062 J0.0108
G2 X17.6325 Y67.21 Z-0.8 I0.0063 J-0.0108
G2 X17.6137 Y67.1992 Z-0.8333 I-0.0125 J0.0
G2 Y67.2208 Z-0.8667 I0.0062 J0.0108
G2 X17.6325 Y67.21 Z-0.9 I0.0063 J-0.0108
G2 X17.6137 Y67.1992 Z-0.9333 I-0.0125 J0.0
G2 Y67.2208 Z-0.9667 I0.0062 J0.0108
G2 X17.6325 Y67.21 Z-1.0 I0.0063 J-0.0108
G2 X17.6137 Y67.1992 Z-1.0333 I-0.0125 J0.0
G2 Y67.2208 Z-1.0667 I0.0062 J0.0108
G2 X17.6325 Y67.21 Z-1.1 I0.0063 J-0.0108
G2 X17.6137 Y67.1992 Z-1.1333 I-0.0125 J0.0
G2 Y67.2208 Z-1.1667 I0.0062 J0.0108
G2 X17.6325 Y67.21 Z-1.2 I0.0063 J-0.0108
G2 X17.6137 Y67.1992 Z-1.2333 I-0.0125 J0.0
G2 Y67.2208 Z-1.2667 I0.0062 J0.0108
G2 X17.6325 Y67.21 Z-1.3 I0.0063 J-0.0108
G2 X17.6137 Y67.1992 Z-1.3333 I-0.0125 J0.0
G2 Y67.2208 Z-1.3667 I0.0062 J0.0108
G2 X17.6325 Y67.21 Z-1.4 I0.0063 J-0.0108
G2 X17.6137 Y67.1992 Z-1.4333 I-0.0125 J0.0
G2 Y67.2208 Z-1.4667 I0.0062 J0.0108
G2 X17.6325 Y67.21 Z-1.5 I0.0063 J-0.0108
G2 X17.6137 Y67.1992 Z-1.5333 I-0.0125 J0.0
G2 Y67.2208 Z-1.5667 I0.0062 J0.0108
G2 X17.6325 Y67.21 Z-1.6 I0.0063 J-0.0108
G2 X17.6137 Y67.1992 Z-1.6333 I-0.0125 J0.0
G2 Y67.2208 Z-1.6667 I0.0062 J0.0108
G2 X17.6325 Y67.21 Z-1.7 I0.0063 J-0.0108
G2 X17.6137 Y67.1992 Z-1.7333 I-0.0125 J0.0
G2 Y67.2208 Z-1.7667 I0.0062 J0.0108
G2 X17.6325 Y67.21 Z-1.8 I0.0063 J-0.0108
G2 X17.6137 Y67.1992 Z-1.8333 I-0.0125 J0.0
G2 Y67.2208 Z-1.8667 I0.0062 J0.0108
G2 X17.6325 Y67.21 Z-1.9 I0.0063 J-0.0108
G2 X17.6137 Y67.1992 Z-1.9333 I-0.0125 J0.0
G2 Y67.2208 Z-1.9667 I0.0062 J0.0108
G2 X17.6325 Y67.21 Z-2.0 I0.0063 J-0.0108
G2 X17.6137 Y67.1992 Z-2.0333 I-0.0125 J0.0
G2 Y67.2208 Z-2.0667 I0.0062 J0.0108
G2 X17.6325 Y67.21 Z-2.1 I0.0063 J-0.0108
G2 X17.6137 Y67.1992 Z-2.1333 I-0.0125 J0.0
G2 Y67.2208 Z-2.1667 I0.0062 J0.0108
G2 X17.6325 Y67.21 Z-2.2 I0.0063 J-0.0108
G2 X17.6137 Y67.1992 Z-2.2333 I-0.0125 J0.0
G2 Y67.2208 Z-2.2667 I0.0062 J0.0108
G2 X17.6325 Y67.21 Z-2.3 I0.0063 J-0.0108
G2 X17.6137 Y67.1992 Z-2.3333 I-0.0125 J0.0
G2 Y67.2208 Z-2.3667 I0.0062 J0.0108
G2 X17.6325 Y67.21 Z-2.4 I0.0063 J-0.0108
G2 X17.6137 Y67.1992 Z-2.4333 I-0.0125 J0.0
G2 Y67.2208 Z-2.4667 I0.0062 J0.0108
G2 X17.6325 Y67.21 Z-2.5 I0.0063 J-0.0108
G2 X17.6137 Y67.1992 Z-2.5333 I-0.0125 J0.0
G2 Y67.2208 Z-2.5667 I0.0062 J0.0108
G2 X17.6325 Y67.21 Z-2.6 I0.0063 J-0.0108
G2 X17.6137 Y67.1992 Z-2.6333 I-0.0125 J0.0
G2 Y67.2208 Z-2.6667 I0.0062 J0.0108
G2 X17.6325 Y67.21 Z-2.7 I0.0063 J-0.0108
G2 X17.6137 Y67.1992 Z-2.7333 I-0.0125 J0.0
G2 Y67.2208 Z-2.7667 I0.0062 J0.0108
G2 X17.6325 Y67.21 Z-2.8 I0.0063 J-0.0108
G2 X17.6137 Y67.1992 Z-2.8333 I-0.0125 J0.0
G2 Y67.2208 Z-2.8667 I0.0062 J0.0108
G2 X17.6325 Y67.21 Z-2.9 I0.0063 J-0.0108
G2 X17.6137 Y67.1992 Z-2.9333 I-0.0125 J0.0
G2 Y67.2208 Z-2.9667 I0.0062 J0.0108
G2 X17.6325 Y67.21 Z-3.0 I0.0063 J-0.0108
G2 X17.6137 Y67.1992 Z-3.0333 I-0.0125 J0.0
G2 Y67.2208 Z-3.0667 I0.0062 J0.0108
G2 X17.6325 Y67.21 Z-3.1 I0.0063 J-0.0108
G2 X17.6137 Y67.1992 Z-3.1333 I-0.0125 J0.0
G2 Y67.2208 Z-3.1667 I0.0062 J0.0108
G2 X17.6325 Y67.21 Z-3.2 I0.0063 J-0.0108
G2 X17.6137 Y67.1992 I-0.0125 J0.0
G2 Y67.2208 I0.0063 J0.0108
G2 X17.6325 Y67.21 I0.0062 J-0.0108
G0 Z3.0
G0 X10.7025 Y41.18
G0 Z0.01
G1 F1000.0 Z0.0
G2 F2000.0 X10.6838 Y41.1692 Z-0.0333 I-0.0125 J0.0
G2 Y41.1908 Z-0.0667 I0.0063 J0.0108
G2 X10.7025 Y41.18 Z-0.1 I0.0062 J-0.0108
G2 X10.6838 Y41.1692 Z-0.1333 I-0.0125 J0.0
G2 Y41.1908 Z-0.1667 I0.0063 J0.0108
G2 X10.7025 Y41.18 Z-0.2 I0.0062 J-0.0108
G2 X10.6838 Y41.1692 Z-0.2333 I-0.0125 J0.0
G2 Y41.1908 Z-0.2667 I0.0063 J0.0108
G2 X10.7025 Y41.18 Z-0.3 I0.0062 J-0.0108
G2 X10.6838 Y41.1692 Z-0.3333 I-0.0125 J0.0
G2 Y41.1908 Z-0.3667 I0.0063 J0.0108
G2 X10.7025 Y41.18 Z-0.4 I0.0062 J-0.0108
G2 X10.6838 Y41.1692 Z-0.4333 I-0.0125 J0.0
G2 Y41.1908 Z-0.4667 I0.0063 J0.0108
G2 X10.7025 Y41.18 Z-0.5 I0.0062 J-0.0108
G2 X10.6838 Y41.1692 Z-0.5333 I-0.0125 J0.0
G2 Y41.1908 Z-0.5667 I0.0063 J0.0108
G2 X10.7025 Y41.18 Z-0.6 I0.0062 J-0.0108
G2 X10.6838 Y41.1692 Z-0.6333 I-0.0125 J0.0
G2 Y41.1908 Z-0.6667 I0.0063 J0.0108
G2 X10.7025 Y41.18 Z-0.7 I0.0062 J-0.0108
G2 X10.6838 Y41.1692 Z-0.7333 I-0.0125 J0.0
G2 Y41.1908 Z-0.7667 I0.0063 J0.0108
G2 X10.7025 Y41.18 Z-0.8 I0.0062 J-0.0108
G2 X10.6838 Y41.1692 Z-0.8333 I-0.0125 J0.0
G2 Y41.1908 Z-0.8667 I0.0063 J0.0108
G2 X10.7025 Y41.18 Z-0.9 I0.0062 J-0.0108
G2 X10.6838 Y41.1692 Z-0.9333 I-0.0125 J0.0
G2 Y41.1908 Z-0.9667 I0.0063 J0.0108
G2 X10.7025 Y41.18 Z-1.0 I0.0062 J-0.0108
G2 X10.6838 Y41.1692 Z-1.0333 I-0.0125 J0.0
G2 Y41.1908 Z-1.0667 I0.0063 J0.0108
G2 X10.7025 Y41.18 Z-1.1 I0.0062 J-0.0108
G2 X10.6838 Y41.1692 Z-1.1333 I-0.0125 J0.0
G2 Y41.1908 Z-1.1667 I0.0063 J0.0108
G2 X10.7025 Y41.18 Z-1.2 I0.0062 J-0.0108
G2 X10.6838 Y41.1692 Z-1.2333 I-0.0125 J0.0
G2 Y41.1908 Z-1.2667 I0.0063 J0.0108
G2 X10.7025 Y41.18 Z-1.3 I0.0062 J-0.0108
G2 X10.6838 Y41.1692 Z-1.3333 I-0.0125 J0.0
G2 Y41.1908 Z-1.3667 I0.0063 J0.0108
G2 X10.7025 Y41.18 Z-1.4 I0.0062 J-0.0108
G2 X10.6838 Y41.1692 Z-1.4333 I-0.0125 J0.0
G2 Y41.1908 Z-1.4667 I0.0063 J0.0108
G2 X10.7025 Y41.18 Z-1.5 I0.0062 J-0.0108
G2 X10.6838 Y41.1692 Z-1.5333 I-0.0125 J0.0
G2 Y41.1908 Z-1.5667 I0.0063 J0.0108
G2 X10.7025 Y41.18 Z-1.6 I0.0062 J-0.0108
G2 X10.6838 Y41.1692 Z-1.6333 I-0.0125 J0.0
G2 Y41.1908 Z-1.6667 I0.0063 J0.0108
G2 X10.7025 Y41.18 Z-1.7 I0.0062 J-0.0108
G2 X10.6838 Y41.1692 Z-1.7333 I-0.0125 J0.0
G2 Y41.1908 Z-1.7667 I0.0063 J0.0108
G2 X10.7025 Y41.18 Z-1.8 I0.0062 J-0.0108
G2 X10.6838 Y41.1692 Z-1.8333 I-0.0125 J0.0
G2 Y41.1908 Z-1.8667 I0.0063 J0.0108
G2 X10.7025 Y41.18 Z-1.9 I0.0062 J-0.0108
G2 X10.6838 Y41.1692 Z-1.9333 I-0.0125 J0.0
G2 Y41.1908 Z-1.9667 I0.0063 J0.0108
G2 X10.7025 Y41.18 Z-2.0 I0.0062 J-0.0108
G2 X10.6838 Y41.1692 Z-2.0333 I-0.0125 J0.0
G2 Y41.1908 Z-2.0667 I0.0063 J0.0108
G2 X10.7025 Y41.18 Z-2.1 I0.0062 J-0.0108
G2 X10.6838 Y41.1692 Z-2.1333 I-0.0125 J0.0
G2 Y41.1908 Z-2.1667 I0.0063 J0.0108
G2 X10.7025 Y41.18 Z-2.2 I0.0062 J-0.0108
G2 X10.6838 Y41.1692 Z-2.2333 I-0.0125 J0.0
G2 Y41.1908 Z-2.2667 I0.0063 J0.0108
G2 X10.7025 Y41.18 Z-2.3 I0.0062 J-0.0108
G2 X10.6838 Y41.1692 Z-2.3333 I-0.0125 J0.0
G2 Y41.1908 Z-2.3667 I0.0063 J0.0108
G2 X10.7025 Y41.18 Z-2.4 I0.0062 J-0.0108
G2 X10.6838 Y41.1692 Z-2.4333 I-0.0125 J0.0
G2 Y41.1908 Z-2.4667 I0.0063 J0.0108
G2 X10.7025 Y41.18 Z-2.5 I0.0062 J-0.0108
G2 X10.6838 Y41.1692 Z-2.5333 I-0.0125 J0.0
G2 Y41.1908 Z-2.5667 I0.0063 J0.0108
G2 X10.7025 Y41.18 Z-2.6 I0.0062 J-0.0108
G2 X10.6838 Y41.1692 Z-2.6333 I-0.0125 J0.0
G2 Y41.1908 Z-2.6667 I0.0063 J0.0108
G2 X10.7025 Y41.18 Z-2.7 I0.0062 J-0.0108
G2 X10.6838 Y41.1692 Z-2.7333 I-0.0125 J0.0
G2 Y41.1908 Z-2.7667 I0.0063 J0.0108
G2 X10.7025 Y41.18 Z-2.8 I0.0062 J-0.0108
G2 X10.6838 Y41.1692 Z-2.8333 I-0.0125 J0.0
G2 Y41.1908 Z-2.8667 I0.0063 J0.0108
G2 X10.7025 Y41.18 Z-2.9 I0.0062 J-0.0108
G2 X10.6838 Y41.1692 Z-2.9333 I-0.0125 J0.0
G2 Y41.1908 Z-2.9667 I0.0063 J0.0108
G2 X10.7025 Y41.18 Z-3.0 I0.0062 J-0.0108
G2 X10.6838 Y41.1692 Z-3.0333 I-0.0125 J0.0
G2 Y41.1908 Z-3.0667 I0.0063 J0.0108
G2 X10.7025 Y41.18 Z-3.1 I0.0062 J-0.0108
G2 X10.6838 Y41.1692 Z-3.1333 I-0.0125 J0.0
G2 Y41.1908 Z-3.1667 I0.0063 J0.0108
G2 X10.7025 Y41.18 Z-3.2 I0.0062 J-0.0108
G2 X10.6838 Y41.1692 I-0.0125 J0.0
G2 Y41.1908 I0.0063 J0.0108
G2 X10.7025 Y41.18 I0.0062 J-0.0108
G0 Z3.0
G0 X10.3025 Y18.1
G0 Z0.01
G1 F1000.0 Z0.0
G2 F2000.0 X10.2838 Y18.0892 Z-0.0333 I-0.0125 J0.0
G2 Y18.1108 Z-0.0667 I0.0062 J0.0108
G2 X10.3025 Y18.1 Z-0.1 I0.0062 J-0.0108
G2 X10.2838 Y18.0892 Z-0.1333 I-0.0125 J0.0
G2 Y18.1108 Z-0.1667 I0.0062 J0.0108
G2 X10.3025 Y18.1 Z-0.2 I0.0062 J-0.0108
G2 X10.2838 Y18.0892 Z-0.2333 I-0.0125 J0.0
G2 Y18.1108 Z-0.2667 I0.0062 J0.0108
G2 X10.3025 Y18.1 Z-0.3 I0.0062 J-0.0108
G2 X10.2838 Y18.0892 Z-0.3333 I-0.0125 J0.0
G2 Y18.1108 Z-0.3667 I0.0062 J0.0108
G2 X10.3025 Y18.1 Z-0.4 I0.0062 J-0.0108
G2 X10.2838 Y18.0892 Z-0.4333 I-0.0125 J0.0
G2 Y18.1108 Z-0.4667 I0.0062 J0.0108
G2 X10.3025 Y18.1 Z-0.5 I0.0062 J-0.0108
G2 X10.2838 Y18.0892 Z-0.5333 I-0.0125 J0.0
G2 Y18.1108 Z-0.5667 I0.0062 J0.0108
G2 X10.3025 Y18.1 Z-0.6 I0.0062 J-0.0108
G2 X10.2838 Y18.0892 Z-0.6333 I-0.0125 J0.0
G2 Y18.1108 Z-0.6667 I0.0062 J0.0108
G2 X10.3025 Y18.1 Z-0.7 I0.0062 J-0.0108
G2 X10.2838 Y18.0892 Z-0.7333 I-0.0125 J0.0
G2 Y18.1108 Z-0.7667 I0.0062 J0.0108
G2 X10.3025 Y18.1 Z-0.8 I0.0062 J-0.0108
G2 X10.2838 Y18.0892 Z-0.8333 I-0.0125 J0.0
G2 Y18.1108 Z-0.8667 I0.0062 J0.0108
G2 X10.3025 Y18.1 Z-0.9 I0.0062 J-0.0108
G2 X10.2838 Y18.0892 Z-0.9333 I-0.0125 J0.0
G2 Y18.1108 Z-0.9667 I0.0062 J0.0108
G2 X10.3025 Y18.1 Z-1.0 I0.0062 J-0.0108
G2 X10.2838 Y18.0892 Z-1.0333 I-0.0125 J0.0
G2 Y18.1108 Z-1.0667 I0.0062 J0.0108
G2 X10.3025 Y18.1 Z-1.1 I0.0062 J-0.0108
G2 X10.2838 Y18.0892 Z-1.1333 I-0.0125 J0.0
G2 Y18.1108 Z-1.1667 I0.0062 J0.0108
G2 X10.3025 Y18.1 Z-1.2 I0.0063 J-0.0108
G2 X10.2838 Y18.0892 Z-1.2333 I-0.0125 J0.0
G2 Y18.1108 Z-1.2667 I0.0062 J0.0108
G2 X10.3025 Y18.1 Z-1.3 I0.0063 J-0.0108
G2 X10.2838 Y18.0892 Z-1.3333 I-0.0125 J0.0
G2 Y18.1108 Z-1.3667 I0.0062 J0.0108
G2 X10.3025 Y18.1 Z-1.4 I0.0063 J-0.0108
G2 X10.2838 Y18.0892 Z-1.4333 I-0.0125 J0.0
G2 Y18.1108 Z-1.4667 I0.0062 J0.0108
G2 X10.3025 Y18.1 Z-1.5 I0.0063 J-0.0108
G2 X10.2838 Y18.0892 Z-1.5333 I-0.0125 J0.0
G2 Y18.1108 Z-1.5667 I0.0062 J0.0108
G2 X10.3025 Y18.1 Z-1.6 I0.0063 J-0.0108
G2 X10.2838 Y18.0892 Z-1.6333 I-0.0125 J0.0
G2 Y18.1108 Z-1.6667 I0.0062 J0.0108
G2 X10.3025 Y18.1 Z-1.7 I0.0063 J-0.0108
G2 X10.2838 Y18.0892 Z-1.7333 I-0.0125 J0.0
G2 Y18.1108 Z-1.7667 I0.0062 J0.0108
G2 X10.3025 Y18.1 Z-1.8 I0.0063 J-0.0108
G2 X10.2838 Y18.0892 Z-1.8333 I-0.0125 J0.0
G2 Y18.1108 Z-1.8667 I0.0062 J0.0108
G2 X10.3025 Y18.1 Z-1.9 I0.0063 J-0.0108
G2 X10.2838 Y18.0892 Z-1.9333 I-0.0125 J0.0
G2 Y18.1108 Z-1.9667 I0.0062 J0.0108
G2 X10.3025 Y18.1 Z-2.0 I0.0063 J-0.0108
G2 X10.2838 Y18.0892 Z-2.0333 I-0.0125 J0.0
G2 Y18.1108 Z-2.0667 I0.0062 J0.0108
G2 X10.3025 Y18.1 Z-2.1 I0.0063 J-0.0108
G2 X10.2838 Y18.0892 Z-2.1333 I-0.0125 J0.0
G2 Y18.1108 Z-2.1667 I0.0062 J0.0108
G2 X10.3025 Y18.1 Z-2.2 I0.0063 J-0.0108
G2 X10.2838 Y18.0892 Z-2.2333 I-0.0125 J0.0
G2 Y18.1108 Z-2.2667 I0.0062 J0.0108
G2 X10.3025 Y18.1 Z-2.3 I0.0062 J-0.0108
G2 X10.2838 Y18.0892 Z-2.3333 I-0.0125 J0.0
G2 Y18.1108 Z-2.3667 I0.0062 J0.0108
G2 X10.3025 Y18.1 Z-2.4 I0.0062 J-0.0108
G2 X10.2838 Y18.0892 Z-2.4333 I-0.0125 J0.0
G2 Y18.1108 Z-2.4667 I0.0062 J0.0108
G2 X10.3025 Y18.1 Z-2.5 I0.0062 J-0.0108
G2 X10.2838 Y18.0892 Z-2.5333 I-0.0125 J0.0
G2 Y18.1108 Z-2.5667 I0.0062 J0.0108
G2 X10.3025 Y18.1 Z-2.6 I0.0062 J-0.0108
G2 X10.2838 Y18.0892 Z-2.6333 I-0.0125 J0.0
G2 Y18.1108 Z-2.6667 I0.0063 J0.0108
G2 X10.3025 Y18.1 Z-2.7 I0.0062 J-0.0108
G2 X10.2838 Y18.0892 Z-2.7333 I-0.0125 J0.0
G2 Y18.1108 Z-2.7667 I0.0063 J0.0108
G2 X10.3025 Y18.1 Z-2.8 I0.0062 J-0.0108
G2 X10.2838 Y18.0892 Z-2.8333 I-0.0125 J0.0
G2 Y18.1108 Z-2.8667 I0.0063 J0.0108
G2 X10.3025 Y18.1 Z-2.9 I0.0062 J-0.0108
G2 X10.2838 Y18.0892 Z-2.9333 I-0.0125 J0.0
G2 Y18.1108 Z-2.9667 I0.0063 J0.0108
G2 X10.3025 Y18.1 Z-3.0 I0.0062 J-0.0108
G2 X10.2838 Y18.0892 Z-3.0333 I-0.0125 J0.0
G2 Y18.1108 Z-3.0667 I0.0063 J0.0108
G2 X10.3025 Y18.1 Z-3.1 I0.0062 J-0.0108
G2 X10.2838 Y18.0892 Z-3.1333 I-0.0125 J0.0
G2 Y18.1108 Z-3.1667 I0.0063 J0.0108
G2 X10.3025 Y18.1 Z-3.2 I0.0062 J-0.0108
G2 X10.2838 Y18.0892 I-0.0125 J0.0
G2 Y18.1108 I0.0063 J0.0108
G2 X10.3025 Y18.1 I0.0062 J-0.0108
G0 Z3.0
G0 X7.3025 Y3.0
G0 Z0.01
G1 F1000.0 Z0.0
G2 F2000.0 X7.2838 Y2.9892 Z-0.0333 I-0.0125 J0.0
G2 Y3.0108 Z-0.0667 I0.0062 J0.0108
G2 X7.3025 Y3.0 Z-0.1 I0.0063 J-0.0108
G2 X7.2838 Y2.9892 Z-0.1333 I-0.0125 J0.0
G2 Y3.0108 Z-0.1667 I0.0062 J0.0108
G2 X7.3025 Y3.0 Z-0.2 I0.0063 J-0.0108
G2 X7.2838 Y2.9892 Z-0.2333 I-0.0125 J0.0
G2 Y3.0108 Z-0.2667 I0.0062 J0.0108
G2 X7.3025 Y3.0 Z-0.3 I0.0063 J-0.0108
G2 X7.2838 Y2.9892 Z-0.3333 I-0.0125 J0.0
G2 Y3.0108 Z-0.3667 I0.0063 J0.0108
G2 X7.3025 Y3.0 Z-0.4 I0.0062 J-0.0108
G2 X7.2838 Y2.9892 Z-0.4333 I-0.0125 J0.0
G2 Y3.0108 Z-0.4667 I0.0063 J0.0108
G2 X7.3025 Y3.0 Z-0.5 I0.0062 J-0.0108
G2 X7.2838 Y2.9892 Z-0.5333 I-0.0125 J0.0
G2 Y3.0108 Z-0.5667 I0.0063 J0.0108
G2 X7.3025 Y3.0 Z-0.6 I0.0062 J-0.0108
G2 X7.2838 Y2.9892 Z-0.6333 I-0.0125 J0.0
G2 Y3.0108 Z-0.6667 I0.0062 J0.0108
G2 X7.3025 Y3.0 Z-0.7 I0.0063 J-0.0108
G2 X7.2838 Y2.9892 Z-0.7333 I-0.0125 J0.0
G2 Y3.0108 Z-0.7667 I0.0062 J0.0108
G2 X7.3025 Y3.0 Z-0.8 I0.0063 J-0.0108
G2 X7.2838 Y2.9892 Z-0.8333 I-0.0125 J0.0
G2 Y3.0108 Z-0.8667 I0.0062 J0.0108
G2 X7.3025 Y3.0 Z-0.9 I0.0063 J-0.0108
G2 X7.2838 Y2.9892 Z-0.9333 I-0.0125 J0.0
G2 Y3.0108 Z-0.9667 I0.0062 J0.0108
G2 X7.3025 Y3.0 Z-1.0 I0.0063 J-0.0108
G2 X7.2838 Y2.9892 Z-1.0333 I-0.0125 J0.0
G2 Y3.0108 Z-1.0667 I0.0062 J0.0108
G2 X7.3025 Y3.0 Z-1.1 I0.0063 J-0.0108
G2 X7.2838 Y2.9892 Z-1.1333 I-0.0125 J0.0
G2 Y3.0108 Z-1.1667 I0.0062 J0.0108
G2 X7.3025 Y3.0 Z-1.2 I0.0063 J-0.0108
G2 X7.2838 Y2.9892 Z-1.2333 I-0.0125 J0.0
G2 Y3.0108 Z-1.2667 I0.0062 J0.0108
G2 X7.3025 Y3.0 Z-1.3 I0.0063 J-0.0108
G2 X7.2838 Y2.9892 Z-1.3333 I-0.0125 J0.0
G2 Y3.0108 Z-1.3667 I0.0062 J0.0108
G2 X7.3025 Y3.0 Z-1.4 I0.0063 J-0.0108
G2 X7.2838 Y2.9892 Z-1.4333 I-0.0125 J0.0
G2 Y3.0108 Z-1.4667 I0.0062 J0.0108
G2 X7.3025 Y3.0 Z-1.5 I0.0063 J-0.0108
G2 X7.2838 Y2.9892 Z-1.5333 I-0.0125 J0.0
G2 Y3.0108 Z-1.5667 I0.0062 J0.0108
G2 X7.3025 Y3.0 Z-1.6 I0.0063 J-0.0108
G2 X7.2838 Y2.9892 Z-1.6333 I-0.0125 J0.0
G2 Y3.0108 Z-1.6667 I0.0062 J0.0108
G2 X7.3025 Y3.0 Z-1.7 I0.0063 J-0.0108
G2 X7.2838 Y2.9892 Z-1.7333 I-0.0125 J0.0
G2 Y3.0108 Z-1.7667 I0.0062 J0.0108
G2 X7.3025 Y3.0 Z-1.8 I0.0063 J-0.0108
G2 X7.2838 Y2.9892 Z-1.8333 I-0.0125 J0.0
G2 Y3.0108 Z-1.8667 I0.0062 J0.0108
G2 X7.3025 Y3.0 Z-1.9 I0.0063 J-0.0108
G2 X7.2838 Y2.9892 Z-1.9333 I-0.0125 J0.0
G2 Y3.0108 Z-1.9667 I0.0062 J0.0108
G2 X7.3025 Y3.0 Z-2.0 I0.0063 J-0.0108
G2 X7.2838 Y2.9892 Z-2.0333 I-0.0125 J0.0
G2 Y3.0108 Z-2.0667 I0.0062 J0.0108
G2 X7.3025 Y3.0 Z-2.1 I0.0063 J-0.0108
G2 X7.2838 Y2.9892 Z-2.1333 I-0.0125 J0.0
G2 Y3.0108 Z-2.1667 I0.0062 J0.0108
G2 X7.3025 Y3.0 Z-2.2 I0.0063 J-0.0108
G2 X7.2838 Y2.9892 Z-2.2333 I-0.0125 J0.0
G2 Y3.0108 Z-2.2667 I0.0062 J0.0108
G2 X7.3025 Y3.0 Z-2.3 I0.0063 J-0.0108
G2 X7.2838 Y2.9892 Z-2.3333 I-0.0125 J0.0
G2 Y3.0108 Z-2.3667 I0.0063 J0.0108
G2 X7.3025 Y3.0 Z-2.4 I0.0062 J-0.0108
G2 X7.2838 Y2.9892 Z-2.4333 I-0.0125 J0.0
G2 Y3.0108 Z-2.4667 I0.0063 J0.0108
G2 X7.3025 Y3.0 Z-2.5 I0.0062 J-0.0108
G2 X7.2838 Y2.9892 Z-2.5333 I-0.0125 J0.0
G2 Y3.0108 Z-2.5667 I0.0063 J0.0108
G2 X7.3025 Y3.0 Z-2.6 I0.0062 J-0.0108
G2 X7.2838 Y2.9892 Z-2.6333 I-0.0125 J0.0
G2 Y3.0108 Z-2.6667 I0.0063 J0.0108
G2 X7.3025 Y3.0 Z-2.7 I0.0062 J-0.0108
G2 X7.2838 Y2.9892 Z-2.7333 I-0.0125 J0.0
G2 Y3.0108 Z-2.7667 I0.0063 J0.0108
G2 X7.3025 Y3.0 Z-2.8 I0.0062 J-0.0108
G2 X7.2838 Y2.9892 Z-2.8333 I-0.0125 J0.0
G2 Y3.0108 Z-2.8667 I0.0063 J0.0108
G2 X7.3025 Y3.0 Z-2.9 I0.0062 J-0.0108
G2 X7.2838 Y2.9892 Z-2.9333 I-0.0125 J0.0
G2 Y3.0108 Z-2.9667 I0.0063 J0.0108
G2 X7.3025 Y3.0 Z-3.0 I0.0062 J-0.0108
G2 X7.2838 Y2.9892 Z-3.0333 I-0.0125 J0.0
G2 Y3.0108 Z-3.0667 I0.0063 J0.0108
G2 X7.3025 Y3.0 Z-3.1 I0.0062 J-0.0108
G2 X7.2838 Y2.9892 Z-3.1333 I-0.0125 J0.0
G2 Y3.0108 Z-3.1667 I0.0063 J0.0108
G2 X7.3025 Y3.0 Z-3.2 I0.0062 J-0.0108
G2 X7.2838 Y2.9892 I-0.0125 J0.0
G2 Y3.0108 I0.0063 J0.0108
G2 X7.3025 Y3.0 I0.0062 J-0.0108
( Profile1 )
S1000
G0 Z3.0
G0 X62.3075 Y0.0
G0 Z0.01
G1 F1000.0 Z-0.1
G1 F2000.0 Y128.5
G3 X60.72 Y130.0875 I-1.5875 J0.0
G1 X0.0
G3 X-1.5875 Y128.5 I0.0 J-1.5875
G1 Y0.0
G3 X0.0 Y-1.5875 I1.5875 J0.0
G1 X60.72
G3 X62.3075 Y0.0 I0.0 J1.5875
G1 F1000.0 Z-0.2
G1 F2000.0 Y128.5
G3 X60.72 Y130.0875 I-1.5875 J0.0
G1 X0.0
G3 X-1.5875 Y128.5 I0.0 J-1.5875
G1 Y0.0
G3 X0.0 Y-1.5875 I1.5875 J0.0
G1 X60.72
G3 X62.3075 Y0.0 I0.0 J1.5875
G1 F1000.0 Z-0.3
G1 F2000.0 Y128.5
G3 X60.72 Y130.0875 I-1.5875 J0.0
G1 X0.0
G3 X-1.5875 Y128.5 I0.0 J-1.5875
G1 Y0.0
G3 X0.0 Y-1.5875 I1.5875 J0.0
G1 X60.72
G3 X62.3075 Y0.0 I0.0 J1.5875
G1 F1000.0 Z-0.4
G1 F2000.0 Y128.5
G3 X60.72 Y130.0875 I-1.5875 J0.0
G1 X0.0
G3 X-1.5875 Y128.5 I0.0 J-1.5875
G1 Y0.0
G3 X0.0 Y-1.5875 I1.5875 J0.0
G1 X60.72
G3 X62.3075 Y0.0 I0.0 J1.5875
G1 F1000.0 Z-0.5
G1 F2000.0 Y128.5
G3 X60.72 Y130.0875 I-1.5875 J0.0
G1 X0.0
G3 X-1.5875 Y128.5 I0.0 J-1.5875
G1 Y0.0
G3 X0.0 Y-1.5875 I1.5875 J0.0
G1 X60.72
G3 X62.3075 Y0.0 I0.0 J1.5875
G1 F1000.0 Z-0.6
G1 F2000.0 Y128.5
G3 X60.72 Y130.0875 I-1.5875 J0.0
G1 X0.0
G3 X-1.5875 Y128.5 I0.0 J-1.5875
G1 Y0.0
G3 X0.0 Y-1.5875 I1.5875 J0.0
G1 X60.72
G3 X62.3075 Y0.0 I0.0 J1.5875
G1 F1000.0 Z-0.7
G1 F2000.0 Y128.5
G3 X60.72 Y130.0875 I-1.5875 J0.0
G1 X0.0
G3 X-1.5875 Y128.5 I0.0 J-1.5875
G1 Y0.0
G3 X0.0 Y-1.5875 I1.5875 J0.0
G1 X60.72
G3 X62.3075 Y0.0 I0.0 J1.5875
G1 F1000.0 Z-0.8
G1 F2000.0 Y128.5
G3 X60.72 Y130.0875 I-1.5875 J0.0
G1 X0.0
G3 X-1.5875 Y128.5 I0.0 J-1.5875
G1 Y0.0
G3 X0.0 Y-1.5875 I1.5875 J0.0
G1 X60.72
G3 X62.3075 Y0.0 I0.0 J1.5875
G1 F1000.0 Z-0.9
G1 F2000.0 Y128.5
G3 X60.72 Y130.0875 I-1.5875 J0.0
G1 X0.0
G3 X-1.5875 Y128.5 I0.0 J-1.5875
G1 Y0.0
G3 X0.0 Y-1.5875 I1.5875 J0.0
G1 X60.72
G3 X62.3075 Y0.0 I0.0 J1.5875
G1 F1000.0 Z-1.0
G1 F2000.0 Y128.5
G3 X60.72 Y130.0875 I-1.5875 J0.0
G1 X0.0
G3 X-1.5875 Y128.5 I0.0 J-1.5875
G1 Y0.0
G3 X0.0 Y-1.5875 I1.5875 J0.0
G1 X60.72
G3 X62.3075 Y0.0 I0.0 J1.5875
G1 F1000.0 Z-1.1
G1 F2000.0 Y128.5
G3 X60.72 Y130.0875 I-1.5875 J0.0
G1 X0.0
G3 X-1.5875 Y128.5 I0.0 J-1.5875
G1 Y0.0
G3 X0.0 Y-1.5875 I1.5875 J0.0
G1 X60.72
G3 X62.3075 Y0.0 I0.0 J1.5875
G1 F1000.0 Z-1.2
G1 F2000.0 Y128.5
G3 X60.72 Y130.0875 I-1.5875 J0.0
G1 X0.0
G3 X-1.5875 Y128.5 I0.0 J-1.5875
G1 Y0.0
G3 X0.0 Y-1.5875 I1.5875 J0.0
G1 X60.72
G3 X62.3075 Y0.0 I0.0 J1.5875
G1 F1000.0 Z-1.3
G1 F2000.0 Y44.7175
G1 Y45.7175 Z-1.2
G1 Y48.8925
G1 Y49.8925 Z-1.3
G1 Y128.5
G3 X60.72 Y130.0875 I-1.5875 J0.0
G1 X49.8925
G1 X48.8925 Z-1.2
G1 X45.7175
G1 X44.7175 Z-1.3
G1 X0.0
G3 X-1.5875 Y128.5 I0.0 J-1.5875
G1 Y83.7825
G1 Y82.7825 Z-1.2
G1 Y79.6075
G1 Y78.6075 Z-1.3
G1 Y0.0
G3 X0.0 Y-1.5875 I1.5875 J0.0
G1 X10.8275
G1 X11.8275 Z-1.2
G1 X15.0025
G1 X16.0025 Z-1.3
G1 X60.72
G3 X62.3075 Y0.0 I0.0 J1.5875
G1 F1000.0 Z-1.4
G1 F2000.0 Y44.7175
G1 Y45.7175 Z-1.2
G1 Y48.8925
G1 Y49.8925 Z-1.4
G1 Y128.5
G3 X60.72 Y130.0875 I-1.5875 J0.0
G1 X49.8925
G1 X48.8925 Z-1.2
G1 X45.7175
G1 X44.7175 Z-1.4
G1 X0.0
G3 X-1.5875 Y128.5 I0.0 J-1.5875
G1 Y83.7825
G1 Y82.7825 Z-1.2
G1 Y79.6075
G1 Y78.6075 Z-1.4
G1 Y0.0
G3 X0.0 Y-1.5875 I1.5875 J0.0
G1 X10.8275
G1 X11.8275 Z-1.2
G1 X15.0025
G1 X16.0025 Z-1.4
G1 X60.72
G3 X62.3075 Y0.0 I0.0 J1.5875
G1 F1000.0 Z-1.5
G1 F2000.0 Y44.7175
G1 Y45.7175 Z-1.2
G1 Y48.8925
G1 Y49.8925 Z-1.5
G1 Y128.5
G3 X60.72 Y130.0875 I-1.5875 J0.0
G1 X49.8925
G1 X48.8925 Z-1.2
G1 X45.7175
G1 X44.7175 Z-1.5
G1 X0.0
G3 X-1.5875 Y128.5 I0.0 J-1.5875
G1 Y83.7825
G1 Y82.7825 Z-1.2
G1 Y79.6075
G1 Y78.6075 Z-1.5
G1 Y0.0
G3 X0.0 Y-1.5875 I1.5875 J0.0
G1 X10.8275
G1 X11.8275 Z-1.2
G1 X15.0025
G1 X16.0025 Z-1.5
G1 X60.72
G3 X62.3075 Y0.0 I0.0 J1.5875
G1 F1000.0 Z-1.6
G1 F2000.0 Y44.7175
G1 Y45.7175 Z-1.2
G1 Y48.8925
G1 Y49.8925 Z-1.6
G1 Y128.5
G3 X60.72 Y130.0875 I-1.5875 J0.0
G1 X49.8925
G1 X48.8925 Z-1.2
G1 X45.7175
G1 X44.7175 Z-1.6
G1 X0.0
G3 X-1.5875 Y128.5 I0.0 J-1.5875
G1 Y83.7825
G1 Y82.7825 Z-1.2
G1 Y79.6075
G1 Y78.6075 Z-1.6
G1 Y0.0
G3 X0.0 Y-1.5875 I1.5875 J0.0
G1 X10.8275
G1 X11.8275 Z-1.2
G1 X15.0025
G1 X16.0025 Z-1.6
G1 X60.72
G3 X62.3075 Y0.0 I0.0 J1.5875
G1 F1000.0 Z-1.7
G1 F2000.0 Y44.7175
G1 Y45.7175 Z-1.2
G1 Y48.8925
G1 Y49.8925 Z-1.7
G1 Y128.5
G3 X60.72 Y130.0875 I-1.5875 J0.0
G1 X49.8925
G1 X48.8925 Z-1.2
G1 X45.7175
G1 X44.7175 Z-1.7
G1 X0.0
G3 X-1.5875 Y128.5 I0.0 J-1.5875
G1 Y83.7825
G1 Y82.7825 Z-1.2
G1 Y79.6075
G1 Y78.6075 Z-1.7
G1 Y0.0
G3 X0.0 Y-1.5875 I1.5875 J0.0
G1 X10.8275
G1 X11.8275 Z-1.2
G1 X15.0025
G1 X16.0025 Z-1.7
G1 X60.72
G3 X62.3075 Y0.0 I0.0 J1.5875
G1 F1000.0 Z-1.8
G1 F2000.0 Y44.7175
G1 Y45.7175 Z-1.2
G1 Y48.8925
G1 Y49.8925 Z-1.8
G1 Y128.5
G3 X60.72 Y130.0875 I-1.5875 J0.0
G1 X49.8925
G1 X48.8925 Z-1.2
G1 X45.7175
G1 X44.7175 Z-1.8
G1 X0.0
G3 X-1.5875 Y128.5 I0.0 J-1.5875
G1 Y83.7825
G1 Y82.7825 Z-1.2
G1 Y79.6075
G1 Y78.6075 Z-1.8
G1 Y0.0
G3 X0.0 Y-1.5875 I1.5875 J0.0
G1 X10.8275
G1 X11.8275 Z-1.2
G1 X15.0025
G1 X16.0025 Z-1.8
G1 X60.72
G3 X62.3075 Y0.0 I0.0 J1.5875
G1 F1000.0 Z-1.9
G1 F2000.0 Y44.7175
G1 Y45.7175 Z-1.2
G1 Y48.8925
G1 Y49.8925 Z-1.9
G1 Y128.5
G3 X60.72 Y130.0875 I-1.5875 J0.0
G1 X49.8925
G1 X48.8925 Z-1.2
G1 X45.7175
G1 X44.7175 Z-1.9
G1 X0.0
G3 X-1.5875 Y128.5 I0.0 J-1.5875
G1 Y83.7825
G1 Y82.7825 Z-1.2
G1 Y79.6075
G1 Y78.6075 Z-1.9
G1 Y0.0
G3 X0.0 Y-1.5875 I1.5875 J0.0
G1 X10.8275
G1 X11.8275 Z-1.2
G1 X15.0025
G1 X16.0025 Z-1.9
G1 X60.72
G3 X62.3075 Y0.0 I0.0 J1.5875
G1 F1000.0 Z-2.0
G1 F2000.0 Y44.7175
G1 Y45.7175 Z-1.2
G1 Y48.8925
G1 Y49.8925 Z-2.0
G1 Y128.5
G3 X60.72 Y130.0875 I-1.5875 J0.0
G1 X49.8925
G1 X48.8925 Z-1.2
G1 X45.7175
G1 X44.7175 Z-2.0
G1 X0.0
G3 X-1.5875 Y128.5 I0.0 J-1.5875
G1 Y83.7825
G1 Y82.7825 Z-1.2
G1 Y79.6075
G1 Y78.6075 Z-2.0
G1 Y0.0
G3 X0.0 Y-1.5875 I1.5875 J0.0
G1 X10.8275
G1 X11.8275 Z-1.2
G1 X15.0025
G1 X16.0025 Z-2.0
G1 X60.72
G3 X62.3075 Y0.0 I0.0 J1.5875
G1 F1000.0 Z-2.1
G1 F2000.0 Y44.7175
G1 Y45.7175 Z-1.2
G1 Y48.8925
G1 Y49.8925 Z-2.1
G1 Y128.5
G3 X60.72 Y130.0875 I-1.5875 J0.0
G1 X49.8925
G1 X48.8925 Z-1.2
G1 X45.7175
G1 X44.7175 Z-2.1
G1 X0.0
G3 X-1.5875 Y128.5 I0.0 J-1.5875
G1 Y83.7825
G1 Y82.7825 Z-1.2
G1 Y79.6075
G1 Y78.6075 Z-2.1
G1 Y0.0
G3 X0.0 Y-1.5875 I1.5875 J0.0
G1 X10.8275
G1 X11.8275 Z-1.2
G1 X15.0025
G1 X16.0025 Z-2.1
G1 X60.72
G3 X62.3075 Y0.0 I0.0 J1.5875
G1 F1000.0 Z-2.2
G1 F2000.0 Y44.7175
G1 Y45.7175 Z-1.2
G1 Y48.8925
G1 Y49.8925 Z-2.2
G1 Y128.5
G3 X60.72 Y130.0875 I-1.5875 J0.0
G1 X49.8925
G1 X48.8925 Z-1.2
G1 X45.7175
G1 X44.7175 Z-2.2
G1 X0.0
G3 X-1.5875 Y128.5 I0.0 J-1.5875
G1 Y83.7825
G1 Y82.7825 Z-1.2
G1 Y79.6075
G1 Y78.6075 Z-2.2
G1 Y0.0
G3 X0.0 Y-1.5875 I1.5875 J0.0
G1 X10.8275
G1 X11.8275 Z-1.2
G1 X15.0025
G1 X16.0025 Z-2.2
G1 X60.72
G3 X62.3075 Y0.0 I0.0 J1.5875
G1 F1000.0 Z-2.3
G1 F2000.0 Y44.7175
G1 Y45.7175 Z-1.2
G1 Y48.8925
G1 Y49.8925 Z-2.3
G1 Y128.5
G3 X60.72 Y130.0875 I-1.5875 J0.0
G1 X49.8925
G1 X48.8925 Z-1.2
G1 X45.7175
G1 X44.7175 Z-2.3
G1 X0.0
G3 X-1.5875 Y128.5 I0.0 J-1.5875
G1 Y83.7825
G1 Y82.7825 Z-1.2
G1 Y79.6075
G1 Y78.6075 Z-2.3
G1 Y0.0
G3 X0.0 Y-1.5875 I1.5875 J0.0
G1 X10.8275
G1 X11.8275 Z-1.2
G1 X15.0025
G1 X16.0025 Z-2.3
G1 X60.72
G3 X62.3075 Y0.0 I0.0 J1.5875
G1 F1000.0 Z-2.4
G1 F2000.0 Y44.7175
G1 Y45.7175 Z-1.2
G1 Y48.8925
G1 Y49.8925 Z-2.4
G1 Y128.5
G3 X60.72 Y130.0875 I-1.5875 J0.0
G1 X49.8925
G1 X48.8925 Z-1.2
G1 X45.7175
G1 X44.7175 Z-2.4
G1 X0.0
G3 X-1.5875 Y128.5 I0.0 J-1.5875
G1 Y83.7825
G1 Y82.7825 Z-1.2
G1 Y79.6075
G1 Y78.6075 Z-2.4
G1 Y0.0
G3 X0.0 Y-1.5875 I1.5875 J0.0
G1 X10.8275
G1 X11.8275 Z-1.2
G1 X15.0025
G1 X16.0025 Z-2.4
G1 X60.72
G3 X62.3075 Y0.0 I0.0 J1.5875
G1 F1000.0 Z-2.5
G1 F2000.0 Y44.7175
G1 Y45.7175 Z-1.2
G1 Y48.8925
G1 Y49.8925 Z-2.5
G1 Y128.5
G3 X60.72 Y130.0875 I-1.5875 J0.0
G1 X49.8925
G1 X48.8925 Z-1.2
G1 X45.7175
G1 X44.7175 Z-2.5
G1 X0.0
G3 X-1.5875 Y128.5 I0.0 J-1.5875
G1 Y83.7825
G1 Y82.7825 Z-1.2
G1 Y79.6075
G1 Y78.6075 Z-2.5
G1 Y0.0
G3 X0.0 Y-1.5875 I1.5875 J0.0
G1 X10.8275
G1 X11.8275 Z-1.2
G1 X15.0025
G1 X16.0025 Z-2.5
G1 X60.72
G3 X62.3075 Y0.0 I0.0 J1.5875
G1 F1000.0 Z-2.6
G1 F2000.0 Y44.7175
G1 Y45.7175 Z-1.2
G1 Y48.8925
G1 Y49.8925 Z-2.6
G1 Y128.5
G3 X60.72 Y130.0875 I-1.5875 J0.0
G1 X49.8925
G1 X48.8925 Z-1.2
G1 X45.7175
G1 X44.7175 Z-2.6
G1 X0.0
G3 X-1.5875 Y128.5 I0.0 J-1.5875
G1 Y83.7825
G1 Y82.7825 Z-1.2
G1 Y79.6075
G1 Y78.6075 Z-2.6
G1 Y0.0
G3 X0.0 Y-1.5875 I1.5875 J0.0
G1 X10.8275
G1 X11.8275 Z-1.2
G1 X15.0025
G1 X16.0025 Z-2.6
G1 X60.72
G3 X62.3075 Y0.0 I0.0 J1.5875
G1 F1000.0 Z-2.7
G1 F2000.0 Y44.7175
G1 Y45.7175 Z-1.2
G1 Y48.8925
G1 Y49.8925 Z-2.7
G1 Y128.5
G3 X60.72 Y130.0875 I-1.5875 J0.0
G1 X49.8925
G1 X48.8925 Z-1.2
G1 X45.7175
G1 X44.7175 Z-2.7
G1 X0.0
G3 X-1.5875 Y128.5 I0.0 J-1.5875
G1 Y83.7825
G1 Y82.7825 Z-1.2
G1 Y79.6075
G1 Y78.6075 Z-2.7
G1 Y0.0
G3 X0.0 Y-1.5875 I1.5875 J0.0
G1 X10.8275
G1 X11.8275 Z-1.2
G1 X15.0025
G1 X16.0025 Z-2.7
G1 X60.72
G3 X62.3075 Y0.0 I0.0 J1.5875
G1 F1000.0 Z-2.8
G1 F2000.0 Y44.7175
G1 Y45.7175 Z-1.2
G1 Y48.8925
G1 Y49.8925 Z-2.8
G1 Y128.5
G3 X60.72 Y130.0875 I-1.5875 J0.0
G1 X49.8925
G1 X48.8925 Z-1.2
G1 X45.7175
G1 X44.7175 Z-2.8
G1 X0.0
G3 X-1.5875 Y128.5 I0.0 J-1.5875
G1 Y83.7825
G1 Y82.7825 Z-1.2
G1 Y79.6075
G1 Y78.6075 Z-2.8
G1 Y0.0
G3 X0.0 Y-1.5875 I1.5875 J0.0
G1 X10.8275
G1 X11.8275 Z-1.2
G1 X15.0025
G1 X16.0025 Z-2.8
G1 X60.72
G3 X62.3075 Y0.0 I0.0 J1.5875
G1 F1000.0 Z-2.9
G1 F2000.0 Y44.7175
G1 Y45.7175 Z-1.2
G1 Y48.8925
G1 Y49.8925 Z-2.9
G1 Y128.5
G3 X60.72 Y130.0875 I-1.5875 J0.0
G1 X49.8925
G1 X48.8925 Z-1.2
G1 X45.7175
G1 X44.7175 Z-2.9
G1 X0.0
G3 X-1.5875 Y128.5 I0.0 J-1.5875
G1 Y83.7825
G1 Y82.7825 Z-1.2
G1 Y79.6075
G1 Y78.6075 Z-2.9
G1 Y0.0
G3 X0.0 Y-1.5875 I1.5875 J0.0
G1 X10.8275
G1 X11.8275 Z-1.2
G1 X15.0025
G1 X16.0025 Z-2.9
G1 X60.72
G3 X62.3075 Y0.0 I0.0 J1.5875
G1 F1000.0 Z-3.0
G1 F2000.0 Y44.7175
G1 Y45.7175 Z-1.2
G1 Y48.8925
G1 Y49.8925 Z-3.0
G1 Y128.5
G3 X60.72 Y130.0875 I-1.5875 J0.0
G1 X49.8925
G1 X48.8925 Z-1.2
G1 X45.7175
G1 X44.7175 Z-3.0
G1 X0.0
G3 X-1.5875 Y128.5 I0.0 J-1.5875
G1 Y83.7825
G1 Y82.7825 Z-1.2
G1 Y79.6075
G1 Y78.6075 Z-3.0
G1 Y0.0
G3 X0.0 Y-1.5875 I1.5875 J0.0
G1 X10.8275
G1 X11.8275 Z-1.2
G1 X15.0025
G1 X16.0025 Z-3.0
G1 X60.72
G3 X62.3075 Y0.0 I0.0 J1.5875
G1 F1000.0 Z-3.1
G1 F2000.0 Y44.7175
G1 Y45.7175 Z-1.2
