( Made using CamBam - http://www.cambam.co.uk )
( mfos_dual_vca_2 11/22/2014 11:54:44 AM )
( T3 : 0.0039 )
G20 G90 G64 G40
G0 Z0.125
( T3 : 0.0039 )
T3 M6
( Engrave1 )
G17
M3 S1000
G0 X2.3668 Y3.483
G0 Z0.0754
G1 F20.0 Z-0.0021
G1 F40.0 X2.3669
G1 X2.3802 Y3.4697
G2 X2.3808 Y3.4684 I-0.0013 J-0.0013
G1 Y2.0484
G1 Y0.6284
G2 X2.3789 Y0.6265 I-0.0019 J0.0
G1 X2.0589
G1 X1.7397
G1 X1.7269 Y0.6137
G1 X1.7141 Y0.6009
G1 Y0.4261
G1 Y0.2506
G2 X1.7122 Y0.2487 I-0.0019 J0.0
G1 X1.6469
G1 X1.5825
G1 X1.5692 Y0.2327
G1 X1.5554 Y0.2161
G2 X1.5539 Y0.2154 I-0.0014 J0.0012
G1 X1.5367
G1 X1.5195
G2 X1.5183 Y0.2159 I0.0 J0.0019
G1 X1.4979 Y0.2342
G1 X1.4776 Y0.2526
G2 X1.477 Y0.254 I0.0013 J0.0014
G1 Y0.2709
G1 Y0.2877
G2 X1.4775 Y0.289 I0.0019 J0.0
G1 X1.4959 Y0.3093
G1 X1.5143 Y0.3296
G2 X1.5157 Y0.3302 I0.0014 J-0.0013
G1 X1.5344
G1 X1.5532
G2 X1.5546 Y0.3296 I0.0 J-0.0019
G1 X1.5747 Y0.3074
G1 X1.5943 Y0.2858
G1 X1.6362
G1 X1.677
G1 Y0.4377
G1 Y0.5908
G1 X1.6554 Y0.6103
G1 X1.6332 Y0.6304
G2 X1.6326 Y0.6318 I0.0013 J0.0014
G1 Y0.6506
G1 Y0.6694
G2 X1.6332 Y0.6707 I0.0019 J0.0
G1 X1.6554 Y0.6909
G1 X1.677 Y0.7104
G1 Y0.8023
G1 Y0.8932
G1 X1.5634
G1 X1.4492
G1 X1.4431 Y0.8771
G1 X1.4364 Y0.8599
G2 X1.4346 Y0.8587 I-0.0017 J0.0007
G1 X1.3761 Y0.862
G1 X1.3177 Y0.8654
G2 X1.3159 Y0.8672 I0.0001 J0.0019
G1 Y0.895
G1 Y0.9228
G2 X1.3177 Y0.9247 I0.0019 J0.0
G1 X1.515 Y0.9277
G1 X1.7122 Y0.9307
G2 X1.7141 Y0.9289 I0.0 J-0.0019
G1 Y0.8142
G1 Y0.7002
G1 X1.7269 Y0.6875
G1 X1.7397 Y0.6747
G1 X2.0367
G1 X2.3326
G1 Y1.1506
G1 Y1.6265
G1 X2.3233
G3 X2.2909 Y1.613 I0.0156 J-0.0835
G1 X2.2908
G1 X2.2687 Y1.5992
G2 X2.2667 I-0.001 J0.0016
G1 X2.2473 Y1.6114
G1 X2.2279 Y1.6236
G2 X2.227 Y1.6252 I0.001 J0.0016
G1 Y1.6506
G1 Y1.6759
G2 X2.2279 Y1.6775 I0.0019 J0.0
G1 X2.2473 Y1.6898
G1 X2.2667 Y1.702
G2 X2.2687 I0.001 J-0.0016
G1 X2.2908 Y1.6882
G3 X2.3234 Y1.6747 I0.0556 J0.088
G1 X2.3326
G1 Y1.7617
G1 Y1.8487
G1 X2.325
G3 X2.3026 Y1.8328 I0.0119 J-0.0404
G2 X2.3025 Y1.8327 I-0.0015 J0.0011
G1 X2.2887 Y1.8161
G2 X2.2873 Y1.8154 I-0.0014 J0.0012
G1 X2.2701
G1 X2.2529
G2 X2.2516 Y1.8159 I0.0 J0.0019
G1 X2.2313 Y1.8342
G1 X2.211 Y1.8526
G2 X2.2103 Y1.854 I0.0013 J0.0014
G1 Y1.8709
G1 Y1.8877
G2 X2.2108 Y1.889 I0.0019 J0.0
G1 X2.2292 Y1.9093
G1 X2.2476 Y1.9296
G2 X2.249 Y1.9302 I0.0014 J-0.0013
G1 X2.2681
G1 X2.2873
G2 X2.2887 Y1.9296 I0.0 J-0.0019
G1 X2.3025 Y1.9129
G1 X2.3026
G3 X2.325 Y1.8969 I0.0389 J0.0309
G1 X2.3326
G1 Y2.395
G1 Y2.8932
G1 X2.2691
G1 X2.2047
G1 X2.1914 Y2.8772
G1 X2.1776 Y2.8605
G2 X2.1762 Y2.8598 I-0.0014 J0.0012
G1 X2.159
G1 X2.1417
G2 X2.1405 Y2.8603 I0.0 J0.0019
G1 X2.1202 Y2.8787
G1 X2.0998 Y2.8971
G2 X2.0992 Y2.8985 I0.0013 J0.0014
G1 Y2.9153
G1 Y2.9322
G2 X2.0997 Y2.9334 I0.0019 J0.0
G1 X2.1181 Y2.9537
G1 X2.1365 Y2.9741
G2 X2.1379 Y2.9747 I0.0014 J-0.0013
G1 X2.157
G1 X2.1762
G2 X2.1776 Y2.974 I0.0 J-0.0019
G1 X2.1914 Y2.9573
G1 X2.2047 Y2.9413
G1 X2.2691
G1 X2.3326
G1 Y3.1728
G1 Y3.4043
G1 X1.19
G1 X0.0474
G1 Y3.1895
G1 Y2.9747
G1 X0.0641
G1 X0.0827
G2 X0.0839 Y2.9742 I0.0 J-0.0019
G1 X0.1043 Y2.9558
G1 X0.1246 Y2.9374
G2 X0.1252 Y2.936 I-0.0013 J-0.0014
G1 Y2.9192
G1 Y2.9023
G2 X0.1247 Y2.9011 I-0.0019 J0.0
G1 X0.1063 Y2.8808
G1 X0.0879 Y2.8604
G2 X0.0865 Y2.8598 I-0.0014 J0.0013
G1 X0.066
G1 X0.0474
G1 Y2.3784
G1 Y1.8969
G1 X0.055
G3 X0.0774 Y1.9128 I-0.0119 J0.0404
G2 Y1.9129 I0.0015 J-0.0011
G1 X0.0913 Y1.9296
G2 X0.0927 Y1.9302 I0.0014 J-0.0012
G1 X0.1099
G1 X0.1271
G2 X0.1284 Y1.9297 I0.0 J-0.0019
G1 X0.1487 Y1.9114
G1 X0.169 Y1.893
G2 X0.1696 Y1.8916 I-0.0013 J-0.0014
G1 Y1.8747
G1 Y1.8579
G2 X0.1692 Y1.8566 I-0.0019 J0.0
G1 X0.1508 Y1.8363
G1 X0.1324 Y1.816
G2 X0.131 Y1.8154 I-0.0014 J0.0013
G1 X0.1119
G1 X0.0927
G2 X0.0913 Y1.8161 I0.0 J0.0019
G1 X0.0774 Y1.8327
G1 Y1.8328
G3 X0.055 Y1.8487 I-0.0388 J-0.0309
G1 X0.0474
G1 Y1.7839
G1 Y1.7191
G1 X0.0566
G3 X0.0891 Y1.7326 I-0.0156 J0.0835
G1 X0.0892
G1 X0.1113 Y1.7464
G2 X0.1133 I0.001 J-0.0016
G1 X0.1327 Y1.7342
G1 X0.1521 Y1.722
G2 X0.153 Y1.7204 I-0.001 J-0.0016
G1 Y1.695
G1 Y1.6697
G2 X0.1521 Y1.6681 I-0.0019 J0.0
G1 X0.1327 Y1.6558
G1 X0.1133 Y1.6436
G2 X0.1113 I-0.001 J0.0016
G1 X0.0892 Y1.6574
G3 X0.0566 Y1.6709 I-0.0556 J-0.088
G1 X0.0474
G1 Y1.1728
G1 Y0.6747
G1 X0.3419
G1 X0.6375
G1 X0.6573 Y0.6926
G1 X0.677 Y0.7104
G1 Y0.8192
G1 Y0.9288
G2 X0.6789 Y0.9307 I0.0019 J0.0
G1 X0.8928 Y0.9277
G1 X1.1067 Y0.9247
G2 X1.1085 Y0.9228 I0.0 J-0.0019
G1 Y0.895
G1 Y0.8672
G2 X1.1068 Y0.8654 I-0.0019 J0.0
G1 X1.0483 Y0.862
G1 X0.9899 Y0.8587
G2 X0.988 Y0.8599 I-0.0001 J0.0019
G1 X0.9814 Y0.8771
G1 X0.9752 Y0.8932
G1 X0.8444
G1 X0.7141
G1 Y0.7964
G1 Y0.6986
G1 X0.7301 Y0.6854
G1 X0.7467 Y0.6715
G2 X0.7474 Y0.6701 I-0.0012 J-0.0014
G1 Y0.6506
G1 Y0.6311
G2 X0.7467 Y0.6296 I-0.0019 J0.0
G1 X0.7301 Y0.6158
G1 X0.7141 Y0.6025
G1 Y0.4437
G1 Y0.2858
G1 X0.7494
G1 X0.7857
G1 X0.8053 Y0.3074
G1 X0.8254 Y0.3296
G2 X0.8268 Y0.3302 I0.0014 J-0.0013
G1 X0.8436
G1 X0.8605
G2 X0.8617 Y0.3297 I0.0 J-0.0019
G1 X0.882 Y0.3114
G1 X0.9024 Y0.293
G2 X0.903 Y0.2916 I-0.0013 J-0.0014
G1 Y0.2747
G1 Y0.2579
G2 X0.9025 Y0.2566 I-0.0019 J0.0
G1 X0.8841 Y0.2363
G1 X0.8657 Y0.216
G2 X0.8643 Y0.2154 I-0.0014 J0.0013
G1 X0.8452
G1 X0.826
G2 X0.8246 Y0.2161 I0.0 J0.0019
G1 X0.8108 Y0.2327
G1 X0.7975 Y0.2487
G1 X0.7386
G1 X0.6789
G2 X0.677 Y0.2506 I0.0 J0.0019
G1 Y0.4191
G1 Y0.587
G1 X0.6591 Y0.6068
G1 X0.6413 Y0.6265
G1 X0.3216
G1 X0.0011
G2 X-0.0008 Y0.6284 I0.0 J0.0019
G1 Y2.0466
G1 Y3.4648
G2 X0.0 Y3.4663 I0.0019 J0.0
G1 X0.0194 Y3.481
G1 X0.0389 Y3.4958
G2 X0.04 Y3.4962 I0.0011 J-0.0015
G1 X1.1961 Y3.4965
G1 X2.3522 Y3.4969
G2 X2.3535 Y3.4963 I0.0 J-0.0019
G1 X2.3668 Y3.483
G1 X2.3669
G1 X2.3668
G0 Z0.125
G0 X2.28 Y3.3728
G0 Z0.0754
G1 F20.0 Z-0.0021
G2 F40.0 X2.2808 Y3.3713 I-0.0012 J-0.0015
G1 Y3.3599
G1 Y3.3485
G2 X2.2794 Y3.3467 I-0.0019 J0.0
G1 X2.2571 Y3.3409
G1 X2.2363 Y3.3354
G1 Y3.316
G1 Y3.2969
G1 X2.2504
G1 X2.2505
G2 X2.2752 Y3.2844 I-0.0017 J-0.034
G2 X2.2754 Y3.2842 I-0.0015 J-0.0012
G1 X2.2827 Y3.2723
G2 X2.2824 Y3.27 I-0.0016 J-0.001
G1 X2.2765 Y3.264
G1 X2.2705 Y3.2581
G2 X2.2686 Y3.2576 I-0.0013 J0.0013
G1 X2.1957 Y3.2819
G1 X2.1227 Y3.3062
G2 X2.1215 Y3.3079 I0.0006 J0.0018
G1 Y3.3177
G1 Y3.3275
G2 X2.1228 Y3.3293 I0.0019 J0.0
G1 X2.1672 Y3.3426
G1 X2.1905 Y3.3507
G1 X2.1906
G3 X2.2103 Y3.3625 I-0.0136 J0.0452
G1 Y3.3694
G2 X2.2122 Y3.3713 I0.0019 J0.0
G1 X2.2455 Y3.3722
G1 X2.2456
G1 X2.2455
G1 X2.2456
G1 X2.2788 Y3.3732
G2 X2.28 Y3.3728 I0.0001 J-0.0019
G0 Z0.125
G0 X2.2789 Y3.2413
G0 Z0.0754
G1 F20.0 Z-0.0021
G1 F40.0 X2.2567
G1 X2.2344
G3 X2.2326 Y3.2395 I0.0 J-0.0019
G1 Y3.2284
G3 X2.2455 Y3.2154 I0.013 J0.0
G1 X2.2548
G1 Y3.195
G1 Y3.1747
G1 X2.2011
G1 X2.1474
G1 Y3.195
G1 Y3.2154
G1 X2.1567
G3 X2.1696 Y3.2284 I0.0 J0.013
G1 Y3.2395
G3 X2.1678 Y3.2413 I-0.0019 J0.0
G1 X2.1455
G1 X2.1233
G3 X2.1215 Y3.2395 I0.0 J-0.0019
G1 Y3.195
G1 Y3.1506
G3 X2.1233 Y3.1487 I0.0019 J0.0
G1 X2.2011
G1 X2.2789
G3 X2.2808 Y3.1506 I0.0 J0.0019
G1 Y3.195
G1 Y3.2395
G3 X2.2789 Y3.2413 I-0.0019 J0.0
G0 Z0.125
G0 X2.2316 Y3.1039
G0 Z0.0754
G1 F20.0 Z-0.0021
G3 F40.0 X2.2035 Y3.1131 I-0.2655 J-0.7717
G1 X2.1718 Y3.123
G3 X2.1388 Y3.1302 I-0.0453 J-0.1283
G3 X2.1386 I-0.0002 J-0.0019
G1 X2.1233
G3 X2.1215 Y3.1284 I0.0 J-0.0019
G1 Y3.1177
G1 Y3.107
G3 X2.1228 Y3.1052 I0.0019 J0.0
G1 X2.1672 Y3.0919
G3 X2.1674 I0.0005 J0.0018
G2 X2.2094 Y3.0727 I-0.0223 J-0.1041
G2 X2.1906 Y3.0618 I-0.0338 J0.0368
G1 X2.1905
G1 X2.1672 Y3.0537
G1 X2.1228 Y3.0404
G3 X2.1215 Y3.0386 I0.0005 J-0.0018
G1 Y3.0279
G1 Y3.0172
G3 X2.1234 Y3.0154 I0.0019 J0.0
G1 X2.1429 Y3.0162
G3 X2.1432 Y3.0163 I-0.0001 J0.0019
G3 X2.2177 Y3.0365 I-0.1573 J0.7267
G1 X2.2726 Y3.0558
G3 X2.2737 Y3.057 I-0.0006 J0.0018
G1 X2.2781 Y3.0702
G1 X2.2825 Y3.0833
G3 X2.2814 Y3.0857 I-0.0018 J0.0006
G1 X2.2666 Y3.091
G3 X2.2316 Y3.1039 I-0.3004 J-0.7588
G0 Z0.125
G0 X2.0473 Y3.0511
G0 Z0.0754
G1 F20.0 Z-0.0021
G3 F40.0 X2.0455 Y3.0524 I-0.0018 J-0.0005
G1 X1.7011
G1 X1.3567
G3 X1.3548 Y3.0506 I0.0 J-0.0019
G1 Y2.9297
G1 Y2.8097
G1 X1.3388 Y2.7965
G1 X1.3221 Y2.7826
G3 X1.3215 Y2.7812 I0.0012 J-0.0014
G1 Y2.7617
G1 Y2.7422
G3 X1.3221 Y2.7408 I0.0019 J0.0
G1 X1.3388 Y2.7269
G1 X1.3548 Y2.7136
G1 Y2.6561
G1 Y2.5991
G1 X1.3331 Y2.5934
G1 X1.31 Y2.5873
G3 X1.3086 Y2.5853 I0.0005 J-0.0018
G1 X1.3123 Y2.5595
G1 X1.3159 Y2.5337
G3 X1.3178 Y2.532 I0.0019 J0.0003
G1 X1.4143
G1 X1.51
G1 X1.5235 Y2.5187
G3 X1.5571 Y2.5043 I0.0361 J0.0379
G1 X1.5572
G1 X1.5754
G3 X1.5768 Y2.5049 I0.0 J0.0019
G1 X1.5952 Y2.5252
G1 X1.6136 Y2.5455
G3 X1.6141 Y2.5468 I-0.0014 J0.0013
G1 Y2.5636
G1 Y2.5805
G3 X1.6135 Y2.5819 I-0.0019 J0.0
G1 X1.5932 Y2.6002
G1 X1.5728 Y2.6186
G3 X1.5716 Y2.6191 I-0.0013 J-0.0014
G1 X1.5544
G1 X1.5372
G3 X1.5357 Y2.6184 I0.0 J-0.0019
G1 X1.5219 Y2.6018
G1 X1.5086 Y2.5858
G1 X1.4803 Y2.5859
G2 X1.4266 Y2.5927 I0.009 J0.2871
G1 X1.403 Y2.5991
G1 Y2.6561
G1 Y2.7136
G1 X1.419 Y2.7269
G1 X1.4356 Y2.7408
G3 X1.4363 Y2.7422 I-0.0012 J0.0014
G1 Y2.7617
G1 Y2.7812
G3 X1.4356 Y2.7826 I-0.0019 J0.0
G1 X1.419 Y2.7965
G1 X1.403 Y2.8097
G1 Y2.9075
G1 Y3.0043
G1 X1.7011
G1 X1.9992
G1 Y2.5615
G1 Y2.1175
G1 X1.9857 Y2.0958
G1 X1.9719 Y2.0737
G3 Y2.0717 I0.0016 J-0.001
G1 X1.9841 Y2.0523
G1 X1.9963 Y2.0329
G3 X1.9976 Y2.0321 I0.0016 J0.001
G1 X2.0164 Y2.0284
G1 X2.0351 Y2.0247
G3 X2.0367 Y2.0251 I0.0004 J0.0018
G1 X2.0528 Y2.0385
G1 X2.069 Y2.0519
G3 X2.0696 Y2.0533 I-0.0012 J0.0014
G1 Y2.0735
G1 Y2.0937
G3 X2.0688 Y2.0953 I-0.0019 J0.0
G1 X2.0576 Y2.1022
G1 X2.0474 Y2.1085
G1 Y2.579
G1 Y3.0506
G3 X2.0473 Y3.0511 I-0.0019 J0.0
G0 Z0.125
G0 X1.9578 Y2.9409
G0 Z0.0754
G1 F20.0 Z-0.0021
G3 F40.0 X1.9567 Y2.9413 I-0.0012 J-0.0015
G1 X1.858
G1 X1.7603
G1 X1.747 Y2.9573
G1 X1.7332 Y2.974
G3 X1.7317 Y2.9747 I-0.0014 J-0.0012
G1 X1.7122
G1 X1.6927
G3 X1.6913 Y2.974 I0.0 J-0.0019
G1 X1.6774 Y2.9573
G1 X1.6642 Y2.9413
G1 X1.6455
G1 X1.6269
G1 X1.6137 Y2.9573
G1 X1.5998 Y2.974
G3 X1.5984 Y2.9747 I-0.0014 J-0.0012
G1 X1.5792
G1 X1.5601
G3 X1.5587 Y2.9741 I0.0 J-0.0019
G1 X1.5403 Y2.9537
G1 X1.5219 Y2.9334
G3 X1.5215 Y2.9322 I0.0014 J-0.0013
G1 Y2.9153
G1 Y2.8985
G3 X1.5221 Y2.8971 I0.0019 J0.0
G1 X1.5424 Y2.8787
G1 X1.5627 Y2.8603
G3 X1.564 Y2.8598 I0.0013 J0.0014
G1 X1.5812
G1 X1.5984
G3 X1.5998 Y2.8605 I0.0 J0.0019
G1 X1.6137 Y2.8772
G1 X1.6269 Y2.8932
G1 X1.6455
G1 X1.6642
G1 X1.6774 Y2.8772
G1 X1.6913 Y2.8605
G3 X1.6927 Y2.8598 I0.0014 J0.0012
G1 X1.7122
G1 X1.7317
G3 X1.7332 Y2.8605 I0.0 J0.0019
G1 X1.747 Y2.8772
G1 X1.7603 Y2.8932
G1 X1.8358
G1 X1.9103
G1 Y2.627
G1 Y2.3609
G1 X1.615 Y2.365
G1 X1.3178 Y2.3691
G3 X1.3159 Y2.3672 I0.0 J-0.0019
G1 Y2.3395
G1 Y2.3117
G3 X1.3178 Y2.3098 I0.0019 J0.0
G1 X1.3761 Y2.3102
G1 X1.6956 Y2.313
G1 X1.9567 Y2.3154
G3 X1.9585 Y2.3172 I0.0 J0.0019
G1 Y2.6284
G1 Y2.9395
G3 X1.9578 Y2.9409 I-0.0019 J0.0
G0 Z0.125
G0 X1.8437 Y2.8148
G0 Z0.0754
G1 F20.0 Z-0.0021
G1 F40.0 X1.8395 Y2.8186
G3 X1.8382 Y2.8191 I-0.0013 J-0.0014
G1 X1.821
G1 X1.8038
G3 X1.8024 Y2.8184 I0.0 J-0.0019
G1 X1.7886 Y2.8018
G1 X1.7753 Y2.7858
G1 X1.7331
G1 X1.69
G3 X1.6881 Y2.7839 I0.0 J-0.0019
G1 Y2.7297
G1 Y2.6764
G1 X1.6721 Y2.6631
G1 X1.6555 Y2.6493
G3 X1.6548 Y2.6479 I0.0012 J-0.0014
G1 Y2.6287
G1 Y2.6096
G3 X1.6554 Y2.6082 I0.0019 J0.0
G1 X1.6776 Y2.5881
G1 X1.6992 Y2.5685
G1 Y2.5506
G1 Y2.5326
G1 X1.6776 Y2.5131
G1 X1.6554 Y2.493
G3 X1.6548 Y2.4916 I0.0013 J-0.0014
G1 Y2.4766
G1 Y2.4636
G1 X1.5533
G1 X1.4508
G1 X1.4395 Y2.4748
G1 X1.4277 Y2.4866
G3 X1.4263 Y2.4871 I-0.0013 J-0.0013
G1 X1.372 Y2.4837
G1 X1.3177 Y2.4802
G3 X1.3159 Y2.4784 I0.0001 J-0.0019
G1 Y2.4506
G1 Y2.4228
G3 X1.3178 Y2.4209 I0.0019 J0.0
G1 X1.5267 Y2.4229
G1 X1.7357 Y2.4248
G3 X1.7369 Y2.4252 I0.0 J0.0019
G1 X1.7529 Y2.4385
G1 X1.769 Y2.4519
G3 X1.7696 Y2.4533 I-0.0012 J0.0014
G1 Y2.4728
G1 Y2.4923
G3 X1.769 Y2.4937 I-0.0019 J0.0
G1 X1.7523 Y2.5076
G1 X1.7363 Y2.5208
G1 Y2.5506
G1 Y2.5803
G1 X1.7523 Y2.5936
G1 X1.769 Y2.6074
G3 X1.7696 Y2.6089 I-0.0012 J0.0014
G1 Y2.6284
G1 Y2.6479
G3 X1.769 Y2.6493 I-0.0019 J0.0
G1 X1.7523 Y2.6631
G1 X1.7363 Y2.6764
G1 Y2.7075
G1 Y2.7376
G1 X1.7553
G1 X1.7753
G1 X1.7886 Y2.7216
G1 X1.8024 Y2.7049
G3 X1.8038 Y2.7043 I0.0014 J0.0012
G1 X1.823
G1 X1.8421
G3 X1.8435 Y2.7049 I0.0 J0.0019
G1 X1.8619 Y2.7252
G1 X1.8803 Y2.7455
G3 X1.8808 Y2.7468 I-0.0014 J0.0013
G1 Y2.7636
G1 Y2.7805
G3 X1.8801 Y2.7819 I-0.0019 J0.0
G1 X1.8598 Y2.8002
G1 X1.8437 Y2.8148
G0 Z0.125
G0 X2.102 Y2.7263
G0 Z0.0754
G1 F20.0 Z-0.0021
G3 F40.0 X2.0993 Y2.7162 I0.0756 J-0.0259
G3 X2.0992 Y2.7157 I0.0018 J-0.0004
G3 X2.1117 Y2.6862 I0.0498 J0.0037
G3 X2.1118 Y2.6861 I0.0014 J0.0012
G1 X2.1228 Y2.6752
G1 X2.1088 Y2.6528
G1 X2.0941 Y2.6293
G3 Y2.6273 I0.0016 J-0.001
G1 X2.1059 Y2.6086
G1 Y2.6085
G3 X2.1369 Y2.5776 I0.1021 J0.0712
G1 X2.137
G1 X2.1557 Y2.5658
G3 X2.1577 I0.001 J0.0016
G1 X2.1764 Y2.5776
G3 X2.2074 Y2.6086 I-0.0628 J0.0938
G1 X2.2192 Y2.6273
G3 Y2.6293 I-0.0016 J0.001
G1 X2.2045 Y2.6528
G1 X2.1905 Y2.6752
G1 X2.2015 Y2.6861
G3 X2.2016 Y2.6862 I-0.0013 J0.0013
G3 X2.2141 Y2.7177 I-0.0393 J0.0338
G1 Y2.736
G3 X2.2135 Y2.7374 I-0.0019 J0.0
G1 X2.1932 Y2.7558
G1 X2.1728 Y2.7742
G3 X2.1716 Y2.7747 I-0.0013 J-0.0014
G1 X2.1547
G1 X2.1379
G3 X2.1365 Y2.7741 I0.0 J-0.0019
G1 X2.1181 Y2.7537
G3 X2.102 Y2.7263 I0.0595 J-0.0533
G0 Z0.125
G0 X2.1375 Y2.5302
G0 Z0.0754
G1 F20.0 Z-0.0021
G3 F40.0 X2.1365 Y2.5296 I0.0003 J-0.0018
G1 X2.1181 Y2.5093
G3 X2.0993 Y2.4717 I0.0594 J-0.0533
G3 X2.0992 Y2.4712 I0.0018 J-0.0004
G3 X2.1117 Y2.4418 I0.0498 J0.0037
G3 X2.1118 Y2.4417 I0.0014 J0.0012
G1 X2.1228 Y2.4307
G1 X2.1088 Y2.4084
G1 X2.0941 Y2.3848
G3 Y2.3828 I0.0016 J-0.001
G1 X2.1059 Y2.3642
G1 Y2.3641
G3 X2.1369 Y2.3332 I0.1021 J0.0712
G1 X2.137 Y2.3331
G1 X2.1557 Y2.3213
G3 X2.1577 I0.001 J0.0016
G1 X2.1764 Y2.3331
G1 Y2.3332
G3 X2.2074 Y2.3641 I-0.0628 J0.0938
G1 Y2.3642
G1 X2.2192 Y2.3828
G3 Y2.3848 I-0.0016 J0.001
G1 X2.2045 Y2.4084
G1 X2.1905 Y2.4307
G1 X2.2015 Y2.4417
G3 X2.2016 Y2.4418 I-0.0013 J0.0013
G3 X2.2141 Y2.4732 I-0.0393 J0.0338
G1 Y2.4733
G1 Y2.4916
G3 X2.2135 Y2.493 I-0.0019 J0.0
G1 X2.1932 Y2.5114
G1 X2.1728 Y2.5297
G3 X2.1716 Y2.5302 I-0.0013 J-0.0014
G1 X2.1547
G1 X2.1379
G3 X2.1375 I0.0 J-0.0019
G0 Z0.125
G0 X2.1379 Y2.2858
G0 Z0.0754
G1 F20.0 Z-0.0021
G3 F40.0 X2.1365 Y2.2852 I0.0 J-0.0019
G1 X2.1181 Y2.2648
G1 X2.0997 Y2.2445
G3 X2.0992 Y2.2433 I0.0014 J-0.0013
G1 Y2.2261
G1 Y2.2089
G3 X2.0999 Y2.2074 I0.0019 J0.0
G1 X2.1166 Y2.1936
G1 X2.1326 Y2.1803
G1 Y2.1157
G1 Y2.0508
G1 X2.1191 Y2.0292
G1 X2.1053 Y2.0071
G3 Y2.0051 I0.0016 J-0.001
G1 X2.1191 Y1.9831
G1 X2.1326 Y1.9615
G1 Y1.7728
G1 Y1.5841
G1 X2.119 Y1.5625
G1 X2.1052 Y1.5404
G3 Y1.5384 I0.0016 J-0.001
G1 X2.1175 Y1.519
G1 X2.1297 Y1.4996
G3 X2.1313 Y1.4987 I0.0016 J0.001
G1 X2.1567
G1 X2.182
G3 X2.1836 Y1.4996 I0.0 J0.0019
G1 X2.1958 Y1.519
G1 X2.2081 Y1.5384
G3 Y1.5404 I-0.0016 J0.001
G1 X2.1943 Y1.5625
G1 X2.1808 Y1.5841
G1 Y1.7728
G1 Y1.9615
G1 X2.1943 Y1.9831
G1 X2.208 Y2.0051
G3 Y2.0071 I-0.0016 J0.001
G1 X2.1943 Y2.0292
G1 X2.1808 Y2.0508
G1 Y2.1157
G1 Y2.1803
G1 X2.1967 Y2.1936
G1 X2.2134 Y2.2074
G3 X2.2141 Y2.2089 I-0.0012 J0.0014
G1 Y2.228
G1 Y2.2471
G3 X2.2135 Y2.2485 I-0.0019 J0.0
G1 X2.1932 Y2.2669
G1 X2.1728 Y2.2853
G3 X2.1716 Y2.2858 I-0.0013 J-0.0014
G1 X2.1547
G1 X2.1379
G0 Z0.125
G0 X1.912 Y2.0519
G0 Z0.0754
G1 F20.0 Z-0.0021
G3 F40.0 X1.9107 Y2.0524 I-0.0013 J-0.0013
G1 X1.8906
G1 X1.8705
G3 X1.8691 Y2.0518 I0.0 J-0.0019
G1 X1.8557 Y2.0356
G1 X1.8423 Y2.0195
G3 X1.8419 Y2.018 I0.0014 J-0.0012
G1 X1.8457 Y1.9983
G1 X1.8495 Y1.9786
G3 X1.8505 Y1.9772 I0.0018 J0.0004
G1 X1.8728 Y1.9659
G1 X1.9165 Y1.9366
G1 X1.9586 Y1.9048
G1 X2.0215 Y1.8555
G1 Y1.6202
G1 Y1.3858
G1 X1.8025
G1 X1.5825
G1 X1.5692 Y1.4018
G1 X1.5554 Y1.4184
G3 X1.5539 Y1.4191 I-0.0014 J-0.0012
G1 X1.5344
G1 X1.5149
G3 X1.5135 Y1.4184 I0.0 J-0.0019
G1 X1.4997 Y1.4018
G1 X1.4864 Y1.3858
G1 X1.4455
G1 X1.4047
G1 X1.3914 Y1.4018
G1 X1.3776 Y1.4184
G3 X1.3762 Y1.4191 I-0.0014 J-0.0012
G1 X1.357
G1 X1.3379
G3 X1.3365 Y1.4185 I0.0 J-0.0019
G1 X1.3181 Y1.3982
G1 X1.2997 Y1.3779
G3 X1.2992 Y1.3766 I0.0014 J-0.0013
G1 Y1.3598
G1 Y1.3429
G3 X1.2998 Y1.3415 I0.0019 J0.0
G1 X1.3202 Y1.3231
G1 X1.3405 Y1.3047
G3 X1.3417 Y1.3043 I0.0013 J0.0014
G1 X1.359
G1 X1.3762
G3 X1.3776 Y1.3049 I0.0 J0.0019
G1 X1.3914 Y1.3216
G1 X1.4047 Y1.3376
G1 X1.4455
G1 X1.4864
G1 X1.4997 Y1.3216
G1 X1.5135 Y1.3049
G3 X1.5149 Y1.3043 I0.0014 J0.0012
G1 X1.5344
G1 X1.5539
G3 X1.5554 Y1.3049 I0.0 J0.0019
G1 X1.5692 Y1.3216
G1 X1.5825 Y1.3376
G1 X1.8247
G1 X2.0678
G3 X2.0696 Y1.3395 I0.0 J0.0019
G1 Y1.6205
G1 Y1.9016
G3 X2.0689 Y1.9031 I-0.0019 J0.0
G1 X2.0131 Y1.9456
G2 X1.935 Y2.0197 I0.2289 J0.3195
G1 X1.9122 Y2.0517
G3 X1.912 Y2.0519 I-0.0015 J-0.0011
G0 Z0.125
G0 X1.8392 Y1.93
G0 Z0.0754
G1 F20.0 Z-0.0021
G3 F40.0 X1.8382 Y1.9302 I-0.001 J-0.0016
G1 X1.8214
G1 X1.8045
G3 X1.8032 Y1.9296 I0.0 J-0.0019
G1 X1.7831 Y1.9074
G1 X1.7635 Y1.8858
G1 X1.7494
G1 X1.7363
G1 Y2.0061
G1 Y2.1284
G3 X1.7344 Y2.1302 I-0.0019 J0.0
G1 X1.5922
G1 X1.4508
G1 X1.4395 Y2.1415
G1 X1.4277 Y2.1532
G3 X1.4263 Y2.1538 I-0.0013 J-0.0013
G1 X1.372 Y2.1503
G1 X1.3177 Y2.1469
G3 X1.3159 Y2.145 I0.0001 J-0.0019
G1 Y2.1172
G1 Y2.0895
G3 X1.3178 Y2.0876 I0.0019 J0.0
G1 X1.5095 Y2.0919
G1 X1.6992 Y2.0961
G1 Y1.9743
G1 Y1.8506
G3 X1.7011 Y1.8487 I0.0019 J0.0
G1 X1.7386
G1 X1.7753
G1 X1.789 Y1.8322
G1 X1.8033 Y1.8149
G3 X1.805 Y1.8143 I0.0014 J0.0012
G1 X1.8282 Y1.8173
G1 X1.8506 Y1.8202
G1 X1.8861 Y1.7939
G1 X1.9215 Y1.7677
G1 Y1.6818
G1 Y1.5969
G1 X1.7806
G1 X1.6387
G1 X1.6192 Y1.6185
G1 X1.599 Y1.6407
G3 X1.5977 Y1.6413 I-0.0014 J-0.0013
G1 X1.5789
G1 X1.5601
G3 X1.5587 Y1.6407 I0.0 J-0.0019
G1 X1.5403 Y1.6204
G1 X1.5219 Y1.6001
G3 X1.5215 Y1.5988 I0.0014 J-0.0013
G1 Y1.582
G1 Y1.5651
G3 X1.5221 Y1.5637 I0.0019 J0.0
G1 X1.5424 Y1.5454
G1 X1.5627 Y1.527
G3 X1.564 Y1.5265 I0.0013 J0.0014
G1 X1.5812
G1 X1.5984
G3 X1.5998 Y1.5272 I0.0 J0.0019
G1 X1.6137 Y1.5438
G1 X1.6269 Y1.5598
G1 X1.7914
G1 X1.9567
G3 X1.9585 Y1.5617 I0.0 J0.0019
G1 Y1.6811
G1 Y1.8006
G3 X1.9578 Y1.802 I-0.0019 J0.0
G1 X1.9189 Y1.8331
G1 X1.8808 Y1.8635
G1 Y1.8771
G3 X1.8807 Y1.8775 I-0.0019 J0.0
G3 X1.8598 Y1.9114 I-0.0591 J-0.0131
G1 X1.8395 Y1.9297
G3 X1.8392 Y1.93 I-0.0013 J-0.0014
G0 Z0.125
G0 X1.8383 Y1.7747
G0 Z0.0754
G1 F20.0 Z-0.0021
G1 F40.0 X1.8382
G1 X1.821
G1 X1.8038
G3 X1.8024 Y1.774 I0.0 J-0.0019
G1 X1.7886 Y1.7573
G1 X1.7753 Y1.7413
G1 X1.6775
G1 X1.5808
G1 Y1.8492
G1 Y1.9581
G1 X1.5967 Y1.9714
G1 X1.6134 Y1.9852
G3 X1.6141 Y1.9866 I-0.0012 J0.0014
G1 Y2.0058
G1 Y2.0249
G3 X1.6135 Y2.0263 I-0.0019 J0.0
G1 X1.5932 Y2.0447
G1 X1.5931
G3 X1.5556 Y2.0635 I-0.0533 J-0.0594
G3 X1.5551 Y2.0636 I-0.0004 J-0.0018
G3 X1.5235 Y2.0491 I0.0043 J-0.0511
G1 X1.51 Y2.0358
G1 X1.4143
G1 X1.3178
G3 X1.3159 Y2.0339 I0.0 J-0.0019
G1 Y2.0061
G1 Y1.9784
G3 X1.3178 Y1.9765 I0.0019 J0.0
G1 X1.4122
G1 X1.5061
G1 X1.5195 Y1.9678
G1 X1.5326 Y1.9594
G1 Y1.8277
G1 Y1.695
G3 X1.5344 Y1.6932 I0.0019 J0.0
G1 X1.6553
G1 X1.7753
G1 X1.7886 Y1.6772
G1 X1.8024 Y1.6605
G3 X1.8038 Y1.6598 I0.0014 J0.0012
G1 X1.823
G1 X1.8421
G3 X1.8435 Y1.6604 I0.0 J0.0019
G1 X1.8619 Y1.6808
G1 X1.8803 Y1.7011
G3 X1.8808 Y1.7023 I-0.0014 J0.0013
G1 Y1.7192
G1 Y1.736
G3 X1.8801 Y1.7374 I-0.0019 J0.0
G1 X1.8598 Y1.7558
G1 X1.8395 Y1.7742
G3 X1.8383 Y1.7747 I-0.0013 J-0.0014
G0 Z0.125
G0 X1.9151 Y1.5301
G0 Z0.0754
G1 F20.0 Z-0.0021
G3 F40.0 X1.9143 Y1.5296 I0.0006 J-0.0018
G1 X1.8942 Y1.5074
G1 X1.8746 Y1.4858
G1 X1.6383
G1 X1.403
G1 Y1.577
G1 Y1.6692
G1 X1.419 Y1.6825
G1 X1.4356 Y1.6963
G3 X1.4363 Y1.6977 I-0.0012 J0.0014
G1 Y1.7172
G1 Y1.7367
G3 X1.4356 Y1.7382 I-0.0019 J0.0
G1 X1.419 Y1.752
G1 X1.403 Y1.7653
G1 Y1.8118
G1 Y1.8577
G1 X1.4247 Y1.8633
G1 X1.4478 Y1.8694
G3 X1.4492 Y1.8714 I-0.0005 J0.0018
G1 X1.4455 Y1.8973
G1 X1.4418 Y1.9231
G3 X1.44 Y1.9247 I-0.0019 J-0.0003
G1 X1.3789
G1 X1.3178
G3 X1.3159 Y1.9231 I0.0 J-0.0019
G1 X1.3123 Y1.8973
G1 X1.3086 Y1.8714
G3 X1.31 Y1.8694 I0.0019 J-0.0003
G1 X1.3331 Y1.8633
G1 X1.3548 Y1.8577
G1 Y1.8118
G1 Y1.7653
G1 X1.3388 Y1.752
G1 X1.3221 Y1.7382
G3 X1.3215 Y1.7367 I0.0012 J-0.0014
G1 Y1.7176
G1 Y1.6985
G3 X1.3221 Y1.6971 I0.0019 J0.0
G1 X1.3443 Y1.677
G1 X1.3659 Y1.6574
G1 Y1.5544
G1 Y1.4506
G3 X1.3678 Y1.4487 I0.0019 J0.0
G1 X1.6275
G1 X1.8864
G1 X1.8997 Y1.4327
G1 X1.9135 Y1.4161
G3 X1.9149 Y1.4154 I0.0014 J0.0012
G1 X1.9341
G1 X1.9532
G3 X1.9546 Y1.416 I0.0 J0.0019
G1 X1.973 Y1.4363
G1 X1.9914 Y1.4566
G3 X1.9919 Y1.4579 I-0.0014 J0.0013
G1 Y1.4747
G1 Y1.4916
G3 X1.9912 Y1.493 I-0.0019 J0.0
G1 X1.9709 Y1.5114
G1 X1.9506 Y1.5297
G3 X1.9494 Y1.5302 I-0.0013 J-0.0014
G1 X1.9325
G1 X1.9157
G3 X1.9151 Y1.5301 I0.0 J-0.0019
G0 Z0.125
G0 X1.912 Y1.2515
G0 Z0.0754
G1 F20.0 Z-0.0021
G1 F40.0 X1.6793 Y1.254
G1 X1.3178 Y1.258
G3 X1.3159 Y1.2561 I0.0 J-0.0019
G1 Y1.2284
G1 Y1.2006
G3 X1.3178 Y1.1987 I0.0019 J0.0
G1 X1.6793 Y1.2027
G1 X2.04 Y1.2067
G1 X2.0542 Y1.1895
G1 X2.0691 Y1.1716
G3 X2.0705 Y1.1709 I0.0014 J0.0012
G1 X2.0896
G1 X2.1088
G3 X2.1102 Y1.1715 I0.0 J0.0019
G1 X2.1285 Y1.1919
G1 X2.1469 Y1.2122
G3 X2.1474 Y1.2134 I-0.0014 J0.0013
G1 Y1.2303
G1 Y1.2471
G3 X2.1468 Y1.2485 I-0.0019 J0.0
G1 X2.1265 Y1.2669
G1 X2.1062 Y1.2853
G3 X2.1049 Y1.2858 I-0.0013 J-0.0014
G1 X2.0877
G1 X2.0705
G3 X2.0691 Y1.2851 I0.0 J-0.0019
G1 X2.0542 Y1.2672
G1 X2.04 Y1.25
G1 X1.912 Y1.2515
G0 Z0.125
G0 X1.9375 Y1.1302
G0 Z0.0754
G1 F20.0 Z-0.0021
G1 F40.0 X1.9374
G3 X1.8998 Y1.1074 I0.0201 J-0.0757
G1 X1.8776 Y1.0852
G3 X1.877 Y1.0839 I0.0013 J-0.0013
G1 Y0.9975
G1 Y0.9111
G3 X1.8774 Y0.91 I0.0019 J0.0
G1 X1.8946 Y0.8853
G1 X1.9119 Y0.8606
G3 X1.9135 Y0.8598 I0.0015 J0.0011
G1 X1.9384
G1 X1.9633
G3 X1.9646 Y0.8604 I0.0 J0.0019
G1 X1.978 Y0.8737
G1 X1.9913 Y0.887
G3 X1.9919 Y0.8884 I-0.0013 J0.0013
G1 Y0.9695
G1 Y1.0487
G1 X2.0164
G1 X2.0419
G1 X2.0552 Y1.0327
G1 X2.0691 Y1.0161
G3 X2.0705 Y1.0154 I0.0014 J0.0012
G1 X2.0896
G1 X2.1088
G3 X2.1102 Y1.016 I0.0 J0.0019
G1 X2.1285 Y1.0363
G1 X2.1469 Y1.0566
G3 X2.1474 Y1.0579 I-0.0014 J0.0013
G1 Y1.0747
G1 Y1.0916
G3 X2.1468 Y1.093 I-0.0019 J0.0
G1 X2.1265 Y1.1114
G1 X2.1062 Y1.1297
G3 X2.1049 Y1.1302 I-0.0013 J-0.0014
G1 X2.0877
G1 X2.0705
G3 X2.0691 Y1.1296 I0.0 J-0.0019
G1 X2.0552 Y1.1129
G1 X2.042 Y1.0969
G1 X2.0192 Y1.0972
G1 X1.9962 Y1.0976
G1 X1.9751 Y1.1135
G3 X1.9382 Y1.1302 I-0.0554 J-0.0735
G3 X1.9375 I-0.0004 J-0.0018
G0 Z0.125
G0 X1.8252 Y1.1065
G0 Z0.0754
G1 F20.0 Z-0.0021
G3 F40.0 X1.8233 Y1.108 I-0.0018 J-0.0004
G1 X1.7862
G1 X1.7498
G1 X1.7303 Y1.1296
G1 X1.7102 Y1.1518
G3 X1.7088 Y1.1524 I-0.0014 J-0.0013
G1 X1.69
G1 X1.6712
G3 X1.6698 Y1.1518 I0.0 J-0.0019
G1 X1.6514 Y1.1315
G1 X1.6331 Y1.1112
G3 X1.6326 Y1.1099 I0.0014 J-0.0013
G1 Y1.0931
G1 Y1.0762
G3 X1.6332 Y1.0749 I0.0019 J0.0
G1 X1.6554 Y1.0547
G3 X1.6555 I0.0013 J0.0014
G2 X1.677 Y1.0263 I-0.0446 J-0.0561
G1 Y1.0191
G1 X1.5644
G1 X1.4508
G1 X1.4395 Y1.0304
G1 X1.4277 Y1.0421
G3 X1.4263 Y1.0427 I-0.0013 J-0.0013
G1 X1.372 Y1.0392
G1 X1.3177 Y1.0358
G3 X1.3159 Y1.0339 I0.0001 J-0.0019
G1 Y1.0061
G1 Y0.9784
G3 X1.3178 Y0.9765 I0.0019 J0.0
G1 X1.3761 Y0.9769
G1 X1.5734 Y0.9797
G1 X1.7122 Y0.982
G3 X1.7141 Y0.9839 I0.0 J0.0019
G1 Y1.015
G1 Y1.0454
G1 X1.7269 Y1.0581
G1 X1.7397 Y1.0709
G1 X1.7644
G1 X1.7881
G1 Y0.9061
G1 Y0.7395
G3 X1.79 Y0.7376 I0.0019 J0.0
G1 X1.9164
G1 X2.0419
G1 X2.0552 Y0.7216
G1 X2.0691 Y0.7049
G3 X2.0705 Y0.7043 I0.0014 J0.0012
G1 X2.0896
G1 X2.1088
G3 X2.1102 Y0.7049 I0.0 J0.0019
G1 X2.1285 Y0.7252
G1 X2.1469 Y0.7455
G3 X2.1474 Y0.7468 I-0.0014 J0.0013
G1 Y0.7636
G1 Y0.7805
G3 X2.1468 Y0.7819 I-0.0019 J0.0
G1 X2.1265 Y0.8002
G1 X2.1062 Y0.8186
G3 X2.1049 Y0.8191 I-0.0013 J-0.0014
G1 X2.0881
G1 X2.0712
G3 X2.0698 Y0.8185 I0.0 J-0.0019
G1 X2.0497 Y0.7963
G1 X2.0302 Y0.7747
G1 X1.9272
G1 X1.8252
G1 Y0.9395
G1 Y1.1061
G3 Y1.1065 I-0.0019 J0.0
G0 Z0.125
G0 X2.033 Y0.9334
G0 Z0.0754
G1 F20.0 Z-0.0021
G3 F40.0 X2.0326 Y0.9322 I0.0014 J-0.0012
G1 Y0.9153
G1 Y0.8985
G3 X2.0332 Y0.8971 I0.0019 J0.0
G1 X2.0535 Y0.8787
G1 X2.0738 Y0.8603
G3 X2.0751 Y0.8598 I0.0013 J0.0014
G1 X2.0923
G1 X2.1095
G3 X2.1109 Y0.8605 I0.0 J0.0019
G1 X2.1248 Y0.8772
G2 X2.148 Y0.893 I0.0387 J-0.0317
G2 X2.1793 Y0.8662 I-0.0326 J-0.0699
G3 X2.1794 Y0.8661 I0.0016 J0.001
G1 X2.2012 Y0.8383
G3 X2.2027 Y0.8376 I0.0015 J0.0012
G1 X2.2224
G1 X2.2421
G3 X2.2435 Y0.8382 I0.0 J0.0019
G1 X2.2619 Y0.8585
G1 X2.2803 Y0.8789
G3 X2.2808 Y0.8801 I-0.0014 J0.0013
G1 Y0.897
G1 Y0.9138
G3 X2.2801 Y0.9152 I-0.0019 J0.0
G1 X2.2598 Y0.9336
G1 X2.2394 Y0.952
G3 X2.2379 Y0.9525 I-0.0013 J-0.0014
G1 X2.1884 Y0.9457
G1 X2.1399 Y0.9391
G1 X2.1258 Y0.9561
G1 X2.1109 Y0.974
G3 X2.1095 Y0.9747 I-0.0014 J-0.0012
G1 X2.0904
G1 X2.0712
G3 X2.0698 Y0.9741 I0.0 J-0.0019
G1 X2.0514 Y0.9537
G1 X2.0331 Y0.9334
G1 X2.033
G0 Z0.125
G0 X1.9498 Y0.5524
G0 Z0.0754
G1 F20.0 Z-0.0021
G3 F40.0 X1.9494 I-0.0004 J-0.0018
G1 X1.9325
G1 X1.9157
G3 X1.9143 Y0.5518 I0.0 J-0.0019
G1 X1.8959 Y0.5315
G1 X1.8775 Y0.5112
G3 X1.877 Y0.5099 I0.0014 J-0.0013
G1 Y0.4931
G1 Y0.4762
G3 X1.8776 Y0.4749 I0.0019 J0.0
G1 X1.8998 Y0.4547
G1 X1.9215 Y0.4352
G1 Y0.2377
G1 Y0.0413
G1 X1.5955
G1 X1.2696
G1 Y0.0573
G1 Y0.0743
G1 X1.2967 Y0.0955
G1 X1.3245 Y0.1174
G3 X1.3252 Y0.1189 I-0.0012 J0.0015
G1 Y0.1395
G1 Y0.1601
G3 X1.3245 Y0.1615 I-0.0019 J0.0
G1 X1.2967 Y0.1834
G1 X1.2696 Y0.2047
G1 Y0.4264
G1 Y0.6472
G1 X1.3538 Y0.6452
G1 X1.4399 Y0.6432
G3 X1.4419 Y0.645 I0.0 J0.0019
G1 Y0.6728
G1 Y0.7006
G3 X1.4401 Y0.7024 I-0.0019 J0.0
G1 X1.3858 Y0.7059
G1 X1.3315 Y0.7093
G3 X1.33 Y0.7088 I-0.0001 J-0.0019
G1 X1.3183 Y0.6971
G2 X1.2877 Y0.6858 I-0.0325 J0.0409
G1 X1.2696
G1 X1.2697 Y1.4422
G1 Y2.1987
G1 X1.4662 Y2.2018
G1 X1.6636 Y2.205
G1 X1.6771 Y2.1886
G1 X1.6913 Y2.1716
G3 X1.6927 Y2.1709 I0.0014 J0.0012
G1 X1.7119
G1 X1.731
G3 X1.7324 Y2.1715 I0.0 J0.0019
G1 X1.7508 Y2.1919
G1 X1.7692 Y2.2122
G3 X1.7696 Y2.2134 I-0.0014 J0.0013
G1 Y2.2303
G1 Y2.2471
G3 X1.769 Y2.2485 I-0.0019 J0.0
G1 X1.7487 Y2.2669
G1 X1.7284 Y2.2853
G3 X1.7271 Y2.2858 I-0.0013 J-0.0014
G1 X1.7099
G1 X1.6927
G3 X1.6913 Y2.2851 I0.0 J-0.0019
G1 X1.6761 Y2.2668
G1 X1.6615 Y2.2492
G1 X1.4934 Y2.2562
G1 X1.3245 Y2.2631
G3 X1.3228 Y2.2623 I-0.0001 J-0.0019
G1 X1.316 Y2.2514
G1 X1.3099 Y2.2413
G1 X1.2893
G1 X1.2696
G1 Y2.7006
G1 Y3.1598
G1 X1.2772
G2 X1.2996 Y3.1439 I-0.0164 J-0.0468
G1 X1.2997 Y3.1438
G1 X1.3135 Y3.1272
G3 X1.3149 Y3.1265 I0.0014 J0.0012
G1 X1.3344
G1 X1.3539
G3 X1.3554 Y3.1272 I0.0 J0.0019
G1 X1.3692 Y3.1438
G1 X1.3825 Y3.1598
G1 X1.4678
G1 X1.5531
G1 X1.5663 Y3.1438
G1 X1.5802 Y3.1272
G3 X1.5816 Y3.1265 I0.0014 J0.0012
G1 X1.6007
G1 X1.6199
G3 X1.6213 Y3.1271 I0.0 J0.0019
G1 X1.6397 Y3.1474
G1 X1.658 Y3.1677
G3 X1.6585 Y3.169 I-0.0014 J0.0013
G1 Y3.1858
G1 Y3.2027
G3 X1.6579 Y3.2041 I-0.0019 J0.0
G1 X1.6376 Y3.2225
G1 X1.6173 Y3.2409
G3 X1.616 Y3.2413 I-0.0013 J-0.0014
G1 X1.5992
G1 X1.5823
G3 X1.5809 Y3.2407 I0.0 J-0.0019
G1 X1.5608 Y3.2185
G1 X1.5413 Y3.1969
G1 X1.4678
G1 X1.3943
G1 X1.3764 Y3.2166
G1 X1.3585 Y3.2364
G1 Y3.282
G1 Y3.3284
G3 X1.3567 Y3.3302 I-0.0019 J0.0
G1 X1.0067
G1 X0.6567
G3 X0.6548 Y3.3284 I0.0 J-0.0019
G1 Y3.2634
G1 Y3.1993
G1 X0.6332 Y3.1797
G1 X0.611 Y3.1596
G3 X0.6103 Y3.1582 I0.0013 J-0.0014
G1 Y3.1395
G1 Y3.1207
G3 X0.611 Y3.1193 I0.0019 J0.0
G1 X0.6313 Y3.1009
G1 X0.6516 Y3.0825
G3 X0.6529 Y3.082 I0.0013 J0.0014
G1 X0.6697
G1 X0.6865
G3 X0.6879 Y3.0827 I0.0 J0.0019
G1 X0.7063 Y3.103
G1 X0.7247 Y3.1233
G3 X0.7252 Y3.1246 I-0.0014 J0.0013
G1 Y3.1418
G1 Y3.159
G3 X0.7245 Y3.1604 I-0.0019 J0.0
G1 X0.7079 Y3.1742
G1 X0.6919 Y3.1875
G1 Y3.2408
G1 Y3.2932
G1 X1.0067
G1 X1.3215
G1 Y3.2692
G1 Y3.2442
G1 X1.2963 Y3.2205
G1 X1.2712 Y3.1969
G1 X1.2532
G1 X1.2344
G3 X1.2326 Y3.195 I0.0 J-0.0019
G1 Y1.6839
G1 Y0.1747
G1 X1.229
G2 X1.202 Y0.1881 I0.0258 J0.0856
G3 X1.2019 Y0.1882 I-0.0011 J-0.0015
G1 X1.1798 Y0.202
G3 X1.1778 I-0.001 J-0.0016
G1 X1.1591 Y0.1902
G3 X1.1281 Y0.1592 I0.0713 J-0.1022
G1 X1.1163 Y0.1405
G3 Y0.1385 I0.0016 J-0.001
G1 X1.1281 Y0.1198
G1 Y0.1197
G3 X1.1591 Y0.0887 I0.0937 J0.0627
G1 X1.1778 Y0.0769
G3 X1.1798 I0.001 J0.0016
G1 X1.2019 Y0.0907
G2 X1.2278 Y0.1037 I0.1422 J-0.2518
G2 X1.2326 Y0.073 I-0.0571 J-0.0246
G3 Y0.0728 I0.0019 J-0.0002
G1 Y0.0413
G1 X0.8622
G1 X0.4919
G1 Y0.2437
G1 Y0.447
G1 X0.5079 Y0.4603
G1 X0.5245 Y0.4741
G3 X0.5252 Y0.4755 I-0.0012 J0.0014
G1 Y0.4947
G1 Y0.5138
G3 X0.5246 Y0.5152 I-0.0019 J0.0
G1 X0.5043 Y0.5336
G1 X0.4839 Y0.552
G3 X0.4827 Y0.5524 I-0.0013 J-0.0014
G1 X0.4658
G1 X0.449
G3 X0.4476 Y0.5518 I0.0 J-0.0019
G1 X0.4292 Y0.5315
G1 X0.4108 Y0.5112
G3 X0.4103 Y0.5099 I0.0014 J-0.0013
G1 Y0.4931
G1 Y0.4762
G3 X0.411 Y0.4749 I0.0019 J0.0
G1 X0.4332 Y0.4547
G1 X0.4548 Y0.4352
G1 Y0.2211
G1 Y0.0061
G3 X0.4567 Y0.0043 I0.0019 J0.0
G1 X1.2067
G1 X1.9567
G3 X1.9585 Y0.0061 I0.0 J0.0019
G1 Y0.227
G1 Y0.447
G1 X1.9745 Y0.4603
G1 X1.9912 Y0.4741
G3 X1.9919 Y0.4755 I-0.0012 J0.0014
G1 Y0.4947
G1 Y0.5138
G3 X1.9912 Y0.5152 I-0.0019 J0.0
G1 X1.9709 Y0.5336
G1 X1.9506 Y0.552
G3 X1.9498 Y0.5524 I-0.0013 J-0.0014
G0 Z0.125
G0 X2.0659 Y0.5397
G0 Z0.0754
G1 F20.0 Z-0.0021
G3 F40.0 Y0.5395 I0.0019 J-0.0002
G1 Y0.4519
G1 Y0.3653
G1 X2.0499 Y0.352
G1 X2.0332 Y0.3382
G3 X2.0326 Y0.3367 I0.0012 J-0.0014
G1 Y0.3176
G1 Y0.2985
G3 X2.0332 Y0.2971 I0.0019 J0.0
G1 X2.0535 Y0.2787
G1 X2.0738 Y0.2603
G3 X2.0751 Y0.2598 I0.0013 J0.0014
G1 X2.0919
G1 X2.1088
G3 X2.1102 Y0.2604 I0.0 J0.0019
G1 X2.1285 Y0.2808
G1 X2.1469 Y0.3011
G3 X2.1474 Y0.3023 I-0.0014 J0.0013
G1 Y0.3195
G1 Y0.3367
G3 X2.1467 Y0.3382 I-0.0019 J0.0
G1 X2.1301 Y0.352
G1 X2.1141 Y0.3653
G1 Y0.4297
G1 Y0.4932
G1 X2.1553
G1 X2.1975
G1 X2.2108 Y0.4772
G1 X2.2246 Y0.4605
G3 X2.226 Y0.4598 I0.0014 J0.0012
G1 X2.2452
G1 X2.2643
G3 X2.2657 Y0.4604 I0.0 J0.0019
G1 X2.2841 Y0.4808
G1 X2.3025 Y0.5011
G3 X2.303 Y0.5023 I-0.0014 J0.0013
G1 Y0.5192
G1 Y0.536
G3 X2.3024 Y0.5374 I-0.0019 J0.0
G1 X2.282 Y0.5558
G1 X2.2617 Y0.5742
G3 X2.2605 Y0.5747 I-0.0013 J-0.0014
G1 X2.2433
G1 X2.226
G3 X2.2246 Y0.574 I0.0 J-0.0019
G1 X2.2108 Y0.5573
G1 X2.1975 Y0.5413
G1 X2.1331
G1 X2.0678
G3 X2.0659 Y0.5397 I0.0 J-0.0019
G0 Z0.125
G0 X2.2256 Y0.352
G0 Z0.0754
G1 F20.0 Z-0.0021
G3 F40.0 X2.2254 Y0.3518 I0.0012 J-0.0014
G1 X2.207 Y0.3315
G1 X2.1886 Y0.3112
G3 X2.1881 Y0.3099 I0.0014 J-0.0013
G1 Y0.2927
G1 Y0.2755
G3 X2.1888 Y0.2741 I0.0019 J0.0
G1 X2.2055 Y0.2603
G1 X2.2215 Y0.247
G1 Y0.2172
G1 Y0.1875
G1 X2.2055 Y0.1742
G1 X2.1888 Y0.1604
G3 X2.1881 Y0.159 I0.0012 J-0.0014
G1 Y0.1398
G1 Y0.1207
G3 X2.1887 Y0.1193 I0.0019 J0.0
G1 X2.2091 Y0.1009
G1 X2.2294 Y0.0825
G3 X2.2306 Y0.082 I0.0013 J0.0014
G1 X2.2475
G1 X2.2643
G3 X2.2657 Y0.0827 I0.0 J0.0019
G1 X2.2841 Y0.103
G1 X2.3025 Y0.1233
G3 X2.303 Y0.1246 I-0.0014 J0.0013
G1 Y0.1418
G1 Y0.159
G3 X2.3023 Y0.1604 I-0.0019 J0.0
G1 X2.2856 Y0.1742
G1 X2.2696 Y0.1875
G1 Y0.2172
G1 Y0.247
G1 X2.2856 Y0.2603
G1 X2.3023 Y0.2741
G3 X2.303 Y0.2755 I-0.0012 J0.0014
G1 Y0.2947
G1 Y0.3138
G3 X2.3024 Y0.3152 I-0.0019 J0.0
G1 X2.282 Y0.3336
G1 X2.2617 Y0.352
G3 X2.2605 Y0.3524 I-0.0013 J-0.0014
G1 X2.2436
G1 X2.2268
G3 X2.2256 Y0.352 I0.0 J-0.0019
G0 Z0.125
G0 X1.8583 Y0.1591
G0 Z0.0754
G1 F20.0 Z-0.0021
G3 F40.0 X1.8579 Y0.1596 I-0.0017 J-0.0009
G1 X1.8376 Y0.178
G3 X1.8 Y0.1969 I-0.0533 J-0.0595
G3 X1.7995 I-0.0004 J-0.0018
G3 X1.7687 Y0.1831 I0.0047 J-0.0516
G1 Y0.183
G1 X1.7567 Y0.171
G1 X1.7446 Y0.183
G3 Y0.1831 I-0.0013 J-0.0013
G3 X1.7118 Y0.1969 I-0.0367 J-0.0413
G3 X1.7117 I-0.0001 J-0.0019
G1 X1.6934
G3 X1.6921 Y0.1963 I0.0 J-0.0019
G1 X1.6719 Y0.1741
G1 X1.6524 Y0.1524
G1 X1.5497
G1 X1.448
G1 X1.4449 Y0.3145
G1 X1.4419 Y0.4784
G3 X1.44 Y0.4802 I-0.0019 J0.0
G1 X1.3789
G1 X1.3178
G3 X1.3159 Y0.4784 I0.0 J-0.0019
G1 Y0.4506
G1 Y0.4228
G3 X1.3176 Y0.4209 I0.0019 J0.0
G1 X1.3649 Y0.4175
G1 X1.4103 Y0.4142
G1 Y0.2666
G1 Y0.1172
G3 X1.4122 Y0.1154 I0.0019 J0.0
G1 X1.5386
G1 X1.6642
G1 X1.6774 Y0.0994
G1 X1.6913 Y0.0827
G3 X1.6927 Y0.082 I0.0014 J0.0012
G1 X1.7114
G3 X1.7115 Y0.0821 I0.0 J0.0019
G3 X1.7445 Y0.0958 I-0.0054 J0.0593
G3 X1.7446 Y0.0959 I-0.0012 J0.0014
G1 X1.7567 Y0.1079
G1 X1.7687 Y0.0959
G3 X1.7688 Y0.0958 I0.0013 J0.0013
G3 X1.8015 Y0.082 I0.0367 J0.0413
G3 X1.8016 I0.0001 J0.0019
G1 X1.8199
G3 X1.8213 Y0.0827 I0.0 J0.0019
G1 X1.8397 Y0.103
G1 X1.858 Y0.1233
G3 X1.8585 Y0.1246 I-0.0014 J0.0013
G1 Y0.1414
G1 Y0.1582
G3 X1.8583 Y0.1591 I-0.0019 J0.0
G0 Z0.125
G0 X1.5356 Y0.5404
G0 Z0.0754
G1 F20.0 Z-0.0021
G3 F40.0 X1.5363 Y0.5418 I-0.0012 J0.0014
G1 Y0.5974
G1 Y0.652
G1 X1.5634 Y0.6733
G1 X1.5911 Y0.6952
G3 X1.5919 Y0.6966 I-0.0012 J0.0015
G1 Y0.7158
G1 Y0.735
G3 X1.5913 Y0.7363 I-0.0019 J0.0
G1 X1.578 Y0.7497
G1 X1.566 Y0.7617
G1 X1.578 Y0.7737
G3 X1.5781 Y0.7738 I-0.0013 J0.0013
G3 X1.5919 Y0.8065 I-0.0413 J0.0367
G3 Y0.8066 I-0.0019 J0.0001
G1 Y0.8249
G3 X1.5912 Y0.8263 I-0.0019 J0.0
G1 X1.5709 Y0.8447
G1 X1.5506 Y0.8631
G3 X1.5494 Y0.8636 I-0.0013 J-0.0014
G1 X1.5325
G1 X1.5157
G3 X1.5143 Y0.8629 I0.0 J-0.0019
G1 X1.4959 Y0.8427
G3 X1.4771 Y0.8085 I0.0509 J-0.0504
G3 X1.477 Y0.808 I0.0018 J-0.0004
G1 Y0.7969
G1 X1.4645
G2 X1.4395 Y0.8082 I0.0039 J0.0422
G1 X1.4277 Y0.8199
G3 X1.4263 Y0.8205 I-0.0013 J-0.0013
G1 X1.372 Y0.817
G1 X1.3177 Y0.8136
G3 X1.3159 Y0.8117 I0.0001 J-0.0019
G1 Y0.7839
G1 Y0.7561
G3 X1.3178 Y0.7543 I0.0019 J0.0
G1 X1.4094 Y0.7567
G1 X1.4975 Y0.7591
G1 X1.4856 Y0.7401
G1 X1.472 Y0.7182
G3 Y0.7163 I0.0016 J-0.001
G1 X1.4857 Y0.6942
G1 X1.4992 Y0.6726
G1 Y0.623
G1 Y0.5747
G1 X1.4755
G1 X1.4508
G1 X1.4395 Y0.5859
G1 X1.4277 Y0.5977
G3 X1.4263 Y0.5982 I-0.0013 J-0.0013
G1 X1.3721 Y0.5948
G1 X1.3179 Y0.5913
G3 X1.3161 Y0.5898 I0.0001 J-0.0019
G1 X1.3122 Y0.5692
G1 X1.3083 Y0.5486
G3 X1.3088 Y0.5469 I0.0018 J-0.0003
G1 X1.32 Y0.5357
G1 X1.3312 Y0.5245
G3 X1.3327 Y0.524 I0.0013 J0.0013
G1 X1.4336 Y0.532
G1 X1.5346 Y0.54
G3 X1.5356 Y0.5404 I-0.0001 J0.0019
G0 Z0.125
G0 X1.2029 Y0.6523
G0 Z0.0754
G1 F20.0 Z-0.0021
G3 F40.0 X1.203 Y0.6529 I-0.0018 J0.0006
G1 Y1.924
G1 Y3.195
G3 X1.2011 Y3.1969 I-0.0019 J0.0
G1 X1.175
G1 X1.1498
G1 X1.1303 Y3.2185
G1 X1.1102 Y3.2407
G3 X1.1088 Y3.2413 I-0.0014 J-0.0013
G1 X1.09
G1 X1.0712
G3 X1.0698 Y3.2407 I0.0 J-0.0019
G1 X1.0497 Y3.2185
G1 X1.0302 Y3.1969
G1 X0.9678
G1 X0.9054
G1 X0.8858 Y3.2185
G1 X0.8657 Y3.2407
G3 X0.8643 Y3.2413 I-0.0014 J-0.0013
G1 X0.8455
G1 X0.8268
G3 X0.8254 Y3.2407 I0.0 J-0.0019
G1 X0.807 Y3.2204
G1 X0.7886 Y3.2001
G3 X0.7881 Y3.1988 I0.0014 J-0.0013
G1 Y3.182
G1 Y3.1651
G3 X0.7887 Y3.1637 I0.0019 J0.0
G1 X0.8091 Y3.1454
G1 X0.8294 Y3.127
G3 X0.8306 Y3.1265 I0.0013 J0.0014
G1 X0.8478
G1 X0.865
G3 X0.8665 Y3.1272 I0.0 J0.0019
G1 X0.8803 Y3.1438
G1 X0.8936 Y3.1598
G1 X0.9678
G1 X1.0419
G1 X1.0552 Y3.1438
G1 X1.0691 Y3.1272
G3 X1.0705 Y3.1265 I0.0014 J0.0012
G1 X1.09
G1 X1.1095
G3 X1.1109 Y3.1272 I0.0 J0.0019
G1 X1.1248 Y3.1438
G1 X1.138 Y3.1598
G1 X1.1525
G1 X1.1659
G1 Y3.0627
G1 Y2.9662
G1 X1.146 Y2.9714
G1 X1.1237 Y2.9772
G3 X1.122 Y2.9769 I-0.0005 J-0.0018
G1 X1.1063 Y2.9638
G1 X1.0916 Y2.9516
G1 X1.0696 Y2.9653
G1 X1.0465 Y2.9798
G3 X1.0445 I-0.001 J-0.0016
G1 X1.0258 Y2.968
G1 X1.0257
G3 X0.9948 Y2.937 I0.0712 J-0.1021
G1 Y2.9369
G1 X0.983 Y2.9182
G3 Y2.9162 I0.0016 J-0.001
G1 X0.9948 Y2.8975
G3 X1.0258 Y2.8665 I0.0938 J0.0628
G1 X1.0445 Y2.8547
G3 X1.0465 I0.001 J0.0016
G1 X1.0696 Y2.8692
G1 X1.0916 Y2.8829
G1 X1.1063 Y2.8707
G1 X1.122 Y2.8576
G3 X1.1237 Y2.8573 I0.0012 J0.0014
G1 X1.146 Y2.8631
G1 X1.1659 Y2.8683
G1 Y2.5551
G1 Y2.2413
G1 X1.1422
G1 X1.1174
G1 X1.1062 Y2.2526
G1 X1.0944 Y2.2644
G3 X1.093 Y2.2649 I-0.0013 J-0.0013
G1 X1.0386 Y2.2615
G1 X0.9843 Y2.258
G3 X0.9826 Y2.2561 I0.0001 J-0.0019
G1 Y2.2284
G1 Y2.2006
G3 X0.9845 Y2.1987 I0.0019 J0.0
G1 X1.0762 Y2.2012
G1 X1.1659 Y2.2036
G1 Y1.918
G1 Y1.6329
G1 X1.146 Y1.6381
G1 X1.1237 Y1.6439
G3 X1.122 Y1.6435 I-0.0005 J-0.0018
G1 X1.1063 Y1.6305
G1 X1.0916 Y1.6183
G1 X1.0696 Y1.632
G1 X1.0465 Y1.6464
G3 X1.0445 I-0.001 J-0.0016
G1 X1.0258 Y1.6347
G1 X1.0257 Y1.6346
G3 X0.9948 Y1.6037 I0.0712 J-0.1021
G1 Y1.6036
G1 X0.983 Y1.5849
G3 Y1.5829 I0.0016 J-0.001
G1 X0.9948 Y1.5642
G3 X1.0258 Y1.5332 I0.0938 J0.0628
G1 X1.0445 Y1.5214
G3 X1.0465 I0.001 J0.0016
G1 X1.0696 Y1.5358
G1 X1.0916 Y1.5496
G1 X1.1063 Y1.5374
G1 X1.122 Y1.5243
G3 X1.1237 Y1.5239 I0.0012 J0.0014
G1 X1.146 Y1.5298
G1 X1.1659 Y1.535
G1 Y1.4733
G1 Y1.4115
G1 X1.1424 Y1.416
G1 X1.1168 Y1.4209
G3 X1.115 Y1.4202 I-0.0004 J-0.0018
G1 X1.1004 Y1.4027
G1 X1.0864 Y1.3858
G1 X0.99
G1 X0.8936
G1 X0.8803 Y1.4018
G1 X0.8665 Y1.4184
G3 X0.865 Y1.4191 I-0.0014 J-0.0012
G1 X0.8455
G1 X0.826
G3 X0.8246 Y1.4184 I0.0 J-0.0019
G1 X0.8108 Y1.4018
G1 X0.7975 Y1.3858
G1 X0.5775
G1 X0.3585
G1 Y1.6839
G1 Y1.982
G1 X0.4344
G1 X0.5122
G3 X0.5141 Y1.9839 I0.0 J0.0019
G1 Y2.0285
G1 Y2.0726
G1 X0.5276 Y2.0942
G1 X0.5414 Y2.1163
G3 Y2.1183 I-0.0016 J0.001
G1 X0.5292 Y2.1377
G1 X0.5169 Y2.1571
G3 X0.5153 Y2.158 I-0.0016 J-0.001
G1 X0.49
G1 X0.4646
G3 X0.4631 Y2.1571 I0.0 J-0.0019
G1 X0.4508 Y2.1377
G1 X0.4386 Y2.1183
G3 Y2.1163 I0.0016 J-0.001
G1 X0.4524 Y2.0942
G2 X0.4659 Y2.0507 I-0.0849 J-0.0503
G1 Y2.0302
G1 X0.39
G1 X0.3122
G3 X0.3103 Y2.0284 I0.0 J-0.0019
G1 Y1.6839
G1 Y1.3395
G3 X0.3122 Y1.3376 I0.0019 J0.0
G1 X0.5553
G1 X0.7975
G1 X0.8108 Y1.3216
G1 X0.8246 Y1.3049
G3 X0.826 Y1.3043 I0.0014 J0.0012
G1 X0.8455
G1 X0.865
G3 X0.8665 Y1.3049 I0.0 J0.0019
G1 X0.8803 Y1.3216
G1 X0.8936 Y1.3376
G1 X0.99
G1 X1.0864
G1 X1.1004 Y1.3207
G1 X1.115 Y1.3032
G3 X1.1168 Y1.3025 I0.0014 J0.0012
G1 X1.1424 Y1.3074
G1 X1.1659 Y1.3119
G1 Y0.999
G1 Y0.6858
G1 X1.1422
G1 X1.1174
G1 X1.1062 Y0.697
G1 X1.0944 Y0.7088
G3 X1.093 Y0.7093 I-0.0013 J-0.0013
G1 X1.0387 Y0.7059
G1 X0.9845 Y0.7024
G3 X0.9828 Y0.7009 I0.0001 J-0.0019
G1 X0.9789 Y0.6803
G1 X0.975 Y0.6597
G3 X0.9755 Y0.658 I0.0018 J-0.0003
G1 X0.9867 Y0.6468
G1 X0.9978 Y0.6356
G3 X0.9993 Y0.6351 I0.0013 J0.0013
G1 X1.1003 Y0.6431
G1 X1.2013 Y0.6511
G3 X1.2029 Y0.6523 I-0.0001 J0.0019
G0 Z0.125
G0 X1.108 Y0.5905
G0 Z0.0754
G1 F20.0 Z-0.0021
G3 F40.0 X1.1066 Y0.5913 I-0.0016 J-0.001
G1 X1.0524 Y0.5948
G1 X0.9981 Y0.5982
G3 X0.9967 Y0.5977 I-0.0001 J-0.0019
G1 X0.9849 Y0.5859
G1 X0.9737 Y0.5747
G1 X0.9211
G1 X0.8696
G1 Y0.6214
G1 Y0.6692
G1 X0.8856 Y0.6825
G1 X0.9023 Y0.6963
G3 X0.903 Y0.6977 I-0.0012 J0.0014
G1 Y0.7164
G1 Y0.7165
G3 X0.8886 Y0.7504 I-0.052 J-0.002
G1 X0.8885
G1 X0.8779 Y0.7612
G1 X0.9899 Y0.7578
G1 X1.1066 Y0.7543
G3 X1.1085 Y0.7559 I0.0001 J0.0019
G1 X1.1118 Y0.7785
G1 X1.115 Y0.8012
G3 X1.1145 Y0.8028 I-0.0019 J0.0003
G1 X1.1066 Y0.8107
G1 X1.0987 Y0.8186
G3 X1.0974 Y0.8191 I-0.0013 J-0.0013
G1 X1.0444
G1 X0.9913
G3 X0.9897 Y0.8182 I0.0 J-0.0019
G1 X0.9828 Y0.8071
G1 X0.9765 Y0.7969
G1 X0.942
G1 X0.9076
G1 X0.8971 Y0.8199
G1 Y0.82
G3 X0.8661 Y0.8567 I-0.0916 J-0.0458
G3 X0.866 Y0.8568 I-0.0011 J-0.0015
G1 X0.8465 Y0.8687
G3 X0.8446 I-0.001 J-0.0016
G1 X0.8258 Y0.8569
G3 X0.7948 Y0.8259 I0.0628 J-0.0938
G1 X0.783 Y0.8072
G3 Y0.8052 I0.0016 J-0.001
G1 X0.7977 Y0.7817
G1 X0.8117 Y0.7593
G1 X0.8007 Y0.7484
G3 X0.8006 Y0.7483 I0.0013 J-0.0013
G3 X0.7881 Y0.7168 I0.0393 J-0.0338
G1 Y0.7167
G1 Y0.6985
G3 X0.7887 Y0.6971 I0.0019 J0.0
G1 X0.811 Y0.677
G1 X0.8326 Y0.6574
G1 Y0.6005
G1 Y0.5427
G3 X0.8343 Y0.5409 I0.0019 J0.0
G1 X0.9638 Y0.5331
G1 X1.0932 Y0.5254
G3 X1.0947 Y0.5259 I0.0001 J0.0019
G1 X1.1051 Y0.5364
G1 X1.1156 Y0.5469
G3 X1.1161 Y0.5486 I-0.0013 J0.0013
G1 X1.1122 Y0.5692
G1 X1.1083 Y0.5898
G3 X1.108 Y0.5905 I-0.0018 J-0.0003
G0 Z0.125
G0 X1.0925 Y0.482
G0 Z0.0754
G1 F20.0 Z-0.0021
G3 F40.0 X1.0328 Y0.4837 I-0.0375 J-0.262
G1 X0.9843 Y0.4802
G3 X0.9826 Y0.4784 I0.0001 J-0.0019
G1 Y0.4506
G1 Y0.4228
G3 X0.9842 Y0.421 I0.0019 J0.0
G1 X1.0092 Y0.4174
G1 X1.0326 Y0.4141
G1 Y0.2831
G1 Y0.1524
G1 X0.9139
G1 X0.7943
G1 X0.7747 Y0.1741
G1 X0.7546 Y0.1963
G3 X0.7532 Y0.1969 I-0.0014 J-0.0013
G1 X0.7349
G3 X0.7034 Y0.1844 I0.0018 J-0.0503
G3 X0.7033 Y0.1843 I0.0012 J-0.0014
G1 X0.6923 Y0.1734
G1 X0.67 Y0.1873
G1 X0.6465 Y0.202
G3 X0.6445 I-0.001 J-0.0016
G1 X0.6258 Y0.1902
G1 X0.6257
G3 X0.5948 Y0.1592 I0.0712 J-0.1021
G1 X0.583 Y0.1405
G3 Y0.1385 I0.0016 J-0.001
G1 X0.5948 Y0.1198
G1 Y0.1197
G3 X0.6258 Y0.0887 I0.0938 J0.0628
G1 X0.6445 Y0.0769
G3 X0.6465 I0.001 J0.0016
G1 X0.67 Y0.0917
G1 X0.6923 Y0.1056
G1 X0.7033 Y0.0946
G3 X0.7034 Y0.0945 I0.0013 J0.0013
G3 X0.7352 Y0.082 I0.0343 J0.0406
G1 X0.7353
G1 X0.7539
G3 X0.7554 Y0.0827 I0.0 J0.0019
G1 X0.7692 Y0.0994
G1 X0.7825 Y0.1154
G1 X0.9247
G1 X1.0678
G3 X1.0696 Y0.1172 I0.0 J0.0019
G1 Y0.266
G1 Y0.4132
G1 X1.0905 Y0.4187
G1 X1.1127 Y0.4245
G3 X1.1141 Y0.4263 I-0.0005 J0.0018
G1 Y0.4499
G1 Y0.4735
G3 X1.1129 Y0.4752 I-0.0019 J0.0
G1 X1.0975 Y0.4812
G3 X1.0971 Y0.4813 I-0.0007 J-0.0017
G3 X1.0925 Y0.482 I-0.0422 J-0.2613
G0 Z0.125
G0 X1.0961 Y0.9766
G0 Z0.0754
G1 F20.0 Z-0.0021
G1 F40.0 X1.1066 Y0.9765
G3 X1.1085 Y0.9781 I0.0 J0.0019
G1 X1.1118 Y1.0008
G1 X1.115 Y1.0235
G3 X1.1145 Y1.025 I-0.0019 J0.0003
G1 X1.1066 Y1.0329
G1 X1.0987 Y1.0408
G3 X1.0974 Y1.0413 I-0.0013 J-0.0013
G1 X1.0444
G1 X0.9913
G3 X0.9897 Y1.0405 I0.0 J-0.0019
G1 X0.9828 Y1.0293
G1 X0.9765 Y1.0191
G1 X0.8449
G1 X0.7141
G1 Y1.0326
G1 Y1.047
G1 X0.7301 Y1.0603
G1 X0.7467 Y1.0741
G3 X0.7474 Y1.0755 I-0.0012 J0.0014
G1 Y1.0947
G1 Y1.1138
G3 X0.7468 Y1.1152 I-0.0019 J0.0
G1 X0.7265 Y1.1336
G1 X0.7062 Y1.152
G3 X0.7049 Y1.1524 I-0.0013 J-0.0014
G1 X0.6881
G1 X0.6712
G3 X0.6698 Y1.1518 I0.0 J-0.0019
G1 X0.6497 Y1.1296
G1 X0.6302 Y1.108
G1 X0.5994
G1 X0.5678
G3 X0.5659 Y1.1061 I0.0 J-0.0019
G1 Y0.9395
G1 Y0.7747
G1 X0.4695
G1 X0.372
G1 X0.3525 Y0.7963
G1 X0.3324 Y0.8185
G3 X0.331 Y0.8191 I-0.0014 J-0.0013
G1 X0.3122
G1 X0.2934
G3 X0.2921 Y0.8185 I0.0 J-0.0019
G1 X0.2737 Y0.7982
G1 X0.2553 Y0.7779
G3 X0.2548 Y0.7766 I0.0014 J-0.0013
G1 Y0.7598
G1 Y0.7429
G3 X0.2554 Y0.7415 I0.0019 J0.0
G1 X0.2757 Y0.7231
G1 X0.296 Y0.7047
G3 X0.2973 Y0.7043 I0.0013 J0.0014
G1 X0.3145
G1 X0.3317
G3 X0.3332 Y0.7049 I0.0 J0.0019
G1 X0.347 Y0.7216
G1 X0.3603 Y0.7376
G1 X0.4802
G1 X0.6011
G3 X0.603 Y0.7395 I0.0 J0.0019
G1 Y0.9061
G1 Y1.0709
G1 X0.6216
G1 X0.6413
G1 X0.6591 Y1.0512
G1 X0.677 Y1.0314
G1 Y1.008
G1 Y0.9839
G3 X0.6789 Y0.982 I0.0019 J0.0
G1 X0.8344 Y0.9797
G1 X1.0483 Y0.9769
G1 X1.0961 Y0.9766
G0 Z0.125
G0 Y1.0876
G0 Z0.0754
G1 F20.0 Z-0.0021
G1 F40.0 X1.1067
G3 X1.1085 Y1.0892 I0.0 J0.0019
G1 X1.1121 Y1.1143
G1 X1.1156 Y1.1393
G3 X1.1144 Y1.1413 I-0.0019 J0.0003
G1 X1.0983 Y1.1475
G3 X1.098 Y1.1476 I-0.0007 J-0.0017
G3 X1.0328 Y1.1504 I-0.0417 J-0.2134
G1 X0.9843 Y1.1469
G3 X0.9826 Y1.145 I0.0001 J-0.0019
G1 Y1.1172
G1 Y1.0895
G3 X0.9844 Y1.0876 I0.0019 J0.0
G1 X1.0455
G1 X1.0961
G0 Z0.125
G0 X1.0973 Y1.1988
G0 Z0.0754
G1 F20.0 Z-0.0021
G1 F40.0 X1.1066 Y1.1987
G3 X1.1085 Y1.2003 I0.0 J0.0019
G1 X1.1121 Y1.2253
G1 X1.1156 Y1.2503
G3 X1.114 Y1.2524 I-0.0019 J0.0003
G1 X1.1049 Y1.2538
G3 X1.1047 Y1.2539 I-0.0003 J-0.0018
G1 X0.9165 Y1.2538
G1 X0.7284 Y1.2527
G1 X0.3622 Y1.2501
G1 X0.348 Y1.2673
G1 X0.3332 Y1.2851
G3 X0.3317 Y1.2858 I-0.0014 J-0.0012
G1 X0.3126
G1 X0.2934
G3 X0.2921 Y1.2852 I0.0 J-0.0019
G1 X0.2737 Y1.2648
G1 X0.2553 Y1.2445
G3 X0.2548 Y1.2433 I0.0014 J-0.0013
G1 Y1.2264
G1 Y1.2096
G3 X0.2554 Y1.2082 I0.0019 J0.0
G1 X0.2757 Y1.1898
G1 X0.296 Y1.1714
G3 X0.2973 Y1.1709 I0.0013 J0.0014
G1 X0.3145
G1 X0.3317
G3 X0.3332 Y1.1716 I0.0 J0.0019
G1 X0.348 Y1.1895
G1 X0.3622 Y1.2066
G1 X0.734 Y1.2027
G1 X1.0973 Y1.1988
G0 Z0.125
G0 X1.316 Y1.1455
G0 Z0.0754
G1 F20.0 Z-0.0021
G3 F40.0 X1.3159 Y1.145 I0.0018 J-0.0004
G1 Y1.1172
G1 Y1.0895
G3 X1.3178 Y1.0876 I0.0019 J0.0
G1 X1.3789
G1 X1.44
G3 X1.4418 Y1.0892 I0.0 J0.0019
G1 X1.4454 Y1.1143
G1 X1.449 Y1.1393
G3 X1.4478 Y1.1413 I-0.0019 J0.0003
G1 X1.4316 Y1.1475
G3 X1.4313 Y1.1476 I-0.0007 J-0.0017
G3 X1.3661 Y1.1504 I-0.0417 J-0.2139
G1 X1.3176 Y1.1469
G3 X1.316 Y1.1455 I0.0001 J-0.0019
G0 Z0.125
G0 X0.9581 Y1.4494
G0 Z0.0754
G1 F20.0 Z-0.0021
G3 F40.0 X0.9585 Y1.4506 I-0.0014 J0.0012
G1 Y1.5839
G1 Y1.7154
G1 X0.9886
G1 X1.0197
G1 X1.033 Y1.6994
G1 X1.0468 Y1.6827
G3 X1.0483 Y1.682 I0.0014 J0.0012
G1 X1.0674
G1 X1.0865
G3 X1.0879 Y1.6827 I0.0 J0.0019
G1 X1.1063 Y1.703
G1 X1.1247 Y1.7233
G3 X1.1252 Y1.7246 I-0.0014 J0.0013
G1 Y1.7418
G1 Y1.759
G3 X1.1245 Y1.7604 I-0.0019 J0.0
G1 X1.1079 Y1.7742
G1 X1.0919 Y1.7875
G1 Y1.8188
G1 Y1.8503
G1 X1.1044 Y1.8705
G1 X1.1173 Y1.8911
G3 X1.1175 Y1.8927 I-0.0016 J0.001
G1 X1.1103 Y1.9115
G1 X1.1031 Y1.9302
G3 X1.1012 Y1.9314 I-0.0017 J-0.0007
G1 X1.0428 Y1.928
G1 X0.9843 Y1.9247
G3 X0.9826 Y1.9228 I0.0001 J-0.0019
G1 Y1.895
G1 Y1.8672
G3 X0.9843 Y1.8654 I0.0019 J0.0
G1 X1.0204 Y1.8619
G1 X1.0548 Y1.8586
G1 Y1.8296
G1 Y1.7997
G1 X1.0297 Y1.7761
G1 X1.0045 Y1.7524
G1 X0.9643
G1 X0.9233
G3 X0.9215 Y1.7506 I0.0 J-0.0019
G1 Y1.6172
G1 Y1.4858
G1 X0.725
G1 X0.5276
G1 X0.508 Y1.5074
G1 X0.4879 Y1.5296
G3 X0.4865 Y1.5302 I-0.0014 J-0.0013
G1 X0.4678
G1 X0.449
G3 X0.4476 Y1.5296 I0.0 J-0.0019
G1 X0.4292 Y1.5093
G1 X0.4108 Y1.489
G3 X0.4103 Y1.4877 I0.0014 J-0.0013
G1 Y1.4709
G1 Y1.454
G3 X0.411 Y1.4526 I0.0019 J0.0
G1 X0.4313 Y1.4342
G1 X0.4516 Y1.4159
G3 X0.4529 Y1.4154 I0.0013 J0.0014
G1 X0.4701
G1 X0.4873
G3 X0.4887 Y1.4161 I0.0 J0.0019
G1 X0.5025 Y1.4327
G1 X0.5158 Y1.4487
G1 X0.7358
G1 X0.9567
G3 X0.9581 Y1.4494 I0.0 J0.0019
G0 Z0.125
G0 X0.8463 Y1.7155
G0 Z0.0754
G1 F20.0 Z-0.0021
G3 F40.0 X0.8474 Y1.7172 I-0.0007 J0.0017
G1 Y1.8312
G1 Y1.9442
G1 X0.8716 Y1.9602
G1 X0.8961 Y1.9765
G1 X1.0011
G1 X1.1067
G3 X1.1085 Y1.9781 I0.0 J0.0019
G1 X1.1119 Y2.002
G1 X1.1153 Y2.026
G3 X1.1145 Y2.0279 I-0.0019 J0.0003
G1 X1.102 Y2.0356
G1 X1.0895 Y2.0433
G3 X1.0883 Y2.0436 I-0.001 J-0.0016
G1 X0.9913 Y2.0359
G1 X0.8952 Y2.0283
G1 X0.8812 Y2.0452
G1 X0.8665 Y2.0629
G3 X0.865 Y2.0636 I-0.0014 J-0.0012
G1 X0.8455
G1 X0.826
G3 X0.8246 Y2.0629 I0.0 J-0.0019
G1 X0.8094 Y2.0445
G1 X0.7941 Y2.0261
G3 X0.7937 Y2.0249 I0.0014 J-0.0012
G1 X0.7976 Y1.8932
G1 X0.8015 Y1.7636
G1 X0.7259
G1 X0.6491
G1 X0.6359 Y1.7796
G1 X0.622 Y1.7962
G3 X0.6206 Y1.7969 I-0.0014 J-0.0012
G1 X0.6015
G1 X0.5823
G3 X0.5809 Y1.7963 I0.0 J-0.0019
G1 X0.5626 Y1.776
G1 X0.5442 Y1.7556
G3 X0.5437 Y1.7544 I0.0014 J-0.0013
G1 Y1.7375
G1 Y1.7207
G3 X0.5443 Y1.7193 I0.0019 J0.0
G1 X0.5646 Y1.7009
G1 X0.5849 Y1.6825
G3 X0.5862 Y1.682 I0.0013 J0.0014
G1 X0.6034
G1 X0.6206
G3 X0.622 Y1.6827 I0.0 J0.0019
G1 X0.6359 Y1.6994
G1 X0.6491 Y1.7154
G1 X0.7469
G1 X0.8455
G3 X0.8463 Y1.7155 I0.0 J0.0019
G0 Z0.125
G0 X0.7135 Y1.8493
G0 Z0.0754
G1 F20.0 Z-0.0021
G3 F40.0 X0.7141 Y1.8506 I-0.0013 J0.0013
G1 Y1.9743
G1 Y2.0961
G1 X0.9094 Y2.0919
G1 X1.1066 Y2.0876
G3 X1.1085 Y2.0892 I0.0 J0.0019
G1 X1.1118 Y2.1119
G1 X1.115 Y2.1346
G3 X1.1145 Y2.1361 I-0.0019 J0.0003
G1 X1.1066 Y2.144
G1 X1.0987 Y2.1519
G3 X1.0974 Y2.1524 I-0.0013 J-0.0013
G1 X1.0444
G1 X0.9913
G3 X0.9897 Y2.1516 I0.0 J-0.0019
G1 X0.9828 Y2.1405
G1 X0.9765 Y2.1302
G1 X0.8282
G1 X0.6789
G3 X0.677 Y2.1284 I0.0 J-0.0019
G1 Y2.0061
G1 Y1.8858
G1 X0.6473
G1 X0.6165
G1 X0.5969 Y1.9074
G1 X0.5768 Y1.9296
G3 X0.5754 Y1.9302 I-0.0014 J-0.0013
G1 X0.5567
G1 X0.5379
G3 X0.5365 Y1.9296 I0.0 J-0.0019
G1 X0.5164 Y1.9074
G1 X0.4968 Y1.8858
G1 X0.466
G1 X0.4344
G3 X0.4326 Y1.8839 I0.0 J-0.0019
G1 Y1.7228
G1 Y1.5617
G3 X0.4344 Y1.5598 I0.0019 J0.0
G1 X0.4942
G1 X0.5531
G1 X0.5663 Y1.5438
G1 X0.5802 Y1.5272
G3 X0.5816 Y1.5265 I0.0014 J0.0012
G1 X0.6007
G1 X0.6199
G3 X0.6213 Y1.5271 I0.0 J0.0019
G1 X0.6397 Y1.5474
G1 X0.658 Y1.5677
G3 X0.6585 Y1.569 I-0.0014 J0.0013
G1 Y1.5858
G1 Y1.6027
G3 X0.6579 Y1.6041 I-0.0019 J0.0
G1 X0.6376 Y1.6225
G1 X0.6173 Y1.6409
G3 X0.616 Y1.6413 I-0.0013 J-0.0014
G1 X0.5992
G1 X0.5823
G3 X0.5809 Y1.6407 I0.0 J-0.0019
G1 X0.5608 Y1.6185
G1 X0.5413 Y1.5969
G1 X0.5049
G1 X0.4696
G1 Y1.7228
G1 Y1.8487
G1 X0.4886
G1 X0.5086
G1 X0.5219 Y1.8327
G1 X0.5357 Y1.8161
G3 X0.5372 Y1.8154 I0.0014 J0.0012
G1 X0.5567
G1 X0.5762
G3 X0.5776 Y1.8161 I0.0 J0.0019
G1 X0.5914 Y1.8327
G1 X0.6047 Y1.8487
G1 X0.658
G1 X0.7122
G3 X0.7135 Y1.8493 I0.0 J0.0019
G0 Z0.125
G0 X0.3834 Y2.1438
G0 Z0.0754
G1 F20.0 Z-0.0021
G2 F40.0 X0.382 Y2.1432 I-0.0014 J0.0012
G1 X0.3567
G1 X0.3313
G2 X0.3297 Y2.144 I0.0 J0.0019
G1 X0.3175 Y2.1634
G1 X0.3052 Y2.1828
G2 Y2.1848 I0.0016 J0.001
G1 X0.319 Y2.2069
G1 X0.3326 Y2.2286
G1 Y2.6393
G1 Y3.0506
G2 X0.3344 Y3.0524 I0.0019 J0.0
G1 X0.6455
G1 X0.9567
G2 X0.9585 Y3.0506 I0.0 J-0.0019
G1 Y2.9172
G1 Y2.7858
G1 X0.9775
G1 X0.9975
G1 X1.0108 Y2.8018
G1 X1.0246 Y2.8184
G2 X1.026 Y2.8191 I0.0014 J-0.0012
G1 X1.0433
G1 X1.0605
G2 X1.0617 Y2.8186 I0.0 J-0.0019
G1 X1.082 Y2.8002
G1 X1.1024 Y2.7819
G2 X1.103 Y2.7805 I-0.0013 J-0.0014
G1 Y2.7613
G1 Y2.7422
G2 X1.1023 Y2.7408 I-0.0019 J0.0
G1 X1.0856 Y2.7269
G1 X1.0696 Y2.7136
G1 Y2.6561
G1 Y2.5991
G1 X1.0913 Y2.5934
G1 X1.1144 Y2.5873
G2 X1.1158 Y2.5853 I-0.0005 J-0.0018
G1 X1.1122 Y2.5595
G1 X1.1085 Y2.5337
G2 X1.1066 Y2.532 I-0.0019 J0.0003
G1 X1.0 Y2.5352
G1 X0.8943 Y2.5384
G1 X0.8807 Y2.522
G1 X0.8665 Y2.5049
G2 X0.865 Y2.5043 I-0.0014 J0.0012
G1 X0.8478
G1 X0.8306
G2 X0.8294 Y2.5047 I0.0 J0.0019
G1 X0.8091 Y2.5231
G1 X0.7887 Y2.5415
G2 X0.7881 Y2.5429 I0.0013 J0.0014
G1 Y2.5598
G1 Y2.5766
G2 X0.7886 Y2.5779 I0.0019 J0.0
G1 X0.807 Y2.5982
G1 X0.8254 Y2.6185
G2 X0.8268 Y2.6191 I0.0014 J-0.0013
G1 X0.8459
G1 X0.865
G2 X0.8665 Y2.6184 I0.0 J-0.0019
G1 X0.8803 Y2.6018
G1 X0.8936 Y2.5858
G1 X0.933 Y2.5859
G1 X0.9331
G3 X0.9979 Y2.5927 I0.0047 J0.2681
G1 X1.0215 Y2.5991
G1 Y2.6552
G1 Y2.712
G1 X1.0087 Y2.7248
G1 X0.9959 Y2.7376
G1 X0.9544
G1 X0.9122
G2 X0.9103 Y2.7395 I0.0 J0.0019
G1 Y2.8728
G1 Y3.0043
G1 X0.6455
G1 X0.3808
G1 Y2.6171
G1 Y2.2286
G1 X0.3943 Y2.2069
G1 X0.4081 Y2.1848
G2 Y2.1828 I-0.0016 J-0.001
G1 X0.3958 Y2.1634
G1 X0.3836 Y2.144
G2 X0.3834 Y2.1438 I-0.0016 J0.001
G0 Z0.125
G0 X0.275 Y2.1178
G0 Z0.0754
G1 F20.0 Z-0.0021
G3 F40.0 X0.2747 Y2.1183 I-0.0018 J-0.0004
G1 X0.2626 Y2.1377
G1 X0.2504 Y2.1571
G3 X0.2491 Y2.158 I-0.0016 J-0.001
G1 X0.2271 Y2.1613
G1 X0.205 Y2.1646
G3 X0.2033 Y2.164 I-0.0003 J-0.0018
G1 X0.189 Y2.1468
G1 Y2.1467
G2 X0.1661 Y2.1302 I-0.0391 J0.0301
G1 X0.1585
G1 Y2.4546
G1 Y2.7799
G1 X0.2022 Y2.8102
G1 X0.2466 Y2.841
G3 X0.2474 Y2.8425 I-0.0011 J0.0015
G1 Y2.9674
G1 Y3.0914
G1 X0.2634 Y3.1047
G1 X0.2801 Y3.1185
G3 X0.2808 Y3.12 I-0.0012 J0.0014
G1 Y3.1391
G1 Y3.1582
G3 X0.2801 Y3.1596 I-0.0019 J0.0
G1 X0.2598 Y3.178
G1 X0.2395 Y3.1964
G3 X0.2382 Y3.1969 I-0.0013 J-0.0014
G1 X0.2214
G1 X0.2045
G3 X0.2032 Y3.1963 I0.0 J-0.0019
G1 X0.1848 Y3.176
G1 X0.1664 Y3.1556
G3 X0.1659 Y3.1544 I0.0014 J-0.0013
G1 Y3.1375
G1 Y3.1207
G3 X0.1665 Y3.1193 I0.0019 J0.0
G1 X0.1887 Y3.0992
G1 X0.2103 Y3.0796
G1 Y2.9781
G1 Y2.8768
G1 X0.1667 Y2.8466
G1 X0.1223 Y2.8158
G3 X0.1215 Y2.8142 I0.0011 J-0.0015
G1 Y2.4553
G1 Y2.0964
G3 X0.1231 Y2.0946 I0.0019 J0.0
G1 X0.1593 Y2.0911
G1 X0.1937 Y2.0878
G1 X0.1968 Y1.8617
G1 X0.1998 Y1.6344
G1 X0.1864 Y1.6091
G1 X0.1727 Y1.5833
G3 X0.1728 Y1.5815 I0.0017 J-0.0009
G1 X0.1846 Y1.5627
G1 X0.1964 Y1.544
G3 X0.198 Y1.5432 I0.0016 J0.001
G1 X0.2233
G1 X0.2487
G3 X0.2503 Y1.544 I0.0 J0.0019
G1 X0.2625 Y1.5634
G1 X0.2747 Y1.5828
G3 Y1.5848 I-0.0016 J0.001
G1 X0.2609 Y1.6069
G1 X0.2474 Y1.6286
G1 Y1.8506
G1 Y2.0726
G1 X0.2609 Y2.0942
G1 X0.2747 Y2.1163
G3 X0.275 Y2.1178 I-0.0016 J0.001
G0 Z0.125
G0 X0.2458 Y2.3211
G0 Z0.0754
G1 F20.0 Z-0.0021
G3 F40.0 X0.2465 Y2.3213 I-0.0003 J0.0019
G1 X0.2652 Y2.3331
G1 X0.2653 Y2.3332
G3 X0.2963 Y2.3641 I-0.0628 J0.0938
G1 Y2.3642
G1 X0.3081 Y2.3828
G3 Y2.3848 I-0.0016 J0.001
G1 X0.2934 Y2.4084
G1 X0.2794 Y2.4307
G1 X0.2904 Y2.4417
G3 X0.2905 Y2.4418 I-0.0013 J0.0013
G3 X0.303 Y2.4732 I-0.0393 J0.0338
G1 Y2.4733
G1 Y2.4916
G3 X0.3024 Y2.493 I-0.0019 J0.0
G1 X0.282 Y2.5114
G1 X0.2617 Y2.5297
G3 X0.2605 Y2.5302 I-0.0013 J-0.0014
G1 X0.2436
G1 X0.2268
G3 X0.2254 Y2.5296 I0.0 J-0.0019
G1 X0.207 Y2.5093
G3 X0.1882 Y2.4717 I0.0594 J-0.0533
G3 X0.1881 Y2.4712 I0.0018 J-0.0004
G3 X0.2006 Y2.4418 I0.0498 J0.0037
G3 X0.2007 Y2.4417 I0.0014 J0.0012
G1 X0.2117 Y2.4307
G1 X0.1977 Y2.4084
G1 X0.183 Y2.3848
G3 Y2.3828 I0.0016 J-0.001
G1 X0.1948 Y2.3642
G1 Y2.3641
G3 X0.2258 Y2.3332 I0.1021 J0.0712
G1 Y2.3331
G1 X0.2446 Y2.3213
G3 X0.2458 Y2.3211 I0.001 J0.0016
G0 Z0.125
G0 X0.4437
G0 Z0.0754
G1 F20.0 Z-0.0021
G1 F40.0 Y2.3172
G3 X0.4455 Y2.3154 I0.0019 J0.0
G1 X0.7178 Y2.313
G1 X0.8004 Y2.3123
G3 X0.8625 Y2.3118 I0.0358 J0.5607
G1 X0.9554 Y2.311
G3 X1.0019 Y2.3106 I0.0289 J0.678
G3 X1.0251 Y2.3104 I0.0139 J0.2744
G3 X1.0484 Y2.3102 I0.0127 J0.1306
G1 X1.1066 Y2.3098
G3 X1.1085 Y2.3114 I0.0 J0.0019
G1 X1.1121 Y2.3364
G1 X1.1156 Y2.3614
G3 X1.1141 Y2.3635 I-0.0019 J0.0003
G1 X1.105 Y2.3652
G3 X1.1047 I-0.0003 J-0.0018
G1 X0.9487 Y2.3651
G3 X0.7927 Y2.3639 I0.037 J-13.8756
G1 X0.4919 Y2.3609
G1 Y2.6103
G1 Y2.8598
G1 X0.51
G3 X0.5432 Y2.8723 I-0.0008 J0.0525
G3 X0.5433 Y2.8724 I-0.0012 J0.0014
G1 X0.5543 Y2.8834
G1 X0.5766 Y2.8694
G1 X0.6002 Y2.8547
G3 X0.6022 I0.001 J0.0016
G1 X0.6208 Y2.8665
G1 X0.6209
G3 X0.6518 Y2.8975 I-0.0712 J0.1021
G1 X0.6519
G1 X0.6637 Y2.9162
G3 Y2.9182 I-0.0016 J0.001
G1 X0.6519 Y2.9369
G1 Y2.937
G3 X0.6209 Y2.968 I-0.0938 J-0.0628
G1 X0.6208
G1 X0.6022 Y2.9798
G3 X0.6002 I-0.001 J-0.0016
G1 X0.5766 Y2.9651
G1 X0.5543 Y2.9511
G1 X0.5433 Y2.9621
G3 X0.5432 Y2.9622 I-0.0013 J-0.0013
G3 X0.5129 Y2.9743 I-0.0339 J-0.041
G3 X0.5124 I-0.0001 J-0.0019
G3 X0.4693 Y2.9526 I0.0171 J-0.0878
G1 X0.4444 Y2.9318
G3 X0.4437 Y2.9304 I0.0012 J-0.0014
G1 Y2.6238
G1 Y2.3211
G0 Z0.125
G0 X0.6329 Y2.4522
G0 Z0.0754
G1 F20.0 Z-0.0021
G3 F40.0 X0.6332 Y2.4519 I0.0015 J0.0011
G1 X0.6492 Y2.4386
G1 X0.6651 Y2.4254
G3 X0.6663 Y2.425 I0.0012 J0.0014
G1 X0.8865 Y2.4229
G1 X1.1066 Y2.4209
G3 X1.1085 Y2.4225 I0.0 J0.0019
G1 X1.1118 Y2.4452
G1 X1.115 Y2.4679
G3 X1.1145 Y2.4695 I-0.0019 J0.0003
G1 X1.1066 Y2.4774
G1 X1.0987 Y2.4852
G3 X1.0974 Y2.4858 I-0.0013 J-0.0013
G1 X1.0444
G1 X0.9913
G3 X0.9897 Y2.4849 I0.0 J-0.0019
G1 X0.9828 Y2.4738
G1 X0.9765 Y2.4636
G1 X0.8616
G1 X0.7474
G1 Y2.477
G1 Y2.4923
G3 X0.7467 Y2.4937 I-0.0019 J0.0
G1 X0.7301 Y2.5076
G1 X0.7141 Y2.5208
G1 Y2.5506
G1 Y2.5803
G1 X0.7301 Y2.5936
G1 X0.7467 Y2.6074
G3 X0.7474 Y2.6089 I-0.0012 J0.0014
G1 Y2.6284
G1 Y2.6479
G3 X0.7467 Y2.6493 I-0.0019 J0.0
G1 X0.7301 Y2.6631
G1 X0.7141 Y2.6764
G1 Y2.7297
G1 Y2.7839
G3 X0.7122 Y2.7858 I-0.0019 J0.0
G1 X0.6802
G1 X0.6491
G1 X0.6359 Y2.8018
G1 X0.622 Y2.8184
G3 X0.6206 Y2.8191 I-0.0014 J-0.0012
G1 X0.6015
G1 X0.5823
G3 X0.5809 Y2.8185 I0.0 J-0.0019
G1 X0.5626 Y2.7982
G1 X0.5442 Y2.7779
G3 X0.5437 Y2.7766 I0.0014 J-0.0013
G1 Y2.7598
G1 Y2.7429
G3 X0.5443 Y2.7415 I0.0019 J0.0
G1 X0.5646 Y2.7231
G1 X0.5849 Y2.7047
G3 X0.5862 Y2.7043 I0.0013 J0.0014
G1 X0.6034
G1 X0.6206
G3 X0.622 Y2.7049 I0.0 J0.0019
G1 X0.6359 Y2.7216
G3 X0.636 Y2.7217 I-0.0014 J0.0012
G2 X0.6583 Y2.7376 I0.0343 J-0.0245
G1 X0.6659
G1 Y2.7075
G1 Y2.6764
G1 X0.6499 Y2.6631
G1 X0.6332 Y2.6493
G3 X0.6326 Y2.6479 I0.0012 J-0.0014
G1 Y2.6284
G1 Y2.6089
G3 X0.6332 Y2.6074 I0.0019 J0.0
G1 X0.6499 Y2.5936
G1 X0.6659 Y2.5803
G1 Y2.5506
G1 Y2.5208
G1 X0.6499 Y2.5076
G1 X0.6332 Y2.4937
G3 X0.6326 Y2.4923 I0.0012 J-0.0014
G1 Y2.4728
G1 Y2.4533
G3 X0.6329 Y2.4522 I0.0019 J0.0
G0 Z0.125
G0 X0.3081 Y2.6274
G0 Z0.0754
G1 F20.0 Z-0.0021
G3 F40.0 Y2.6293 I-0.0016 J0.0009
G1 X0.2934 Y2.6528
G1 X0.2794 Y2.6752
G1 X0.2904 Y2.6861
G3 X0.2905 Y2.6862 I-0.0013 J0.0013
G3 X0.303 Y2.7177 I-0.0393 J0.0338
G1 Y2.736
G3 X0.3024 Y2.7374 I-0.0019 J0.0
G1 X0.282 Y2.7558
G1 X0.2617 Y2.7742
G3 X0.2605 Y2.7747 I-0.0013 J-0.0014
G1 X0.2436
G1 X0.2268
G3 X0.2254 Y2.7741 I0.0 J-0.0019
G1 X0.207 Y2.7537
G3 X0.1882 Y2.7162 I0.0595 J-0.0533
G3 X0.1881 Y2.7157 I0.0018 J-0.0004
G3 X0.2006 Y2.6862 I0.0498 J0.0037
G3 X0.2007 Y2.6861 I0.0014 J0.0012
G1 X0.2117 Y2.6752
G1 X0.1977 Y2.6528
G1 X0.183 Y2.6293
G3 Y2.6273 I0.0016 J-0.001
G1 X0.1948 Y2.6086
G1 Y2.6085
G3 X0.2258 Y2.5776 I0.1021 J0.0712
G1 X0.2446 Y2.5658
G3 X0.2465 I0.001 J0.0016
G1 X0.2652 Y2.5776
G1 X0.2653
G3 X0.2963 Y2.6086 I-0.0628 J0.0938
G1 X0.3081 Y2.6273
G3 Y2.6274 I-0.0016 J0.001
G0 Z0.125
G0 X0.1469 Y1.4765
G0 Z0.0754
G1 F20.0 Z-0.0021
G3 F40.0 X0.1463 I-0.0003 J-0.0019
G1 X0.1275 Y1.4728
G1 X0.1087 Y1.4691
G3 X0.1075 Y1.4682 I0.0004 J-0.0018
G1 X0.0962 Y1.4503
G1 X0.0849 Y1.4324
G3 X0.0847 Y1.4306 I0.0016 J-0.001
G1 X0.0938 Y1.4097
G2 X0.1001 Y1.3693 I-0.0749 J-0.0324
G1 X0.0975 Y1.3489
G3 X0.098 Y1.3474 I0.0019 J-0.0002
G1 X0.1172 Y1.3261
G1 X0.1365 Y1.3049
G3 X0.1379 Y1.3043 I0.0014 J0.0013
G1 X0.1567
G1 X0.1754
G3 X0.1768 Y1.3049 I0.0 J0.0019
G1 X0.1952 Y1.3252
G1 X0.2136 Y1.3455
G3 X0.2141 Y1.3468 I-0.0014 J0.0013
G1 Y1.364
G1 Y1.3812
G3 X0.2134 Y1.3826 I-0.0019 J0.0
G1 X0.1967 Y1.3965
G1 X0.1808 Y1.4097
G1 Y1.4284
G1 Y1.4479
G3 X0.1801 Y1.4493 I-0.0019 J0.0
G1 X0.1639 Y1.4627
G1 X0.1478 Y1.4761
G3 X0.1469 Y1.4765 I-0.0012 J-0.0014
G0 Z0.125
G0 X0.2927 Y1.1301
G0 Z0.0754
G1 F20.0 Z-0.0021
G3 F40.0 X0.2921 Y1.1296 I0.0007 J-0.0017
G1 X0.2737 Y1.1093
G1 X0.2553 Y1.089
G3 X0.2548 Y1.0877 I0.0014 J-0.0013
G1 Y1.0709
G1 Y1.054
G3 X0.2554 Y1.0526 I0.0019 J0.0
G1 X0.2757 Y1.0342
G1 X0.296 Y1.0159
G3 X0.2973 Y1.0154 I0.0013 J0.0014
G1 X0.3145
G1 X0.3317
G3 X0.3332 Y1.0161 I0.0 J0.0019
G1 X0.347 Y1.0327
G1 X0.3603 Y1.0487
G1 X0.3858
G1 X0.4103
G1 Y0.9808
G1 Y0.9111
G3 X0.4107 Y0.91 I0.0019 J0.0
G1 X0.428 Y0.8853
G1 X0.4453 Y0.8606
G3 X0.4468 Y0.8598 I0.0015 J0.0011
G1 X0.4717
G1 X0.4967
G3 X0.498 Y0.8604 I0.0 J0.0019
G1 X0.5113 Y0.8737
G1 X0.5246 Y0.887
G3 X0.5252 Y0.8884 I-0.0013 J0.0013
G1 Y0.9975
G1 Y1.1066
G3 X0.5241 Y1.1083 I-0.0019 J0.0
G1 X0.4968 Y1.1208
G1 X0.4695 Y1.1332
G3 X0.4677 Y1.1331 I-0.0008 J-0.0017
G1 X0.4398 Y1.1148
G1 X0.4124 Y1.0969
G1 X0.3862
G1 X0.3603
G1 X0.347 Y1.1129
G1 X0.3332 Y1.1296
G3 X0.3317 Y1.1302 I-0.0014 J-0.0012
G1 X0.3126
G1 X0.2934
G3 X0.2927 Y1.1301 I0.0 J-0.0019
G0 Z0.125
G0 Y0.9747
G0 Z0.0754
G1 F20.0 Z-0.0021
G3 F40.0 X0.2913 Y0.974 I0.0 J-0.0019
G1 X0.2774 Y0.9573
G1 X0.2642 Y0.9413
G1 X0.2344
G1 X0.2047
G1 X0.1914 Y0.9573
G1 X0.1776 Y0.974
G3 X0.1762 Y0.9747 I-0.0014 J-0.0012
G1 X0.157
G1 X0.1379
G3 X0.1365 Y0.9741 I0.0 J-0.0019
G1 X0.1181 Y0.9537
G1 X0.0997 Y0.9334
G3 X0.0992 Y0.9322 I0.0014 J-0.0013
G1 Y0.9153
G1 Y0.8985
G3 X0.0998 Y0.8971 I0.0019 J0.0
G1 X0.1202 Y0.8787
G1 X0.1405 Y0.8603
G3 X0.1417 Y0.8598 I0.0013 J0.0014
G1 X0.159
G1 X0.1762
G3 X0.1776 Y0.8605 I0.0 J0.0019
G1 X0.1914 Y0.8772
G1 X0.2047 Y0.8932
G1 X0.2344
G1 X0.2642
G1 X0.2774 Y0.8772
G1 X0.2913 Y0.8605
G3 X0.2927 Y0.8598 I0.0014 J0.0012
G1 X0.3119
G1 X0.331
G3 X0.3324 Y0.8604 I0.0 J0.0019
G1 X0.3508 Y0.8808
G1 X0.3692 Y0.9011
G3 X0.3696 Y0.9023 I-0.0014 J0.0013
G1 Y0.9192
G1 Y0.936
G3 X0.369 Y0.9374 I-0.0019 J0.0
G1 X0.3487 Y0.9558
G1 X0.3284 Y0.9742
G3 X0.3271 Y0.9747 I-0.0013 J-0.0014
G1 X0.3099
G1 X0.2927
G0 Z0.125
G0 Y0.5413
G0 Z0.0754
G1 F20.0 Z-0.0021
G1 F40.0 X0.2358
G1 X0.138
G1 X0.1248 Y0.5573
G1 X0.1109 Y0.574
G3 X0.1095 Y0.5747 I-0.0014 J-0.0012
G1 X0.0904
G1 X0.0712
G3 X0.0698 Y0.5741 I0.0 J-0.0019
G1 X0.0514 Y0.5537
G1 X0.0331 Y0.5334
G3 X0.0326 Y0.5322 I0.0014 J-0.0013
G1 Y0.5153
G1 Y0.4985
G3 X0.0332 Y0.4971 I0.0019 J0.0
G1 X0.0535 Y0.4787
G1 X0.0738 Y0.4603
G3 X0.0751 Y0.4598 I0.0013 J0.0014
G1 X0.0923
G1 X0.1095
G3 X0.1109 Y0.4605 I0.0 J0.0019
G1 X0.1248 Y0.4772
G1 X0.138 Y0.4932
G1 X0.2136
G1 X0.2881
G1 Y0.4297
G1 Y0.3653
G1 X0.2721 Y0.352
G1 X0.2555 Y0.3382
G3 X0.2548 Y0.3367 I0.0012 J-0.0014
G1 Y0.3176
G1 Y0.2985
G3 X0.2554 Y0.2971 I0.0019 J0.0
G1 X0.2757 Y0.2787
G1 X0.296 Y0.2603
G3 X0.2973 Y0.2598 I0.0013 J0.0014
G1 X0.3141
G1 X0.331
G3 X0.3324 Y0.2604 I0.0 J0.0019
G1 X0.3508 Y0.2808
G1 X0.3692 Y0.3011
G3 X0.3696 Y0.3023 I-0.0014 J0.0013
G1 Y0.3195
G1 Y0.3367
G3 X0.369 Y0.3382 I-0.0019 J0.0
G1 X0.3523 Y0.352
G1 X0.3363 Y0.3653
G1 Y0.4519
G1 Y0.5395
G3 X0.3344 Y0.5413 I-0.0019 J0.0
G1 X0.2927
G0 Z0.125
G0 X0.205 Y0.1961
G0 Z0.0754
G1 F20.0 Z-0.0021
G3 F40.0 X0.2015 Y0.1969 I-0.0181 J-0.0712
G3 X0.2007 I-0.0004 J-0.0018
G3 X0.1646 Y0.178 I0.0149 J-0.0726
G1 X0.1455 Y0.1608
G1 X0.1265 Y0.178
G1 X0.1062 Y0.1964
G3 X0.1049 Y0.1969 I-0.0013 J-0.0014
G1 X0.0881
G1 X0.0712
G3 X0.0698 Y0.1963 I0.0 J-0.0019
G1 X0.0514 Y0.176
G1 X0.0331 Y0.1556
G3 X0.0326 Y0.1544 I0.0014 J-0.0013
G1 Y0.1375
G1 Y0.1207
G3 X0.0332 Y0.1193 I0.0019 J0.0
G1 X0.0535 Y0.1009
G3 X0.0896 Y0.0821 I0.0507 J0.0531
G3 X0.0904 I0.0004 J0.0018
G3 X0.1265 Y0.1009 I-0.0148 J0.0725
G1 X0.1455 Y0.1182
G1 X0.1646 Y0.1009
G1 X0.1849 Y0.0825
G3 X0.1862 Y0.082 I0.0013 J0.0014
G1 X0.203
G1 X0.2199
G3 X0.2213 Y0.0827 I0.0 J0.0019
G1 X0.2397 Y0.103
G1 X0.258 Y0.1233
G3 X0.2585 Y0.1246 I-0.0014 J0.0013
G1 Y0.1414
G1 Y0.1582
G3 X0.2579 Y0.1596 I-0.0019 J0.0
G1 X0.2376 Y0.178
G3 X0.205 Y0.1961 I-0.0507 J-0.0532
G0 Z0.125
G0 X2.1661 Y1.3198
G0 Z0.0754
G1 F20.0 Z-0.0021
G3 F40.0 X2.1665 Y1.3193 I0.0016 J0.0009
G1 X2.1868 Y1.3009
G1 X2.2072 Y1.2825
G3 X2.2084 Y1.282 I0.0013 J0.0014
G1 X2.2253
G1 X2.2421
G3 X2.2435 Y1.2827 I0.0 J0.0019
G1 X2.2629 Y1.3041
G1 X2.2824 Y1.3256
G3 X2.2828 Y1.3273 I-0.0014 J0.0013
G1 X2.2755 Y1.3603
G1 X2.2686 Y1.392
G1 X2.2792 Y1.3986
G1 X2.291 Y1.4059
G3 X2.2919 Y1.4074 I-0.001 J0.0016
G1 Y1.4268
G1 Y1.4461
G3 X2.2913 Y1.4475 I-0.0019 J0.0
G1 X2.278 Y1.4608
G3 X2.2447 Y1.4747 I-0.0345 J-0.036
G1 X2.226
G3 X2.2246 Y1.474 I0.0 J-0.0019
G1 X2.2108 Y1.4574
G1 X2.197 Y1.4408
G3 X2.1967 Y1.4391 I0.0014 J-0.0012
G1 X2.2023 Y1.4175
G1 X2.2077 Y1.3969
G1 X2.1875 Y1.3787
G1 X2.1665 Y1.3596
G3 X2.1659 Y1.3582 I0.0013 J-0.0014
G1 Y1.3395
G1 Y1.3207
G3 X2.1661 Y1.3198 I0.0019 J0.0
G0 Z0.125
M5
M30
