( Made using CamBam - http://www.cambam.co.uk )
( mfos_dual_vca_2 11/22/2014 11:55:05 AM )
( T1 : 0.04 )
( T2 : 0.031 )
G20 G90 G64 G40
G0 Z0.125
( T1 : 0.04 )
T1 M6
( Drill1 )
G17
M3 S1000
G0 X0.0882 Y0.1378
G98
G81 X0.0882 Y0.1378 Z-0.07 R0.125 F20.0
G81 X0.0911 Y0.5164 Z-0.07
G81 X0.3131 Y0.9178 Z-0.07
G81 Y1.0744 Z-0.07
G81 Y1.2282 Z-0.07
G81 X0.2477 Y2.384 Z-0.07
G81 X0.2448 Y2.72 Z-0.07
G81 X1.0903 Y3.184 Z-0.07
G81 X1.3323 Z-0.07
G81 X1.8676 Y3.4516 Z-0.07
G81 X2.0868 Z-0.07
G81 X2.1523 Y2.72 Z-0.07
G81 X2.1551 Y2.3812 Z-0.07
G81 X2.0896 Y1.2282 Z-0.07
G81 Y1.0744 Z-0.07
G81 Y0.9178 Z-0.07
G81 X2.2462 Y0.5164 Z-0.07
G81 Y0.2944 Z-0.07
G80
( Drill2 )
G0 Z0.125
( T2 : 0.031 )
T2 M6
M3 S1000
G0 X1.58 Y2.9193
G98
G81 X1.58 Y2.9193 Z-0.07 R0.125 F20.0
G81 X1.7167 Z-0.07
G81 X1.822 Y2.7627 Z-0.07
G81 X1.711 Y2.6289 Z-0.07
G81 Y2.4751 Z-0.07
G81 X1.5573 Y2.5605 Z-0.07
G81 X1.3807 Y2.5662 Z-0.07
G81 Y2.4495 Z-0.07
G81 X1.3779 Y2.3385 Z-0.07
G81 X1.3807 Y2.2303 Z-0.07
G81 Y2.1193 Z-0.07
G81 Y2.0054 Z-0.07
G81 X1.3779 Y1.8972 Z-0.07
G81 Y1.7178 Z-0.07
G81 X1.5772 Y1.5869 Z-0.07
G81 X1.5316 Y1.3648 Z-0.07
G81 X1.358 Y1.362 Z-0.07
G81 X1.3779 Y1.2282 Z-0.07
G81 Y1.1171 Z-0.07
G81 X1.3807 Y1.0061 Z-0.07
G81 X1.3779 Y0.8951 Z-0.07
G81 X1.3807 Y0.7869 Z-0.07
G81 Y0.673 Z-0.07
G81 X1.3779 Y0.562 Z-0.07
G81 X1.375 Y0.4509 Z-0.07
G81 X1.5316 Y0.2744 Z-0.07
G81 X1.711 Y0.1406 Z-0.07
G81 X1.7992 Y0.1435 Z-0.07
G81 X2.0896 Y0.3143 Z-0.07
G81 X2.2462 Y0.1406 Z-0.07
G81 X1.933 Y0.4936 Z-0.07
G81 X1.6911 Y0.6502 Z-0.07
G81 X1.5345 Y0.7186 Z-0.07
G81 Y0.8068 Z-0.07
G81 X1.6911 Y1.0944 Z-0.07
G81 X1.933 Y1.0289 Z-0.07
G81 X1.9359 Y0.9406 Z-0.07
G81 X2.0896 Y0.7613 Z-0.07
G81 X2.2234 Y0.8951 Z-0.07
G81 Y1.342 Z-0.07
G81 X2.2462 Y1.4303 Z-0.07
G81 X2.1551 Y1.5413 Z-0.07
G81 X2.2661 Y1.6495 Z-0.07
G81 Y1.8716 Z-0.07
G81 X2.1551 Y2.0054 Z-0.07
G81 X2.0242 Y2.0709 Z-0.07
G81 X1.8875 Y2.0054 Z-0.07
G81 X1.8249 Y1.8716 Z-0.07
G81 Y1.7178 Z-0.07
G81 X1.933 Y1.4758 Z-0.07
G81 X1.5573 Y2.0054 Z-0.07
G81 X1.711 Y2.2303 Z-0.07
G81 X2.158 Z-0.07
G81 X2.1551 Y2.4723 Z-0.07
G81 X2.158 Y2.6317 Z-0.07
G81 X2.1551 Y2.9164 Z-0.07
G81 X1.5971 Y3.184 Z-0.07
G81 X1.6028 Y3.4488 Z-0.07
G81 X1.1331 Y2.9164 Z-0.07
G81 X1.0448 Z-0.07
G81 X1.0476 Y2.7598 Z-0.07
G81 Y2.5605 Z-0.07
G81 X1.0448 Y2.4524 Z-0.07
G81 Y2.3385 Z-0.07
G81 Y2.2303 Z-0.07
G81 Y2.1164 Z-0.07
G81 X1.0476 Y2.0082 Z-0.07
G81 X1.0448 Y1.8944 Z-0.07
G81 X1.0676 Y1.7378 Z-0.07
G81 X1.0448 Y1.584 Z-0.07
G81 X1.1331 Z-0.07
G81 X1.1359 Y1.3648 Z-0.07
G81 X1.0476 Y1.2282 Z-0.07
G81 X1.0448 Y1.12 Z-0.07
G81 X1.0476 Y1.0061 Z-0.07
G81 X1.0448 Y0.8951 Z-0.07
G81 X1.0476 Y0.784 Z-0.07
G81 Y0.673 Z-0.07
G81 Y0.562 Z-0.07
G81 X1.0448 Y0.4509 Z-0.07
G81 X0.8455 Y0.2744 Z-0.07
G81 X0.7345 Y0.1406 Z-0.07
G81 X0.6462 Z-0.07
G81 X0.3103 Y0.3171 Z-0.07
G81 X0.1993 Y0.1406 Z-0.07
G81 X0.4697 Y0.4965 Z-0.07
G81 X0.6889 Y0.6502 Z-0.07
G81 X0.8455 Y0.7186 Z-0.07
G81 Y0.8068 Z-0.07
G81 X0.6889 Y1.0972 Z-0.07
G81 X0.4669 Y1.0289 Z-0.07
G81 Y0.9378 Z-0.07
G81 X0.3131 Y0.7613 Z-0.07
G81 X0.1565 Y0.9178 Z-0.07
G81 Y1.362 Z-0.07
G81 X0.1366 Y1.4275 Z-0.07
G81 X0.222 Y1.584 Z-0.07
G81 X0.111 Y1.6951 Z-0.07
G81 Y1.8716 Z-0.07
G81 X0.222 Y2.1193 Z-0.07
G81 X0.3558 Y2.1847 Z-0.07
G81 X0.4896 Y2.1193 Z-0.07
G81 X0.5608 Y1.8744 Z-0.07
G81 X0.6007 Y1.7406 Z-0.07
G81 Y1.584 Z-0.07
G81 X0.4669 Y1.473 Z-0.07
G81 X0.8455 Y1.362 Z-0.07
G81 Y2.0054 Z-0.07
G81 X0.6918 Y2.4723 Z-0.07
G81 X0.6889 Y2.6289 Z-0.07
G81 X0.6007 Y2.7598 Z-0.07
G81 Y2.9164 Z-0.07
G81 X0.5124 Z-0.07
G81 X0.6662 Y3.1413 Z-0.07
G81 X0.8455 Y3.1869 Z-0.07
G81 Y3.4516 Z-0.07
G81 X0.2249 Y3.1413 Z-0.07
G81 X0.0683 Y2.9193 Z-0.07
G81 X0.2477 Y2.6289 Z-0.07
G81 X0.2448 Y2.4751 Z-0.07
G81 X0.8455 Y2.5605 Z-0.07
G81 X1.3807 Y2.7627 Z-0.07
G81 X1.2669 Y0.1406 Z-0.07
G81 X1.1786 Z-0.07
G80
G0 Z0.125
M5
M30
