( Made using CamBam - http://www.cambam.co.uk )
( mfos_dual_vca_2 3/8/2015 8:32:04 AM )
( T1 : 0.04 )
( T2 : 0.031 )
( T3 : 0.0039 )
( T6 : 0.0465 )
( T7 : 0.042 )
G20 G90 G64 G40
G0 Z0.125
( T7 : 0.042 )
T7 M6
( Pocket1 )
G17
M3 S1000
G0 X0.3407 Y0.6368
G0 Z0.01
G1 F10.0 Z-0.005
G1 F30.0 Y0.6349
G1 X0.2661
G1 Y0.6368
G1 Y0.6387
G1 X0.3407
G1 Y0.6368
G1 F10.0 Z-0.01
G1 F30.0 Y0.6349
G1 X0.2661
G1 Y0.6368
G1 Y0.6387
G1 X0.3407
G1 Y0.6368
G1 F10.0 Z-0.015
G1 F30.0 Y0.6349
G1 X0.2661
G1 Y0.6368
G1 Y0.6387
G1 X0.3407
G1 Y0.6368
G1 F10.0 Z-0.02
G1 F30.0 Y0.6349
G1 X0.2661
G1 Y0.6368
G1 Y0.6387
G1 X0.3407
G1 Y0.6368
G1 F10.0 Z-0.025
G1 F30.0 Y0.6349
G1 X0.2661
G1 Y0.6368
G1 Y0.6387
G1 X0.3407
G1 Y0.6368
G1 F10.0 Z-0.03
G1 F30.0 Y0.6349
G1 X0.2661
G1 Y0.6368
G1 Y0.6387
G1 X0.3407
G1 Y0.6368
G1 F10.0 Z-0.035
G1 F30.0 Y0.6349
G1 X0.2661
G1 Y0.6368
G1 Y0.6387
G1 X0.3407
G1 Y0.6368
G1 F10.0 Z-0.04
G1 F30.0 Y0.6349
G1 X0.2661
G1 Y0.6368
G1 Y0.6387
G1 X0.3407
G1 Y0.6368
G1 F10.0 Z-0.045
G1 F30.0 Y0.6349
G1 X0.2661
G1 Y0.6368
G1 Y0.6387
G1 X0.3407
G1 Y0.6368
G1 F10.0 Z-0.05
G1 F30.0 Y0.6349
G1 X0.2661
G1 Y0.6368
G1 Y0.6387
G1 X0.3407
G1 Y0.6368
G1 F10.0 Z-0.055
G1 F30.0 Y0.6349
G1 X0.2661
G1 Y0.6368
G1 Y0.6387
G1 X0.3407
G1 Y0.6368
G1 F10.0 Z-0.06
G1 F30.0 Y0.6349
G1 X0.2661
G1 Y0.6368
G1 Y0.6387
G1 X0.3407
G1 Y0.6368
G1 F10.0 Z-0.065
G1 F30.0 Y0.6349
G1 X0.2661
G1 Y0.6368
G1 Y0.6387
G1 X0.3407
G1 Y0.6368
G1 F10.0 Z-0.07
G1 F30.0 Y0.6349
G1 X0.2661
G1 Y0.6368
G1 Y0.6387
G1 X0.3407
G1 Y0.6368
G0 Z0.125
G0 X0.1006 Y0.5792
G0 Z0.01
G1 F10.0 Z-0.005
G1 F30.0 Y0.5046
G1 X0.0987
G1 X0.0968
G1 Y0.5792
G1 X0.0987
G1 X0.1006
G1 F10.0 Z-0.01
G1 F30.0 Y0.5046
G1 X0.0987
G1 X0.0968
G1 Y0.5792
G1 X0.0987
G1 X0.1006
G1 F10.0 Z-0.015
G1 F30.0 Y0.5046
G1 X0.0987
G1 X0.0968
G1 Y0.5792
G1 X0.0987
G1 X0.1006
G1 F10.0 Z-0.02
G1 F30.0 Y0.5046
G1 X0.0987
G1 X0.0968
G1 Y0.5792
G1 X0.0987
G1 X0.1006
G1 F10.0 Z-0.025
G1 F30.0 Y0.5046
G1 X0.0987
G1 X0.0968
G1 Y0.5792
G1 X0.0987
G1 X0.1006
G1 F10.0 Z-0.03
G1 F30.0 Y0.5046
G1 X0.0987
G1 X0.0968
G1 Y0.5792
G1 X0.0987
G1 X0.1006
G1 F10.0 Z-0.035
G1 F30.0 Y0.5046
G1 X0.0987
G1 X0.0968
G1 Y0.5792
G1 X0.0987
G1 X0.1006
G1 F10.0 Z-0.04
G1 F30.0 Y0.5046
G1 X0.0987
G1 X0.0968
G1 Y0.5792
G1 X0.0987
G1 X0.1006
G1 F10.0 Z-0.045
G1 F30.0 Y0.5046
G1 X0.0987
G1 X0.0968
G1 Y0.5792
G1 X0.0987
G1 X0.1006
G1 F10.0 Z-0.05
G1 F30.0 Y0.5046
G1 X0.0987
G1 X0.0968
G1 Y0.5792
G1 X0.0987
G1 X0.1006
G1 F10.0 Z-0.055
G1 F30.0 Y0.5046
G1 X0.0987
G1 X0.0968
G1 Y0.5792
G1 X0.0987
G1 X0.1006
G1 F10.0 Z-0.06
G1 F30.0 Y0.5046
G1 X0.0987
G1 X0.0968
G1 Y0.5792
G1 X0.0987
G1 X0.1006
G1 F10.0 Z-0.065
G1 F30.0 Y0.5046
G1 X0.0987
G1 X0.0968
G1 Y0.5792
G1 X0.0987
G1 X0.1006
G1 F10.0 Z-0.07
G1 F30.0 Y0.5046
G1 X0.0987
G1 X0.0968
G1 Y0.5792
G1 X0.0987
G1 X0.1006
G0 Z0.125
G0 X0.2661 Y0.1107
G0 Z0.01
G1 F10.0 Z-0.005
G1 F30.0 X0.3407
G1 Y0.1089
G1 Y0.107
G1 X0.2661
G1 Y0.1089
G1 Y0.1107
G1 F10.0 Z-0.01
G1 F30.0 X0.3407
G1 Y0.1089
G1 Y0.107
G1 X0.2661
G1 Y0.1089
G1 Y0.1107
G1 F10.0 Z-0.015
G1 F30.0 X0.3407
G1 Y0.1089
G1 Y0.107
G1 X0.2661
G1 Y0.1089
G1 Y0.1107
G1 F10.0 Z-0.02
G1 F30.0 X0.3407
G1 Y0.1089
G1 Y0.107
G1 X0.2661
G1 Y0.1089
G1 Y0.1107
G1 F10.0 Z-0.025
G1 F30.0 X0.3407
G1 Y0.1089
G1 Y0.107
G1 X0.2661
G1 Y0.1089
G1 Y0.1107
G1 F10.0 Z-0.03
G1 F30.0 X0.3407
G1 Y0.1089
G1 Y0.107
G1 X0.2661
G1 Y0.1089
G1 Y0.1107
G1 F10.0 Z-0.035
G1 F30.0 X0.3407
G1 Y0.1089
G1 Y0.107
G1 X0.2661
G1 Y0.1089
G1 Y0.1107
G1 F10.0 Z-0.04
G1 F30.0 X0.3407
G1 Y0.1089
G1 Y0.107
G1 X0.2661
G1 Y0.1089
G1 Y0.1107
G1 F10.0 Z-0.045
G1 F30.0 X0.3407
G1 Y0.1089
G1 Y0.107
G1 X0.2661
G1 Y0.1089
G1 Y0.1107
G1 F10.0 Z-0.05
G1 F30.0 X0.3407
G1 Y0.1089
G1 Y0.107
G1 X0.2661
G1 Y0.1089
G1 Y0.1107
G1 F10.0 Z-0.055
G1 F30.0 X0.3407
G1 Y0.1089
G1 Y0.107
G1 X0.2661
G1 Y0.1089
G1 Y0.1107
G1 F10.0 Z-0.06
G1 F30.0 X0.3407
G1 Y0.1089
G1 Y0.107
G1 X0.2661
G1 Y0.1089
G1 Y0.1107
G1 F10.0 Z-0.065
G1 F30.0 X0.3407
G1 Y0.1089
G1 Y0.107
G1 X0.2661
G1 Y0.1089
G1 Y0.1107
G1 F10.0 Z-0.07
G1 F30.0 X0.3407
G1 Y0.1089
G1 Y0.107
G1 X0.2661
G1 Y0.1089
G1 Y0.1107
G0 Z0.125
G0 X3.1068 Y0.5046
G0 Z0.01
G1 F10.0 Z-0.005
G1 F30.0 Y0.5792
G1 X3.1087
G1 X3.1106
G1 Y0.5046
G1 X3.1087
G1 X3.1068
G1 F10.0 Z-0.01
G1 F30.0 Y0.5792
G1 X3.1087
G1 X3.1106
G1 Y0.5046
G1 X3.1087
G1 X3.1068
G1 F10.0 Z-0.015
G1 F30.0 Y0.5792
G1 X3.1087
G1 X3.1106
G1 Y0.5046
G1 X3.1087
G1 X3.1068
G1 F10.0 Z-0.02
G1 F30.0 Y0.5792
G1 X3.1087
G1 X3.1106
G1 Y0.5046
G1 X3.1087
G1 X3.1068
G1 F10.0 Z-0.025
G1 F30.0 Y0.5792
G1 X3.1087
G1 X3.1106
G1 Y0.5046
G1 X3.1087
G1 X3.1068
G1 F10.0 Z-0.03
G1 F30.0 Y0.5792
G1 X3.1087
G1 X3.1106
G1 Y0.5046
G1 X3.1087
G1 X3.1068
G1 F10.0 Z-0.035
G1 F30.0 Y0.5792
G1 X3.1087
G1 X3.1106
G1 Y0.5046
G1 X3.1087
G1 X3.1068
G1 F10.0 Z-0.04
G1 F30.0 Y0.5792
G1 X3.1087
G1 X3.1106
G1 Y0.5046
G1 X3.1087
G1 X3.1068
G1 F10.0 Z-0.045
G1 F30.0 Y0.5792
G1 X3.1087
G1 X3.1106
G1 Y0.5046
G1 X3.1087
G1 X3.1068
G1 F10.0 Z-0.05
G1 F30.0 Y0.5792
G1 X3.1087
G1 X3.1106
G1 Y0.5046
G1 X3.1087
G1 X3.1068
G1 F10.0 Z-0.055
G1 F30.0 Y0.5792
G1 X3.1087
G1 X3.1106
G1 Y0.5046
G1 X3.1087
G1 X3.1068
G1 F10.0 Z-0.06
G1 F30.0 Y0.5792
G1 X3.1087
G1 X3.1106
G1 Y0.5046
G1 X3.1087
G1 X3.1068
G1 F10.0 Z-0.065
G1 F30.0 Y0.5792
G1 X3.1087
G1 X3.1106
G1 Y0.5046
G1 X3.1087
G1 X3.1068
G1 F10.0 Z-0.07
G1 F30.0 Y0.5792
G1 X3.1087
G1 X3.1106
G1 Y0.5046
G1 X3.1087
G1 X3.1068
G0 Z0.125
G0 X3.2761 Y0.6349
G0 Z0.01
G1 F10.0 Z-0.005
G1 F30.0 Y0.6368
G1 Y0.6387
G1 X3.3507
G1 Y0.6368
G1 Y0.6349
G1 X3.2761
G1 F10.0 Z-0.01
G1 F30.0 Y0.6368
G1 Y0.6387
G1 X3.3507
G1 Y0.6368
G1 Y0.6349
G1 X3.2761
G1 F10.0 Z-0.015
G1 F30.0 Y0.6368
G1 Y0.6387
G1 X3.3507
G1 Y0.6368
G1 Y0.6349
G1 X3.2761
G1 F10.0 Z-0.02
G1 F30.0 Y0.6368
G1 Y0.6387
G1 X3.3507
G1 Y0.6368
G1 Y0.6349
G1 X3.2761
G1 F10.0 Z-0.025
G1 F30.0 Y0.6368
G1 Y0.6387
G1 X3.3507
G1 Y0.6368
G1 Y0.6349
G1 X3.2761
G1 F10.0 Z-0.03
G1 F30.0 Y0.6368
G1 Y0.6387
G1 X3.3507
G1 Y0.6368
G1 Y0.6349
G1 X3.2761
G1 F10.0 Z-0.035
G1 F30.0 Y0.6368
G1 Y0.6387
G1 X3.3507
G1 Y0.6368
G1 Y0.6349
G1 X3.2761
G1 F10.0 Z-0.04
G1 F30.0 Y0.6368
G1 Y0.6387
G1 X3.3507
G1 Y0.6368
G1 Y0.6349
G1 X3.2761
G1 F10.0 Z-0.045
G1 F30.0 Y0.6368
G1 Y0.6387
G1 X3.3507
G1 Y0.6368
G1 Y0.6349
G1 X3.2761
G1 F10.0 Z-0.05
G1 F30.0 Y0.6368
G1 Y0.6387
G1 X3.3507
G1 Y0.6368
G1 Y0.6349
G1 X3.2761
G1 F10.0 Z-0.055
G1 F30.0 Y0.6368
G1 Y0.6387
G1 X3.3507
G1 Y0.6368
G1 Y0.6349
G1 X3.2761
G1 F10.0 Z-0.06
G1 F30.0 Y0.6368
G1 Y0.6387
G1 X3.3507
G1 Y0.6368
G1 Y0.6349
G1 X3.2761
G1 F10.0 Z-0.065
G1 F30.0 Y0.6368
G1 Y0.6387
G1 X3.3507
G1 Y0.6368
G1 Y0.6349
G1 X3.2761
G1 F10.0 Z-0.07
G1 F30.0 Y0.6368
G1 Y0.6387
G1 X3.3507
G1 Y0.6368
G1 Y0.6349
G1 X3.2761
G0 Z0.125
G0 X3.6368 Y0.5792
G0 Z0.01
G1 F10.0 Z-0.005
G1 F30.0 X3.6387
G1 X3.6406
G1 Y0.5046
G1 X3.6387
G1 X3.6368
G1 Y0.5792
G1 F10.0 Z-0.01
G1 F30.0 X3.6387
G1 X3.6406
G1 Y0.5046
G1 X3.6387
G1 X3.6368
G1 Y0.5792
G1 F10.0 Z-0.015
G1 F30.0 X3.6387
G1 X3.6406
G1 Y0.5046
G1 X3.6387
G1 X3.6368
G1 Y0.5792
G1 F10.0 Z-0.02
G1 F30.0 X3.6387
G1 X3.6406
G1 Y0.5046
G1 X3.6387
G1 X3.6368
G1 Y0.5792
G1 F10.0 Z-0.025
G1 F30.0 X3.6387
G1 X3.6406
G1 Y0.5046
G1 X3.6387
G1 X3.6368
G1 Y0.5792
G1 F10.0 Z-0.03
G1 F30.0 X3.6387
G1 X3.6406
G1 Y0.5046
G1 X3.6387
G1 X3.6368
G1 Y0.5792
G1 F10.0 Z-0.035
G1 F30.0 X3.6387
G1 X3.6406
G1 Y0.5046
G1 X3.6387
G1 X3.6368
G1 Y0.5792
G1 F10.0 Z-0.04
G1 F30.0 X3.6387
G1 X3.6406
G1 Y0.5046
G1 X3.6387
G1 X3.6368
G1 Y0.5792
G1 F10.0 Z-0.045
G1 F30.0 X3.6387
G1 X3.6406
G1 Y0.5046
G1 X3.6387
G1 X3.6368
G1 Y0.5792
G1 F10.0 Z-0.05
G1 F30.0 X3.6387
G1 X3.6406
G1 Y0.5046
G1 X3.6387
G1 X3.6368
G1 Y0.5792
G1 F10.0 Z-0.055
G1 F30.0 X3.6387
G1 X3.6406
G1 Y0.5046
G1 X3.6387
G1 X3.6368
G1 Y0.5792
G1 F10.0 Z-0.06
G1 F30.0 X3.6387
G1 X3.6406
G1 Y0.5046
G1 X3.6387
G1 X3.6368
G1 Y0.5792
G1 F10.0 Z-0.065
G1 F30.0 X3.6387
G1 X3.6406
G1 Y0.5046
G1 X3.6387
G1 X3.6368
G1 Y0.5792
G1 F10.0 Z-0.07
G1 F30.0 X3.6387
G1 X3.6406
G1 Y0.5046
G1 X3.6387
G1 X3.6368
G1 Y0.5792
G0 Z0.125
G0 X3.8061 Y0.6349
G0 Z0.01
G1 F10.0 Z-0.005
G1 F30.0 Y0.6368
G1 Y0.6387
G1 X3.8807
G1 Y0.6368
G1 Y0.6349
G1 X3.8061
G1 F10.0 Z-0.01
G1 F30.0 Y0.6368
G1 Y0.6387
G1 X3.8807
G1 Y0.6368
G1 Y0.6349
G1 X3.8061
G1 F10.0 Z-0.015
G1 F30.0 Y0.6368
G1 Y0.6387
G1 X3.8807
G1 Y0.6368
G1 Y0.6349
G1 X3.8061
G1 F10.0 Z-0.02
G1 F30.0 Y0.6368
G1 Y0.6387
G1 X3.8807
G1 Y0.6368
G1 Y0.6349
G1 X3.8061
G1 F10.0 Z-0.025
G1 F30.0 Y0.6368
G1 Y0.6387
G1 X3.8807
G1 Y0.6368
G1 Y0.6349
G1 X3.8061
G1 F10.0 Z-0.03
G1 F30.0 Y0.6368
G1 Y0.6387
G1 X3.8807
G1 Y0.6368
G1 Y0.6349
G1 X3.8061
G1 F10.0 Z-0.035
G1 F30.0 Y0.6368
G1 Y0.6387
G1 X3.8807
G1 Y0.6368
G1 Y0.6349
G1 X3.8061
G1 F10.0 Z-0.04
G1 F30.0 Y0.6368
G1 Y0.6387
G1 X3.8807
G1 Y0.6368
G1 Y0.6349
G1 X3.8061
G1 F10.0 Z-0.045
G1 F30.0 Y0.6368
G1 Y0.6387
G1 X3.8807
G1 Y0.6368
G1 Y0.6349
G1 X3.8061
G1 F10.0 Z-0.05
G1 F30.0 Y0.6368
G1 Y0.6387
G1 X3.8807
G1 Y0.6368
G1 Y0.6349
G1 X3.8061
G1 F10.0 Z-0.055
G1 F30.0 Y0.6368
G1 Y0.6387
G1 X3.8807
G1 Y0.6368
G1 Y0.6349
G1 X3.8061
G1 F10.0 Z-0.06
G1 F30.0 Y0.6368
G1 Y0.6387
G1 X3.8807
G1 Y0.6368
G1 Y0.6349
G1 X3.8061
G1 F10.0 Z-0.065
G1 F30.0 Y0.6368
G1 Y0.6387
G1 X3.8807
G1 Y0.6368
G1 Y0.6349
G1 X3.8061
G1 F10.0 Z-0.07
G1 F30.0 Y0.6368
G1 Y0.6387
G1 X3.8807
G1 Y0.6368
G1 Y0.6349
G1 X3.8061
G0 Z0.125
G0 Y0.1107
G0 Z0.01
G1 F10.0 Z-0.005
G1 F30.0 X3.8807
G1 Y0.1089
G1 Y0.107
G1 X3.8061
G1 Y0.1089
G1 Y0.1107
G1 F10.0 Z-0.01
G1 F30.0 X3.8807
G1 Y0.1089
G1 Y0.107
G1 X3.8061
G1 Y0.1089
G1 Y0.1107
G1 F10.0 Z-0.015
G1 F30.0 X3.8807
G1 Y0.1089
G1 Y0.107
G1 X3.8061
G1 Y0.1089
G1 Y0.1107
G1 F10.0 Z-0.02
G1 F30.0 X3.8807
G1 Y0.1089
G1 Y0.107
G1 X3.8061
G1 Y0.1089
G1 Y0.1107
G1 F10.0 Z-0.025
G1 F30.0 X3.8807
G1 Y0.1089
G1 Y0.107
G1 X3.8061
G1 Y0.1089
G1 Y0.1107
G1 F10.0 Z-0.03
G1 F30.0 X3.8807
G1 Y0.1089
G1 Y0.107
G1 X3.8061
G1 Y0.1089
G1 Y0.1107
G1 F10.0 Z-0.035
G1 F30.0 X3.8807
G1 Y0.1089
G1 Y0.107
G1 X3.8061
G1 Y0.1089
G1 Y0.1107
G1 F10.0 Z-0.04
G1 F30.0 X3.8807
G1 Y0.1089
G1 Y0.107
G1 X3.8061
G1 Y0.1089
G1 Y0.1107
G1 F10.0 Z-0.045
G1 F30.0 X3.8807
G1 Y0.1089
G1 Y0.107
G1 X3.8061
G1 Y0.1089
G1 Y0.1107
G1 F10.0 Z-0.05
G1 F30.0 X3.8807
G1 Y0.1089
G1 Y0.107
G1 X3.8061
G1 Y0.1089
G1 Y0.1107
G1 F10.0 Z-0.055
G1 F30.0 X3.8807
G1 Y0.1089
G1 Y0.107
G1 X3.8061
G1 Y0.1089
G1 Y0.1107
G1 F10.0 Z-0.06
G1 F30.0 X3.8807
G1 Y0.1089
G1 Y0.107
G1 X3.8061
G1 Y0.1089
G1 Y0.1107
G1 F10.0 Z-0.065
G1 F30.0 X3.8807
G1 Y0.1089
G1 Y0.107
G1 X3.8061
G1 Y0.1089
G1 Y0.1107
G1 F10.0 Z-0.07
G1 F30.0 X3.8807
G1 Y0.1089
G1 Y0.107
G1 X3.8061
G1 Y0.1089
G1 Y0.1107
G0 Z0.125
G0 X3.3507
G0 Z0.01
G1 F10.0 Z-0.005
G1 F30.0 Y0.1089
G1 Y0.107
G1 X3.2761
G1 Y0.1089
G1 Y0.1107
G1 X3.3507
G1 F10.0 Z-0.01
G1 F30.0 Y0.1089
G1 Y0.107
G1 X3.2761
G1 Y0.1089
G1 Y0.1107
G1 X3.3507
G1 F10.0 Z-0.015
G1 F30.0 Y0.1089
G1 Y0.107
G1 X3.2761
G1 Y0.1089
G1 Y0.1107
G1 X3.3507
G1 F10.0 Z-0.02
G1 F30.0 Y0.1089
G1 Y0.107
G1 X3.2761
G1 Y0.1089
G1 Y0.1107
G1 X3.3507
G1 F10.0 Z-0.025
G1 F30.0 Y0.1089
G1 Y0.107
G1 X3.2761
G1 Y0.1089
G1 Y0.1107
G1 X3.3507
G1 F10.0 Z-0.03
G1 F30.0 Y0.1089
G1 Y0.107
G1 X3.2761
G1 Y0.1089
G1 Y0.1107
G1 X3.3507
G1 F10.0 Z-0.035
G1 F30.0 Y0.1089
G1 Y0.107
G1 X3.2761
G1 Y0.1089
G1 Y0.1107
G1 X3.3507
G1 F10.0 Z-0.04
G1 F30.0 Y0.1089
G1 Y0.107
G1 X3.2761
G1 Y0.1089
G1 Y0.1107
G1 X3.3507
G1 F10.0 Z-0.045
G1 F30.0 Y0.1089
G1 Y0.107
G1 X3.2761
G1 Y0.1089
G1 Y0.1107
G1 X3.3507
G1 F10.0 Z-0.05
G1 F30.0 Y0.1089
G1 Y0.107
G1 X3.2761
G1 Y0.1089
G1 Y0.1107
G1 X3.3507
G1 F10.0 Z-0.055
G1 F30.0 Y0.1089
G1 Y0.107
G1 X3.2761
G1 Y0.1089
G1 Y0.1107
G1 X3.3507
G1 F10.0 Z-0.06
G1 F30.0 Y0.1089
G1 Y0.107
G1 X3.2761
G1 Y0.1089
G1 Y0.1107
G1 X3.3507
G1 F10.0 Z-0.065
G1 F30.0 Y0.1089
G1 Y0.107
G1 X3.2761
G1 Y0.1089
G1 Y0.1107
G1 X3.3507
G1 F10.0 Z-0.07
G1 F30.0 Y0.1089
G1 Y0.107
G1 X3.2761
G1 Y0.1089
G1 Y0.1107
G1 X3.3507
( .04 Drills )
G0 Z0.0625
( T1 : 0.04 )
T1 M6
M3 S1000
G0 X1.415 Y0.9989
G98
G81 X1.415 Y0.9989 Z-0.073 R0.0625 F20.0
G81 X1.2766 Z-0.073
G81 X1.1357 Z-0.073
G81 Y2.5977 Z-0.073
G81 X1.2766 Z-0.073
G81 X1.415 Z-0.073
G81 X0.7696 Y2.7996 Z-0.073
G81 X0.4296 Z-0.073
G81 X2.4596 Y2.6596 Z-0.073
G81 X2.7596 Z-0.073
G81 X3.1696 Y1.8996 Z-0.073
G81 Y1.6796 Z-0.073
G81 X3.6596 Y1.6696 Z-0.073
G81 Y1.5696 Z-0.073
G81 X3.8096 Z-0.073
G81 Y1.6696 Z-0.073
G81 Y1.7696 Z-0.073
G81 X3.9096 Z-0.073
G81 Y1.8696 Z-0.073
G81 Y1.9696 Z-0.073
G81 Y2.0696 Z-0.073
G81 Y2.1696 Z-0.073
G81 X3.8096 Z-0.073
G81 Y2.0696 Z-0.073
G81 Y1.9696 Z-0.073
G81 Y1.8696 Z-0.073
G81 X3.6596 Z-0.073
G81 Y1.9696 Z-0.073
G81 Y2.0696 Z-0.073
G81 Y2.1696 Z-0.073
G81 Y2.2696 Z-0.073
G81 X3.8096 Z-0.073
G81 X3.9096 Z-0.073
G81 X3.6596 Y1.7696 Z-0.073
G81 X3.9096 Y1.6696 Z-0.073
G81 Y1.5696 Z-0.073
G80
( .031 Drills )
G0 Z0.0625
( T2 : 0.031 )
T2 M6
M3 S1000
G0 X2.9369 Y1.4575
G98
G81 X2.9369 Y1.4575 Z-0.073 R0.0625 F20.0
G81 Y1.3346 Z-0.073
G81 X2.796 Y1.2397 Z-0.073
G81 X2.6756 Y1.2447 Z-0.073
G81 X2.5372 Z-0.073
G81 X2.3169 Y1.3397 Z-0.073
G81 X2.1145 Y1.478 Z-0.073
G81 Y1.6369 Z-0.073
G81 X2.0171 Y1.6395 Z-0.073
G81 X1.8557 Z-0.073
G81 X1.7378 Y1.4601 Z-0.073
G81 X1.5379 Y1.5011 Z-0.073
G81 X1.5354 Y1.6574 Z-0.073
G81 X1.415 Y1.6395 Z-0.073
G81 X1.315 Z-0.073
G81 X1.2151 Y1.6369 Z-0.073
G81 X1.1152 Y1.6395 Z-0.073
G81 X1.0178 Y1.6369 Z-0.073
G81 X0.9153 Z-0.073
G81 X0.8154 Y1.6395 Z-0.073
G81 X0.7155 Y1.642 Z-0.073
G81 X0.5566 Y1.5011 Z-0.073
G81 X0.4362 Y1.3397 Z-0.073
G81 X0.4387 Y1.2602 Z-0.073
G81 X0.5925 Y0.9989 Z-0.073
G81 X0.4362 Y0.858 Z-0.073
G81 X0.7539 Y1.1398 Z-0.073
G81 X0.8948 Y1.3576 Z-0.073
G81 X0.9563 Y1.4985 Z-0.073
G81 X1.0357 Z-0.073
G81 X1.2945 Y1.3576 Z-0.073
G81 X1.2356 Y1.1398 Z-0.073
G81 X1.1562 Y1.1373 Z-0.073
G81 X0.9947 Y0.9989 Z-0.073
G81 X1.1152 Y0.8785 Z-0.073
G81 X1.5174 Z-0.073
G81 X1.5969 Y0.858 Z-0.073
G81 X1.6968 Y0.94 Z-0.073
G81 X1.7942 Y0.84 Z-0.073
G81 X1.994 Z-0.073
G81 X2.1145 Y0.94 Z-0.073
G81 X2.1734 Y1.0578 Z-0.073
G81 X2.1145 Y1.1808 Z-0.073
G81 X1.994 Y1.2372 Z-0.073
G81 X1.8557 Z-0.073
G81 X1.6379 Y1.1398 Z-0.073
G81 X2.3169 Y0.9374 Z-0.073
G81 X2.5347 Y0.845 Z-0.073
G81 X2.6781 Y0.8424 Z-0.073
G81 X2.9344 Y0.94 Z-0.073
G81 X3.1752 Y1.4422 Z-0.073
G81 X3.4135 Y1.437 Z-0.073
G81 X2.9344 Y1.8598 Z-0.073
G81 Y1.9392 Z-0.073
G81 X2.7934 Y1.9367 Z-0.073
G81 X2.6141 Z-0.073
G81 X2.5167 Y1.9392 Z-0.073
G81 X2.4142 Z-0.073
G81 X2.3169 Z-0.073
G81 X2.2144 Z-0.073
G81 X2.117 Y1.9367 Z-0.073
G81 X2.0145 Y1.9392 Z-0.073
G81 X1.8736 Y1.9187 Z-0.073
G81 X1.7352 Y1.9392 Z-0.073
G81 Y1.8598 Z-0.073
G81 X1.5379 Y1.8573 Z-0.073
G81 X1.415 Y1.9367 Z-0.073
G81 X1.3176 Y1.9392 Z-0.073
G81 X1.2151 Y1.9367 Z-0.073
G81 X1.1152 Y1.9392 Z-0.073
G81 X1.0152 Y1.9367 Z-0.073
G81 X0.9153 Z-0.073
G81 X0.8154 Z-0.073
G81 X0.7155 Y1.9392 Z-0.073
G81 X0.5566 Y2.1186 Z-0.073
G81 X0.4362 Y2.2185 Z-0.073
G81 Y2.298 Z-0.073
G81 X0.595 Y2.6003 Z-0.073
G81 X0.4362 Y2.7002 Z-0.073
G81 X0.7565 Y2.4568 Z-0.073
G81 X0.8948 Y2.2595 Z-0.073
G81 X0.9563 Y2.1186 Z-0.073
G81 X1.0357 Z-0.073
G81 X1.2971 Y2.2595 Z-0.073
G81 X1.2356 Y2.4594 Z-0.073
G81 X1.1536 Z-0.073
G81 X0.9947 Y2.5977 Z-0.073
G81 X1.1357 Y2.7387 Z-0.073
G81 X1.5354 Z-0.073
G81 X1.5943 Y2.7566 Z-0.073
G81 X1.7352 Y2.6797 Z-0.073
G81 X1.8352 Y2.7797 Z-0.073
G81 X1.994 Z-0.073
G81 X2.2169 Y2.6797 Z-0.073
G81 X2.2759 Y2.5593 Z-0.073
G81 X2.2169 Y2.4389 Z-0.073
G81 X1.9966 Y2.3748 Z-0.073
G81 X1.8762 Y2.339 Z-0.073
G81 X1.7352 Z-0.073
G81 X1.6353 Y2.4594 Z-0.073
G81 X1.5354 Y2.1186 Z-0.073
G81 X2.1145 Z-0.073
G81 X2.5347 Y2.257 Z-0.073
G81 X2.6756 Y2.2595 Z-0.073
G81 X2.7934 Y2.339 Z-0.073
G81 X2.9344 Z-0.073
G81 Y2.4184 Z-0.073
G81 X3.1368 Y2.28 Z-0.073
G81 X3.1778 Y2.1186 Z-0.073
G81 X3.4161 Z-0.073
G81 X3.1368 Y2.6772 Z-0.073
G81 X2.9369 Y2.8181 Z-0.073
G81 X2.6756 Y2.6567 Z-0.073
G81 X2.5372 Y2.6592 Z-0.073
G81 X2.6141 Y2.1186 Z-0.073
G81 X2.6192 Y1.6369 Z-0.073
G81 X2.5142 Z-0.073
G81 X2.4142 Y1.6395 Z-0.073
G81 X2.3169 Y1.6369 Z-0.073
G81 X2.2169 Z-0.073
G81 X2.6141 Y1.478 Z-0.073
G81 X2.796 Y1.6369 Z-0.073
G81 X0.4362 Y1.7394 Z-0.073
G81 Y1.8188 Z-0.073
G80
( Engrave1 )
G0 Z0.125
( T3 : 0.0039 )
T3 M6
M3 S1000
G0 X3.0751 Y0.8886
G0 Z0.021
G1 F20.0 Z-0.004
G2 F40.0 X3.0636 Y0.9076 I0.033 J0.033
G1 X3.0563 Y0.9286
G1 X3.0443 Y0.9686
G1 X3.0347
G1 X3.0251
G1 X3.0259 Y0.9511
G3 X3.0441 Y0.8842 I0.6524 J0.1412
G1 X3.0614 Y0.8348
G1 X3.0733 Y0.8309
G1 X3.0851 Y0.8269
G1 X3.09 Y0.8402
G3 X3.1097 Y0.8969 I-0.6814 J0.2698
G1 X3.1187 Y0.9255
G3 X3.1251 Y0.9548 I-0.1138 J0.0402
G1 Y0.9686
G1 X3.1155
G1 X3.1059
G1 X3.0939 Y0.9286
G2 X3.0751 Y0.8886 I-0.0954 J0.0204
G0 Z0.125
G0 X3.1451
G0 Z0.021
G1 F20.0 Z-0.004
G1 F40.0 Y0.8286
G1 X3.1851
G1 X3.2251
G1 Y0.8486
G1 Y0.8686
G1 X3.2151
G3 X3.2051 Y0.8586 I0.0 J-0.01
G1 Y0.8486
G1 X3.1851
G1 X3.1651
G1 Y0.8986
G1 Y0.9486
G1 X3.1851
G1 X3.2051
G1 Y0.9386
G3 X3.2151 Y0.9286 I0.01 J0.0
G1 X3.2251
G1 Y0.9486
G1 Y0.9686
G1 X3.1851
G1 X3.1451
G1 Y0.8986
G1 Y0.8886
G0 Z0.125
G0 X3.2487 Y0.8541
G0 Z0.021
G1 F20.0 Z-0.004
G1 F40.0 X3.2431 Y0.8373
G1 X3.2484 Y0.8319
G1 X3.2538 Y0.8266
G1 X3.2645 Y0.8332
G3 X3.2751 Y0.8542 I-0.0183 J0.0225
G1 Y0.8686
G1 X3.294
G1 X3.3128
G1 X3.318 Y0.8486
G1 X3.3233 Y0.8286
G1 X3.3335
G1 X3.3438
G1 X3.3429 Y0.8586
G1 X3.3421 Y0.8886
G1 X3.3352
G2 X3.3236 Y0.9076 I0.0307 J0.0317
G1 X3.3163 Y0.9286
G1 X3.3043 Y0.9686
G1 X3.2955
G1 X3.2868
G1 X3.2649 Y0.9029
G1 X3.2487 Y0.8541
( Profile1 )
S1000
G0 Z0.125
G0 X2.3515 Y0.9042
G0 Z0.021
G1 F10.0 Z-0.004
G1 F25.0 X2.3681 Y0.9225
G3 X2.3691 Y0.9251 I-0.003 J0.0027
G1 Y0.9403
G1 Y0.9555
G3 X2.3678 Y0.9584 I-0.004 J0.0
G1 X2.3495 Y0.975
G1 X2.3312 Y0.9915
G3 X2.3286 Y0.9926 I-0.0027 J-0.003
G1 X2.3131
G1 X2.2976
G3 X2.2945 Y0.9911 I0.0 J-0.004
G1 X2.2821 Y0.9761
G1 X2.2708 Y0.9626
G1 X2.2138
G1 X2.156
G1 X2.1371 Y0.9744
G1 X2.1172 Y0.9868
G3 X2.113 I-0.0021 J-0.0034
G1 X2.0931 Y0.9744
G1 X2.0743 Y0.9626
G1 X1.9051
G1 X1.736
G1 X1.7171 Y0.9744
G1 X1.6972 Y0.9868
G3 X1.6929 I-0.0021 J-0.0034
G1 X1.6755 Y0.9758
G1 X1.658 Y0.9648
G3 X1.6561 Y0.9614 I0.0021 J-0.0034
G1 Y0.9386
G1 Y0.9158
G3 X1.658 Y0.9124 I0.004 J0.0
G1 X1.6755 Y0.9014
G1 X1.6929 Y0.8903
G3 X1.6972 I0.0021 J0.0034
G1 X1.7171 Y0.9028
G1 X1.736 Y0.9146
G1 X1.9051
G1 X2.0743
G1 X2.0931 Y0.9028
G1 X2.113 Y0.8904
G3 X2.1172 I0.0021 J0.0034
G1 X2.1371 Y0.9028
G1 X2.156 Y0.9146
G1 X2.2138
G1 X2.2708
G1 X2.2821 Y0.901
G1 X2.2945 Y0.886
G3 X2.2976 Y0.8846 I0.0031 J0.0026
G1 X2.3148
G1 X2.332
G3 X2.335 Y0.8859 I0.0 J0.004
G1 X2.3515 Y0.9042
G0 Z0.125
G0 X2.4015 Y0.8929
G0 Z0.021
G1 F10.0 Z-0.004
G1 F25.0 X2.3766 Y0.7826
G1 X2.0191
G1 Y0.7867
G2 X2.0326 Y0.8054 I0.0398 J-0.0144
G1 X2.0327 Y0.8055
G1 X2.0477 Y0.8179
G3 X2.0491 Y0.821 I-0.0026 J0.0031
G1 Y0.8382
G1 Y0.8555
G3 X2.0478 Y0.8584 I-0.004 J0.0
G1 X2.0295 Y0.875
G1 X2.0112 Y0.8915
G3 X2.0086 Y0.8926 I-0.0027 J-0.003
G1 X1.9934
G1 X1.9782
G3 X1.9753 Y0.8913 I0.0 J-0.004
G1 X1.9587 Y0.873
G1 X1.9422 Y0.8547
G3 X1.9411 Y0.852 I0.003 J-0.0027
G1 Y0.8365
G1 Y0.821
G3 X1.9426 Y0.8179 I0.004 J0.0
G1 X1.9576 Y0.8055
G3 X1.9578 Y0.8053 I0.0026 J0.0031
G2 X1.9711 Y0.7868 I-0.0207 J-0.029
G1 Y0.7826
G1 X1.8951
G1 X1.8191
G1 Y0.7883
G2 X1.8309 Y0.8166 I0.0891 J-0.0205
G1 X1.8434 Y0.8365
G3 Y0.8408 I-0.0034 J0.0021
G1 X1.8323 Y0.8582
G1 X1.8213 Y0.8757
G3 X1.8179 Y0.8776 I-0.0034 J-0.0021
G1 X1.7951
G1 X1.7723
G3 X1.7689 Y0.8757 I0.0 J-0.004
G1 X1.7579 Y0.8582
G1 X1.7469 Y0.8408
G3 Y0.8365 I0.0034 J-0.0021
G1 X1.7593 Y0.8166
G3 X1.7594 Y0.8165 I0.0034 J0.0021
G2 X1.7711 Y0.7883 I-0.0611 J-0.042
G1 Y0.7826
G1 X1.3451
G1 X0.9191
G1 Y1.0466
G1 Y1.3129
G1 X0.93 Y1.3237
G1 X0.9408 Y1.3346
G1 X1.0424
G1 X1.1456
G3 X1.1496 Y1.3386 I0.0 J0.004
G1 X1.1469 Y1.5161
G1 X1.1441 Y1.6936
G3 X1.1401 Y1.6976 I-0.004 J-0.0001
G1 X1.1151
G1 X1.0901
G3 X1.0861 Y1.6938 I0.0 J-0.004
G1 X1.0831 Y1.6412
G1 X1.0801 Y1.5886
G3 X1.0826 Y1.5846 I0.004 J-0.0002
G1 X1.0982 Y1.5787
G1 X1.1111 Y1.5737
G1 Y1.4725
G1 Y1.3726
G1 X1.0317
G1 X0.95
G1 X0.9331 Y1.3913
G1 X0.915 Y1.4113
G3 X0.912 Y1.4126 I-0.003 J-0.0027
G1 X0.8951
G1 X0.8782
G3 X0.8753 Y1.4113 I0.0 J-0.004
G1 X0.8572 Y1.3913
G1 X0.8403 Y1.3726
G1 X0.7036
G1 X0.5691
G1 Y1.407
G1 Y1.4437
G1 X0.5878 Y1.4606
G1 X0.6078 Y1.4787
G3 X0.6091 Y1.4817 I-0.0027 J0.003
G1 Y1.4986
G1 Y1.5155
G3 X0.6078 Y1.5184 I-0.004 J0.0
G1 X0.5895 Y1.535
G1 X0.5712 Y1.5515
G3 X0.5686 Y1.5526 I-0.0027 J-0.003
G1 X0.5534
G1 X0.5382
G3 X0.5353 Y1.5513 I0.0 J-0.004
G1 X0.5187 Y1.533
G1 X0.5022 Y1.5147
G3 X0.5011 Y1.512 I0.003 J-0.0027
G1 Y1.4965
G1 Y1.481
G3 X0.5026 Y1.4779 I0.004 J0.0
G1 X0.5176 Y1.4655
G1 X0.5311 Y1.4542
G1 Y1.3973
G1 Y1.3386
G3 X0.5351 Y1.3346 I0.004 J0.0
G1 X0.6931
G1 X0.8495
G1 X0.8603 Y1.3237
G1 X0.8711 Y1.3129
G1 Y1.0266
G1 Y0.7386
G3 X0.8751 Y0.7346 I0.004 J0.0
G1 X2.1531
G1 X2.4296 Y0.7356
G3 X2.4335 Y0.7386 I0.0 J0.004
G1 X2.4827 Y0.9356
G1 X2.7766
G1 X2.8355 Y0.7374
G3 X2.8393 Y0.7346 I0.0038 J0.0011
G1 X3.4311
G3 X3.434 Y0.7357 I0.0 J0.004
G1 X3.446 Y0.7477
G1 X3.458 Y0.7597
G3 X3.4591 Y0.7626 I-0.0028 J0.0028
G1 X3.4589 Y1.6356
G1 X3.9096
G3 X3.9097 I0.0 J0.004
G3 X3.9534 Y1.6683 I-0.0015 J0.0475
G3 X3.9536 Y1.6696 I-0.0038 J0.0012
G1 Y1.8696
G3 X3.9534 Y1.8708 I-0.004 J0.0
G3 X3.9097 Y1.9036 I-0.0452 J-0.0147
G3 X3.9096 I-0.0001 J-0.004
G1 X3.4588
G1 X3.4585 Y2.8436
G3 X3.4577 Y2.846 I-0.004 J0.0
G1 X3.4444 Y2.8635
G1 X3.4311 Y2.881
G3 X3.4279 Y2.8826 I-0.0032 J-0.0024
G1 X2.1515
G1 X0.8751
G3 X0.8711 Y2.8786 I0.0 J-0.004
G1 Y2.5901
G1 Y2.3034
G1 X0.8542 Y2.2881
G1 X0.837 Y2.2726
G1 X0.6868
G1 X0.5351
G3 X0.5311 Y2.2686 I0.0 J-0.004
G1 Y2.2148
G1 Y2.1629
G1 X0.5176 Y2.1516
G1 X0.5026 Y2.1392
G3 X0.5011 Y2.1361 I0.0026 J-0.0031
G1 Y2.1189
G1 Y2.1017
G3 X0.5024 Y2.0987 I0.004 J0.0
G1 X0.5207 Y2.0822
G1 X0.539 Y2.0656
G3 X0.5417 Y2.0646 I0.0027 J0.003
G1 X0.5569
G1 X0.572
G3 X0.575 Y2.0659 I0.0 J0.004
G1 X0.5915 Y2.0842
G1 X0.6081 Y2.1025
G3 X0.6091 Y2.1051 I-0.003 J0.0027
G1 Y2.1203
G1 Y2.1355
G3 X0.6078 Y2.1384 I-0.004 J0.0
G1 X0.5878 Y2.1565
G1 X0.5691 Y2.1734
G1 Y2.2051
G1 Y2.2346
G1 X0.7089
G1 X0.8508
G1 X0.8621 Y2.221
G1 X0.8745 Y2.206
G3 X0.8776 Y2.2046 I0.0031 J0.0026
G1 X0.8951
G1 X0.9127
G3 X0.9158 Y2.206 I0.0 J0.004
G1 X0.9282 Y2.221
G1 X0.9395 Y2.2346
G1 X1.0264
G1 X1.1111
G1 Y2.1196
G1 Y2.0035
G1 X1.0982 Y1.9985
G1 X1.0826 Y1.9925
G3 X1.0801 Y1.9886 I0.0014 J-0.0037
G1 X1.0831 Y1.936
G1 X1.0861 Y1.8833
G3 X1.0901 Y1.8796 I0.004 J0.0002
G1 X1.1151
G1 X1.1401
G3 X1.1441 Y1.8835 I0.0 J0.004
G1 X1.1468 Y2.076
G1 X1.1496 Y2.2685
G3 X1.1456 Y2.2726 I-0.004 J0.0001
G1 X1.0469
G1 X0.95
G1 X0.9346 Y2.2895
G1 X0.9191 Y2.3067
G1 Y2.5719
G1 Y2.8346
G1 X1.3651
G1 X1.8111
G1 Y2.8289
G2 X1.7993 Y2.8005 I-0.0891 J0.0205
G1 X1.7869 Y2.7806
G3 Y2.7764 I0.0034 J-0.0021
G1 X1.7979 Y2.7589
G1 X1.8089 Y2.7414
G3 X1.8123 Y2.7396 I0.0034 J0.0021
G1 X1.8351
G1 X1.8579
G3 X1.8613 Y2.7414 I0.0 J0.004
G1 X1.8723 Y2.7589
G1 X1.8834 Y2.7764
G3 Y2.7806 I-0.0034 J0.0021
G1 X1.8709 Y2.8005
G3 Y2.8007 I-0.0034 J-0.0021
G2 X1.8591 Y2.8288 I0.0611 J0.042
G1 Y2.8346
G1 X1.9151
G1 X1.9711
G1 Y2.8305
G2 X1.9576 Y2.8117 I-0.0398 J0.0144
G1 Y2.8116
G1 X1.9426 Y2.7992
G3 X1.9411 Y2.7961 I0.0026 J-0.0031
G1 Y2.7789
G1 Y2.7617
G3 X1.9424 Y2.7587 I0.004 J0.0
G1 X1.9607 Y2.7422
G1 X1.979 Y2.7256
G3 X1.9817 Y2.7246 I0.0027 J0.003
G1 X1.9969
G1 X2.012
G3 X2.015 Y2.7259 I0.0 J0.004
G1 X2.0315 Y2.7442
G1 X2.0481 Y2.7625
G3 X2.0491 Y2.7651 I-0.003 J0.0027
G1 Y2.7806
G1 Y2.7961
G3 X2.0477 Y2.7992 I-0.004 J0.0
G1 X2.0327 Y2.8116
G3 X2.0325 Y2.8118 I-0.0026 J-0.0031
G2 X2.0191 Y2.8304 I0.0207 J0.0289
G1 Y2.8346
G1 X2.4501
G1 X2.8811
G1 Y2.8201
G1 Y2.8017
G3 X2.8824 Y2.7987 I0.004 J0.0
G1 X2.9007 Y2.7822
G1 X2.919 Y2.7656
G3 X2.9217 Y2.7646 I0.0027 J0.003
G1 X2.9369
G1 X2.952
G3 X2.955 Y2.7659 I0.0 J0.004
G1 X2.9715 Y2.7842
G1 X2.9881 Y2.8025
G3 X2.9891 Y2.8051 I-0.003 J0.0027
G1 Y2.8219
G1 Y2.8346
G1 X3.1801
G1 X3.3711
G1 Y1.8086
G1 Y0.7826
G1 X3.1651
G1 X2.9591
G1 Y0.8373
G1 Y0.8942
G1 X2.9727 Y0.9055
G1 X2.9877 Y0.9179
G3 X2.9891 Y0.921 I-0.0026 J0.0031
G1 Y0.9382
G1 Y0.9555
G3 X2.9878 Y0.9584 I-0.004 J0.0
G1 X2.9695 Y0.975
G1 X2.9512 Y0.9915
G3 X2.9486 Y0.9926 I-0.0027 J-0.003
G1 X2.9334
G1 X2.9182
G3 X2.9153 Y0.9913 I0.0 J-0.004
G1 X2.8987 Y0.973
G1 X2.8822 Y0.9547
G3 X2.8811 Y0.952 I0.003 J-0.0027
G1 Y0.9365
G1 Y0.921
G3 X2.8826 Y0.9179 I0.004 J0.0
G1 X2.8976 Y0.9055
G1 X2.9111 Y0.8942
G1 Y0.8373
G1 Y0.7836
G1 X2.8925
G1 X2.8234 Y1.0008
G3 X2.8196 Y1.0036 I-0.0038 J-0.0012
G1 X2.4296
G3 X2.4257 Y1.0004 I0.0 J-0.004
G1 X2.4015 Y0.8929
G0 Z0.125
G0 X2.481 Y0.8547
G0 Z0.021
G1 F10.0 Z-0.004
G3 F25.0 X2.4806 Y0.853 I0.0036 J-0.0017
G1 Y0.8375
G1 Y0.822
G3 X2.4821 Y0.8189 I0.004 J0.0
G1 X2.4971 Y0.8065
G1 X2.51 Y0.7957
G1 X2.4866 Y0.7136
G1 X2.2094
G3 X2.2054 Y0.7097 I0.0 J-0.004
G1 X2.1977 Y0.3897
G1 Y0.3896
G1 Y0.2796
G1 Y0.2471
G1 X2.1749 Y0.2265
G1 X2.1508 Y0.2047
G3 X2.1495 Y0.2018 I0.0027 J-0.003
G1 Y0.1693
G1 Y0.1369
G3 X2.1508 Y0.134 I0.004 J0.0
G1 X2.1729 Y0.114
G1 X2.1949 Y0.0941
G3 X2.1976 Y0.0931 I0.0027 J0.003
G1 X2.2279
G1 X2.2582
G3 X2.2612 Y0.0944 I0.0 J0.004
G1 X2.2811 Y0.1164
G1 X2.3011 Y0.1384
G3 X2.3021 Y0.1411 I-0.003 J0.0027
G1 Y0.1714
G1 Y0.2018
G3 X2.3008 Y0.2047 I-0.004 J0.0
G1 X2.2767 Y0.2265
G1 X2.2539 Y0.2471
G1 Y0.2796
G1 Y0.3896
G1 X2.2635 Y0.6556
G1 X2.5396
G3 X2.5436 Y0.6591 I0.0 J0.004
G1 X2.5584 Y0.7951
G1 X2.5722 Y0.8065
G1 X2.5872 Y0.8189
G3 X2.5886 Y0.822 I-0.0026 J0.0031
G1 Y0.8392
G1 Y0.8565
G3 X2.5873 Y0.8594 I-0.004 J0.0
G1 X2.569 Y0.876
G1 X2.5507 Y0.8925
G3 X2.548 Y0.8936 I-0.0027 J-0.003
G1 X2.5329
G1 X2.5177
G3 X2.5147 Y0.8922 I0.0 J-0.004
G1 X2.4982 Y0.874
G1 X2.4816 Y0.8557
G3 X2.481 Y0.8547 I0.003 J-0.0027
G0 Z0.125
G0 Y1.0346
G0 Z0.021
G1 F10.0 Z-0.004
G1 F25.0 X2.6307
G1 X3.0551
G3 X3.0591 Y1.0386 I0.0 J0.004
G1 Y1.3486
G1 Y1.6586
G3 X3.0551 Y1.6626 I-0.004 J0.0
G1 X2.9464
G1 X2.8395
G1 X2.8282 Y1.6761
G1 X2.8158 Y1.6911
G3 X2.8127 Y1.6926 I-0.0031 J-0.0026
G1 X2.7951
G1 X2.7776
G3 X2.7745 Y1.6911 I0.0 J-0.004
G1 X2.762 Y1.6761
G1 X2.7508 Y1.6626
G1 X2.7001
G1 X2.6505
G1 X2.6459 Y1.6804
G1 X2.6405 Y1.7012
G3 X2.636 Y1.7041 I-0.0039 J-0.001
G1 X2.6128 Y1.7008
G1 X2.5896 Y1.6975
G3 X2.5861 Y1.6936 I0.0006 J-0.004
G1 Y1.6067
G1 Y1.5215
G1 X2.5748 Y1.51
G1 X2.5747
G3 X2.5611 Y1.4783 I0.0358 J-0.0341
G3 Y1.4781 I0.004 J-0.0002
G1 Y1.4617
G3 X2.5624 Y1.4587 I0.004 J0.0
G1 X2.5807 Y1.4422
G1 X2.599 Y1.4256
G3 X2.6017 Y1.4246 I0.0027 J0.003
G1 X2.6169
G1 X2.632
G3 X2.635 Y1.4259 I0.0 J0.004
G1 X2.6515 Y1.4442
G1 X2.6681 Y1.4625
G3 X2.6691 Y1.4651 I-0.003 J0.0027
G1 Y1.4806
G1 Y1.4961
G3 X2.6677 Y1.4992 I-0.004 J0.0
G1 X2.6527 Y1.5116
G1 X2.6391 Y1.5229
G1 X2.6393 Y1.5472
G2 X2.6453 Y1.5951 I0.2561 J-0.008
G1 X2.6505 Y1.6146
G1 X2.7001
G1 X2.7508
G1 X2.7621 Y1.601
G1 X2.7745 Y1.586
G3 X2.7776 Y1.5846 I0.0031 J0.0026
G1 X2.7951
G1 X2.8127
G3 X2.8158 Y1.586 I0.0 J0.004
G1 X2.8282 Y1.601
G1 X2.8395 Y1.6146
G1 X2.9264
G1 X3.0111
G1 Y1.3486
G1 Y1.0826
G1 X2.615
G1 X2.216
G1 X2.1971 Y1.0944
G1 X2.1772 Y1.1068
G3 X2.1729 I-0.0021 J-0.0034
G1 X2.1555 Y1.0958
G1 X2.138 Y1.0848
G3 X2.1362 Y1.0822 I0.0021 J-0.0034
G1 X2.1329 Y1.0653
G1 X2.1296 Y1.0484
G3 X2.1304 Y1.0451 I0.0039 J-0.0008
G1 X2.1424 Y1.0305
G1 X2.1545 Y1.016
G3 X2.1576 Y1.0146 I0.0031 J0.0026
G1 X2.1758
G1 X2.1939
G3 X2.1974 Y1.0165 I0.0 J0.004
G1 X2.2035 Y1.0265
G1 X2.2085 Y1.0346
G1 X2.481
G0 Z0.125
G0 Y1.1146
G0 Z0.021
G1 F10.0 Z-0.004
G1 F25.0 X2.6751
G1 X2.9551
G3 X2.9591 Y1.1186 I0.0 J0.004
G1 Y1.2073
G1 Y1.2942
G1 X2.9727 Y1.3055
G1 X2.9877 Y1.3179
G3 X2.9891 Y1.321 I-0.0026 J0.0031
G1 Y1.3386
G1 Y1.3561
G3 X2.9877 Y1.3592 I-0.004 J0.0
G1 X2.9727 Y1.3716
G1 X2.9591 Y1.3829
G1 Y1.3986
G1 Y1.4142
G1 X2.9727 Y1.4255
G1 X2.9877 Y1.4379
G3 X2.9891 Y1.441 I-0.0026 J0.0031
G1 Y1.4582
G1 Y1.4755
G3 X2.9878 Y1.4784 I-0.004 J0.0
G1 X2.9695 Y1.495
G1 X2.9512 Y1.5115
G3 X2.9486 Y1.5126 I-0.0027 J-0.003
G1 X2.9334
G1 X2.9182
G3 X2.9153 Y1.5113 I0.0 J-0.004
G1 X2.8987 Y1.493
G1 X2.8822 Y1.4747
G3 X2.8811 Y1.472 I0.003 J-0.0027
G1 Y1.4565
G1 Y1.441
G3 X2.8826 Y1.4379 I0.004 J0.0
G1 X2.8976 Y1.4255
G1 X2.9111 Y1.4142
G1 Y1.3986
G1 Y1.3829
G1 X2.8976 Y1.3716
G1 X2.8826 Y1.3592
G3 X2.8811 Y1.3561 I0.0026 J-0.0031
G1 Y1.3386
G1 Y1.321
G3 X2.8826 Y1.3179 I0.004 J0.0
G1 X2.8976 Y1.3055
G1 X2.9111 Y1.2942
G1 Y1.2273
G1 Y1.1626
G1 X2.6739
G1 X2.4367
G1 X2.4404 Y1.426
G1 X2.4441 Y1.6935
G3 X2.4401 Y1.6976 I-0.004 J0.0001
G1 X2.4151
G1 X2.3901
G3 X2.3861 Y1.6935 I0.0 J-0.004
G1 X2.3865 Y1.641
G1 X2.389 Y1.3535
G1 X2.3911 Y1.1185
G3 X2.3951 Y1.1146 I0.004 J0.0
G1 X2.481
G0 Z0.125
G0 X2.5159 Y1.1899
G0 Z0.021
G1 F10.0 Z-0.004
G3 F25.0 X2.5176 Y1.1896 I0.0017 J0.0036
G1 X2.5351
G1 X2.5527
G3 X2.5558 Y1.191 I0.0 J0.004
G1 X2.5682 Y1.206
G1 X2.5795 Y1.2196
G1 X2.6051
G1 X2.6308
G1 X2.6421 Y1.206
G1 X2.6545 Y1.191
G3 X2.6576 Y1.1896 I0.0031 J0.0026
G1 X2.6751
G1 X2.6927
G3 X2.6958 Y1.191 I0.0 J0.004
G1 X2.7082 Y1.206
G1 X2.7193 Y1.2194
G1 X2.7435 Y1.2178
G1 X2.7607 Y1.2022
G1 X2.779 Y1.1856
G3 X2.7817 Y1.1846 I0.0027 J0.003
G1 X2.7969
G1 X2.812
G3 X2.815 Y1.1859 I0.0 J0.004
G1 X2.8315 Y1.2042
G1 X2.8481 Y1.2225
G3 X2.8491 Y1.2251 I-0.003 J0.0027
G1 Y1.2406
G1 Y1.2561
G3 X2.8477 Y1.2592 I-0.004 J0.0
G1 X2.8327 Y1.2716
G1 X2.8177 Y1.2841
G3 X2.8151 Y1.285 I-0.0026 J-0.0031
G1 X2.7751
G3 X2.7726 Y1.2841 I0.0 J-0.004
G1 X2.7576 Y1.2716
G1 X2.7442 Y1.2605
G1 X2.7198 Y1.2671
G1 X2.7082 Y1.2811
G1 X2.6958 Y1.2961
G3 X2.6927 Y1.2976 I-0.0031 J-0.0026
G1 X2.6755
G1 X2.6582
G3 X2.6553 Y1.2963 I0.0 J-0.004
G1 X2.6372 Y1.2763
G1 X2.6203 Y1.2576
G1 X2.6051
G1 X2.59
G1 X2.5731 Y1.2763
G1 X2.555 Y1.2963
G3 X2.552 Y1.2976 I-0.003 J-0.0027
G1 X2.5421
G1 X2.5291 Y1.3889
G1 Y1.4816
G1 Y1.5729
G1 X2.5386 Y1.5823
G1 X2.5492 Y1.593
G3 X2.5503 Y1.596 I-0.0028 J0.0028
G1 X2.5472 Y1.6449
G1 X2.5441 Y1.6938
G3 X2.5401 Y1.6976 I-0.004 J-0.0003
G1 X2.5151
G1 X2.4901
G3 X2.4861 Y1.6935 I0.0 J-0.004
G1 X2.4879 Y1.5055
G1 X2.4896 Y1.3175
G1 X2.4856 Y1.2297
G3 X2.4864 Y1.2272 I0.004 J-0.0002
G1 X2.5024 Y1.2056
G3 X2.5025 Y1.2055 I0.0032 J0.0024
G1 X2.5145 Y1.191
G3 X2.5159 Y1.1899 I0.0031 J0.0026
G0 Z0.125
G0 X2.3681 Y1.3225
G0 Z0.021
G1 F10.0 Z-0.004
G3 F25.0 X2.3691 Y1.3251 I-0.003 J0.0027
G1 Y1.3406
G1 Y1.3561
G3 X2.3677 Y1.3592 I-0.004 J0.0
G1 X2.3512 Y1.3729
G1 X2.3363 Y1.3853
G1 X2.3425 Y1.5354
G1 X2.3487 Y1.6875
G3 X2.3469 Y1.691 I-0.004 J0.0002
G1 X2.337 Y1.6971
G1 X2.3291 Y1.702
G1 Y1.7192
G1 Y1.7346
G1 X2.7401
G1 X3.1511
G1 Y1.7305
G2 X3.1376 Y1.7117 I-0.0398 J0.0144
G1 X3.1226 Y1.6992
G3 X3.1211 Y1.6961 I0.0026 J-0.0031
G1 Y1.6786
G1 Y1.661
G3 X3.1226 Y1.6579 I0.004 J0.0
G1 X3.1376 Y1.6455
G1 X3.1511 Y1.6342
G1 Y1.5586
G1 Y1.4829
G1 X3.1376 Y1.4716
G1 X3.1226 Y1.4592
G3 X3.1211 Y1.4561 I0.0026 J-0.0031
G1 Y1.4389
G1 Y1.4217
G3 X3.1224 Y1.4187 I0.004 J0.0
G1 X3.1407 Y1.4022
G1 X3.159 Y1.3856
G3 X3.1617 Y1.3846 I0.0027 J0.003
G1 X3.1769
G1 X3.192
G3 X3.195 Y1.3859 I0.0 J0.004
G1 X3.2115 Y1.4042
G1 X3.2281 Y1.4225
G3 X3.2291 Y1.4251 I-0.003 J0.0027
G1 Y1.4403
G1 Y1.4555
G3 X3.2278 Y1.4584 I-0.004 J0.0
G1 X3.2078 Y1.4765
G1 X3.1891 Y1.4934
G1 Y1.5586
G1 Y1.6237
G1 X3.2061 Y1.6391
G1 X3.2232 Y1.6546
G1 X3.2634
G1 X3.3051
G3 X3.3091 Y1.6586 I0.0 J0.004
G1 Y1.9736
G1 Y2.2886
G3 X3.3051 Y2.2926 I-0.004 J0.0
G1 X3.2467
G1 X3.19
G1 X3.1731 Y2.3113
G1 X3.155 Y2.3313
G3 X3.152 Y2.3326 I-0.003 J-0.0027
G1 X3.1351
G1 X3.1182
G3 X3.1153 Y2.3313 I0.0 J-0.004
G1 X3.0987 Y2.313
G1 X3.0822 Y2.2947
G3 X3.0811 Y2.292 I0.003 J-0.0027
G1 Y2.2768
G1 Y2.2617
G3 X3.0824 Y2.2587 I0.004 J0.0
G1 X3.1007 Y2.2422
G1 X3.119 Y2.2256
G3 X3.1217 Y2.2246 I0.0027 J0.003
G1 X3.1372
G1 X3.1527
G3 X3.1558 Y2.226 I0.0 J0.004
G1 X3.1682 Y2.241
G1 X3.1795 Y2.2546
G1 X3.2264
G1 X3.2711
G1 Y1.9736
G1 Y1.6926
G1 X3.2519
G1 X3.2303
G1 X3.2098 Y1.7145
G1 X3.1891 Y1.7364
G1 Y1.7517
G1 Y1.7686
G3 X3.1851 Y1.7726 I-0.004 J0.0
G1 X1.8251
G1 X0.4691
G1 Y1.7731
G2 X0.4808 Y1.7964 I0.0747 J-0.0229
G3 X0.4809 Y1.7966 I-0.0032 J0.0024
G1 X0.4934 Y1.8165
G3 Y1.8208 I-0.0034 J0.0021
G1 X0.4828 Y1.8376
G3 X0.4827 Y1.8377 I-0.0034 J-0.0021
G3 X0.4542 Y1.8661 I-0.0939 J-0.0655
G3 X0.4541 Y1.8662 I-0.0023 J-0.0033
G1 X0.4373 Y1.8769
G3 X0.433 I-0.0021 J-0.0034
G1 X0.4162 Y1.8662
G3 X0.4161 I0.0021 J-0.0034
G3 X0.3875 Y1.8377 I0.0577 J-0.0863
G3 Y1.8376 I0.0033 J-0.0022
G1 X0.3769 Y1.8208
G3 Y1.8165 I0.0034 J-0.0021
G1 X0.3893 Y1.7967
G2 X0.3998 Y1.7758 I-0.2246 J-0.1268
G2 X0.3755 Y1.7726 I-0.0191 J0.0501
G3 X0.3751 I-0.0004 J-0.004
G1 X0.3491
G1 Y2.1036
G1 Y2.4346
G1 X0.5289
G1 X0.7108
G1 X0.722 Y2.421
G1 X0.7345 Y2.406
G3 X0.7376 Y2.4046 I0.0031 J0.0026
G1 X0.7548
G1 X0.772
G3 X0.775 Y2.4059 I0.0 J0.004
G1 X0.7915 Y2.4242
G1 X0.8081 Y2.4425
G3 X0.8091 Y2.4451 I-0.003 J0.0027
G1 Y2.4603
G1 Y2.4755
G3 X0.8078 Y2.4784 I-0.004 J0.0
G1 X0.7895 Y2.495
G1 X0.7712 Y2.5115
G3 X0.7686 Y2.5126 I-0.0027 J-0.003
G1 X0.7534
G1 X0.7382
G3 X0.7353 Y2.5113 I0.0 J-0.004
G1 X0.7172 Y2.4913
G1 X0.7003 Y2.4726
G1 X0.5086
G1 X0.3151
G3 X0.3111 Y2.4686 I0.0 J-0.004
G1 Y1.7936
G1 Y1.1186
G3 X0.3151 Y1.1146 I0.004 J0.0
G1 X0.5139
G1 X0.7108
G1 X0.722 Y1.101
G1 X0.7345 Y1.086
G3 X0.7376 Y1.0846 I0.0031 J0.0026
G1 X0.7548
G1 X0.772
G3 X0.775 Y1.0859 I0.0 J0.004
G1 X0.7915 Y1.1042
G1 X0.8081 Y1.1225
G3 X0.8091 Y1.1251 I-0.003 J0.0027
G1 Y1.1403
G1 Y1.1555
G3 X0.8078 Y1.1584 I-0.004 J0.0
G1 X0.7895 Y1.175
G1 X0.7712 Y1.1915
G3 X0.7686 Y1.1926 I-0.0027 J-0.003
G1 X0.7534
G1 X0.7382
G3 X0.7353 Y1.1913 I0.0 J-0.004
G1 X0.7172 Y1.1713
G1 X0.7003 Y1.1526
G1 X0.5236
G1 X0.3491
G1 Y1.4436
G1 Y1.7346
G1 X0.3612
G1 X0.3753
G1 X0.3938 Y1.7111
G1 X0.4134 Y1.6861
G3 X0.4166 Y1.6846 I0.0031 J0.0025
G1 X0.4351
G1 X0.4537
G3 X0.4568 Y1.6861 I0.0 J0.004
G1 X0.4765 Y1.7111
G1 X0.4949 Y1.7346
G1 X0.6934
G1 X0.8897
G1 X0.888 Y1.6612
G1 X0.8861 Y1.5837
G3 X0.8901 Y1.5796 I0.004 J-0.0001
G1 X0.9151
G1 X0.9401
G3 X0.9441 Y1.5833 I0.0 J0.004
G1 X0.9472 Y1.6322
G1 X0.9503 Y1.6811
G3 X0.9492 Y1.6842 I-0.004 J0.0003
G1 X0.9387 Y1.6946
G2 X0.9291 Y1.7206 I0.0351 J0.0277
G1 Y1.7346
G1 X1.6076
G1 X2.2862
G1 X2.2889 Y1.56
G1 X2.2917 Y1.3834
G1 X2.2779 Y1.3719
G1 X2.2626 Y1.3592
G3 X2.2611 Y1.3561 I0.0026 J-0.0031
G1 Y1.3389
G1 Y1.3217
G3 X2.2624 Y1.3187 I0.004 J0.0
G1 X2.2807 Y1.3022
G1 X2.299 Y1.2856
G3 X2.3017 Y1.2846 I0.0027 J0.003
G1 X2.3169
G1 X2.332
G3 X2.335 Y1.2859 I0.0 J0.004
G1 X2.3515 Y1.3042
G1 X2.3681 Y1.3225
G0 Z0.125
G0 X2.2291
G0 Z0.021
G1 F10.0 Z-0.004
G1 F25.0 Y1.4466
G1 Y1.5729
G1 X2.2386 Y1.5823
G1 X2.2492 Y1.593
G3 X2.2503 Y1.596 I-0.0028 J0.0028
G1 X2.2472 Y1.6449
G1 X2.2441 Y1.6938
G3 X2.2401 Y1.6976 I-0.004 J-0.0003
G1 X2.2151
G1 X2.1901
G3 X2.1861 Y1.6935 I0.0 J-0.004
G1 X2.19 Y1.521
G1 X2.1937 Y1.3526
G1 X2.0865
G1 X1.9751
G3 X1.9711 Y1.3486 I0.0 J-0.004
G1 Y1.3148
G1 Y1.2829
G1 X1.9571 Y1.2712
G1 X1.9416 Y1.2584
G3 X1.9402 Y1.2548 I0.0026 J-0.0031
G1 X1.9429 Y1.2339
G1 X1.9454 Y1.2147
G1 X1.9222 Y1.1835
G1 X1.8994 Y1.1526
G1 X1.8232
G1 X1.7491
G1 Y1.277
G1 Y1.4037
G1 X1.7678 Y1.4206
G1 X1.7878 Y1.4387
G3 X1.7891 Y1.4417 I-0.0027 J0.003
G1 Y1.4586
G1 Y1.4755
G3 X1.7878 Y1.4784 I-0.004 J0.0
G1 X1.7695 Y1.495
G1 X1.7512 Y1.5115
G3 X1.7486 Y1.5126 I-0.0027 J-0.003
G1 X1.7334
G1 X1.7182
G3 X1.7153 Y1.5113 I0.0 J-0.004
G1 X1.6987 Y1.493
G1 X1.6822 Y1.4747
G3 X1.6811 Y1.472 I0.003 J-0.0027
G1 Y1.4565
G1 Y1.441
G3 X1.6826 Y1.4379 I0.004 J0.0
G1 X1.6976 Y1.4255
G1 X1.7111 Y1.4142
G1 Y1.2673
G1 Y1.1186
G3 X1.7151 Y1.1146 I0.004 J0.0
G1 X1.8226
G1 X1.9301
G3 X1.9333 Y1.1161 I0.0 J0.004
G1 X1.9612 Y1.1511
G1 X1.9879 Y1.1846
G1 X1.999
G3 X1.9999 Y1.1847 I0.0 J0.004
G3 X2.0316 Y1.2043 I-0.0123 J0.0555
G1 X2.0481 Y1.2225
G3 X2.0491 Y1.2251 I-0.003 J0.0027
G1 Y1.2403
G1 Y1.2555
G3 X2.0478 Y1.2584 I-0.004 J0.0
G1 X2.0278 Y1.2765
G1 X2.0091 Y1.2934
G1 Y1.3051
G1 Y1.3146
G1 X2.1151
G1 X2.2251
G3 X2.2291 Y1.3186 I0.0 J0.004
G1 Y1.3225
G0 Z0.125
G0 X2.1347 Y1.4256
G0 Z0.021
G1 F10.0 Z-0.004
G3 F25.0 X2.135 Y1.4259 I-0.0027 J0.003
G1 X2.1515 Y1.4442
G1 X2.1516
G3 X2.169 Y1.4791 I-0.0552 J0.0495
G3 X2.1691 Y1.4802 I-0.0039 J0.0008
G3 X2.1555 Y1.51 I-0.0483 J-0.004
G1 X2.1441 Y1.5215
G1 Y1.6067
G1 Y1.6936
G3 X2.1401 Y1.6976 I-0.004 J0.0
G1 X2.1151
G1 X2.0901
G3 X2.0861 Y1.6936 I0.0 J-0.004
G1 Y1.6086
G1 Y1.5248
G1 X2.0787 Y1.5132
G1 X2.0718 Y1.5026
G1 X1.9545
G1 X1.8351
G3 X1.8311 Y1.4986 I0.0 J-0.004
G1 Y1.3898
G1 Y1.2829
G1 X1.8176 Y1.2716
G1 X1.8026 Y1.2592
G3 X1.8011 Y1.2561 I0.0026 J-0.0031
G1 Y1.2389
G1 Y1.2217
G3 X1.8024 Y1.2187 I0.004 J0.0
G1 X1.8207 Y1.2022
G1 X1.839 Y1.1856
G3 X1.8417 Y1.1846 I0.0027 J0.003
G1 X1.8569
G1 X1.872
G3 X1.875 Y1.1859 I0.0 J0.004
G1 X1.8915 Y1.2042
G1 X1.9081 Y1.2225
G3 X1.9091 Y1.2251 I-0.003 J0.0027
G1 Y1.2406
G1 Y1.2561
G3 X1.9077 Y1.2592 I-0.004 J0.0
G1 X1.8927 Y1.2716
G1 X1.8791 Y1.2829
G1 Y1.3698
G1 Y1.4546
G1 X1.9739
G1 X2.0708
G1 X2.0821 Y1.441
G1 X2.0945 Y1.426
G3 X2.0976 Y1.4246 I0.0031 J0.0026
G1 X2.1148
G1 X2.132
G3 X2.1347 Y1.4256 I0.0 J0.004
G0 Z0.125
G0 X2.0422 Y1.5801
G0 Z0.021
G1 F10.0 Z-0.004
G3 F25.0 X2.0441 Y1.5836 I-0.0021 J0.0034
G1 Y1.6386
G1 Y1.6936
G3 X2.0407 Y1.6975 I-0.004 J0.0
G1 X2.0175 Y1.7008
G1 X1.9942 Y1.7041
G3 X1.9898 Y1.7012 I-0.0006 J-0.004
G1 X1.9844 Y1.6804
G1 X1.9797 Y1.6626
G1 X1.9402
G1 X1.8995
G1 X1.8882 Y1.6761
G1 X1.8758 Y1.6911
G3 X1.8727 Y1.6926 I-0.0031 J-0.0026
G1 X1.8555
G1 X1.8382
G3 X1.8353 Y1.6913 I0.0 J-0.004
G1 X1.8172 Y1.6713
G1 X1.8003 Y1.6526
G1 X1.7086
G1 X1.6151
G3 X1.6111 Y1.6486 I0.0 J-0.004
G1 Y1.4148
G1 Y1.1829
G1 X1.5976 Y1.1716
G1 X1.5826 Y1.1592
G3 X1.5811 Y1.1561 I0.0026 J-0.0031
G1 Y1.1389
G1 Y1.1217
G3 X1.5824 Y1.1187 I0.004 J0.0
G1 X1.6007 Y1.1022
G1 X1.619 Y1.0856
G3 X1.6217 Y1.0846 I0.0027 J0.003
G1 X1.6369
G1 X1.652
G3 X1.655 Y1.0859 I0.0 J0.004
G1 X1.6715 Y1.1042
G1 X1.6881 Y1.1225
G3 X1.6891 Y1.1251 I-0.003 J0.0027
G1 Y1.1403
G1 Y1.1555
G3 X1.6878 Y1.1584 I-0.004 J0.0
G1 X1.6678 Y1.1765
G1 X1.6491 Y1.1934
G1 Y1.4051
G1 Y1.6146
G1 X1.7289
G1 X1.8108
G1 X1.8221 Y1.601
G1 X1.8345 Y1.586
G3 X1.8376 Y1.5846 I0.0031 J0.0026
G1 X1.8551
G1 X1.8727
G3 X1.8758 Y1.586 I0.0 J0.004
G1 X1.8882 Y1.601
G1 X1.8995 Y1.6146
G1 X1.9402
G1 X1.9797
G1 X1.9844 Y1.5968
G1 X1.9898 Y1.576
G3 X1.9942 Y1.573 I0.0039 J0.001
G1 X2.0175 Y1.5763
G1 X2.0407 Y1.5796
G3 X2.0422 Y1.5801 I-0.0006 J0.004
G0 Z0.125
G0 Y1.7946
G0 Z0.021
G1 F10.0 Z-0.004
G1 F25.0 X3.1851
G3 X3.1891 Y1.7986 I0.0 J0.004
G1 Y1.822
G1 Y1.8437
G1 X3.2078 Y1.8606
G1 X3.2278 Y1.8787
G3 X3.2291 Y1.8817 I-0.0027 J0.003
G1 Y1.8986
G1 Y1.9155
G3 X3.2278 Y1.9184 I-0.004 J0.0
G1 X3.2078 Y1.9365
G1 X3.1891 Y1.9534
G1 Y2.0086
G1 Y2.0637
G1 X3.2078 Y2.0806
G1 X3.2278 Y2.0987
G3 X3.2291 Y2.1017 I-0.0027 J0.003
G1 Y2.1186
G1 Y2.1355
G3 X3.2278 Y2.1384 I-0.004 J0.0
G1 X3.2095 Y2.155
G1 X3.1912 Y2.1715
G3 X3.1886 Y2.1726 I-0.0027 J-0.003
G1 X3.1734
G1 X3.1582
G3 X3.1553 Y2.1713 I0.0 J-0.004
G1 X3.1387 Y2.153
G1 X3.1222 Y2.1347
G3 X3.1211 Y2.132 I0.003 J-0.0027
G1 Y2.1165
G1 Y2.101
G3 X3.1226 Y2.0979 I0.004 J0.0
G1 X3.1376 Y2.0855
G1 X3.1511 Y2.0742
G1 Y2.0086
G1 Y1.9429
G1 X3.1376 Y1.9316
G1 X3.1226 Y1.9192
G3 X3.1211 Y1.9161 I0.0026 J-0.0031
G1 Y1.8986
G1 Y1.881
G3 X3.1226 Y1.8779 I0.004 J0.0
G1 X3.1376 Y1.8655
G1 X3.1511 Y1.8542
G1 Y1.8423
G1 Y1.8326
G1 X3.0661
G1 X2.9822
G1 X2.9861 Y1.8476
G1 X2.9914 Y1.8677
G3 X2.9906 Y1.8712 I-0.0039 J0.001
G1 X2.9788 Y1.8854
G1 X2.9689 Y1.8973
G1 X2.9804 Y1.9157
G1 X2.9934 Y1.9365
G3 Y1.9408 I-0.0034 J0.0021
G1 X2.9828 Y1.9576
G3 X2.9827 Y1.9577 I-0.0034 J-0.0021
G3 X2.9542 Y1.9861 I-0.0938 J-0.0654
G3 X2.9541 Y1.9862 I-0.0023 J-0.0033
G1 X2.9373 Y1.9969
G3 X2.933 I-0.0021 J-0.0034
G1 X2.9162 Y1.9862
G3 X2.9161 I0.0021 J-0.0034
G3 X2.8875 Y1.9577 I0.0578 J-0.0863
G3 Y1.9576 I0.0033 J-0.0022
G1 X2.8769 Y1.9408
G3 Y1.9365 I0.0034 J-0.0021
G1 X2.8899 Y1.9157
G1 X2.9014 Y1.8973
G1 X2.8914 Y1.8854
G1 X2.8797 Y1.8712
G3 X2.8789 Y1.8677 I0.0031 J-0.0026
G1 X2.8841 Y1.8476
G1 X2.8881 Y1.8326
G1 X2.6092
G1 X2.3291
G1 Y1.8516
G1 Y1.8729
G1 X2.3386 Y1.8823
G1 X2.3492 Y1.893
G3 X2.3503 Y1.896 I-0.0028 J0.0028
G1 X2.3472 Y1.9449
G1 X2.3441 Y1.9938
G3 X2.3401 Y1.9976 I-0.004 J-0.0003
G1 X2.3151
G1 X2.2901
G3 X2.2861 Y1.9935 I0.0 J-0.004
G1 X2.2883 Y1.911
G1 X2.2904 Y1.8326
G1 X2.0358
G1 X1.7822
G1 X1.7861 Y1.8476
G1 X1.7914 Y1.8677
G3 X1.7906 Y1.8712 I-0.0039 J0.001
G1 X1.7788 Y1.8854
G1 X1.7689 Y1.8973
G1 X1.7804 Y1.9157
G1 X1.7934 Y1.9365
G3 Y1.9408 I-0.0034 J0.0021
G1 X1.7828 Y1.9576
G3 X1.7827 Y1.9577 I-0.0034 J-0.0021
G3 X1.7542 Y1.9861 I-0.0938 J-0.0654
G3 X1.7541 Y1.9862 I-0.0023 J-0.0033
G1 X1.7373 Y1.9969
G3 X1.733 I-0.0021 J-0.0034
G1 X1.7162 Y1.9862
G3 X1.7161 I0.0021 J-0.0034
G3 X1.6875 Y1.9577 I0.0578 J-0.0863
G3 Y1.9576 I0.0033 J-0.0022
G1 X1.6769 Y1.9408
G3 Y1.9365 I0.0034 J-0.0021
G1 X1.6899 Y1.9157
G1 X1.7014 Y1.8973
G1 X1.6914 Y1.8854
G1 X1.6797 Y1.8712
G3 X1.6789 Y1.8677 I0.0031 J-0.0026
G1 X1.6841 Y1.8476
G1 X1.6881 Y1.8326
G1 X1.6356
G1 X1.5827
G1 X1.5862 Y1.8509
G1 X1.5907 Y1.874
G3 X1.5893 Y1.8779 I-0.0039 J0.0008
G1 X1.5735 Y1.891
G1 X1.5591 Y1.9029
G1 Y1.9886
G1 Y2.0742
G1 X1.5727 Y2.0855
G1 X1.5877 Y2.0979
G3 X1.5891 Y2.101 I-0.0026 J0.0031
G1 Y2.1186
G1 Y2.1361
G3 X1.5877 Y2.1392 I-0.004 J0.0
G1 X1.5727 Y2.1516
G1 X1.5591 Y2.1629
G1 Y2.3598
G1 Y2.5546
G1 X1.8251
G1 X2.0911
G1 Y2.4886
G1 Y2.4186
G3 X2.0951 Y2.4146 I0.004 J0.0
G1 X2.1353
G1 X2.1743
G1 X2.1932 Y2.4028
G1 X2.2131 Y2.3903
G3 X2.2173 I0.0021 J0.0034
G1 X2.2348 Y2.4014
G1 X2.2523 Y2.4124
G3 X2.2541 Y2.4158 I-0.0021 J0.0034
G1 Y2.4386
G1 Y2.4614
G3 X2.2523 Y2.4648 I-0.004 J0.0
G1 X2.2348 Y2.4758
G1 X2.2173 Y2.4868
G3 X2.2131 I-0.0021 J-0.0034
G1 X2.1932 Y2.4744
G2 X2.1551 Y2.4626 I-0.044 J0.0744
G1 X2.1391
G1 Y2.5286
G1 Y2.5986
G3 X2.1351 Y2.6026 I-0.004 J0.0
G1 X1.8251
G1 X1.5151
G3 X1.5111 Y2.5986 I0.0 J-0.004
G1 Y2.3798
G1 Y2.1629
G1 X1.4976 Y2.1516
G1 X1.4826 Y2.1392
G3 X1.4811 Y2.1361 I0.0026 J-0.0031
G1 Y2.1186
G1 Y2.101
G3 X1.4826 Y2.0979 I0.004 J0.0
G1 X1.4976 Y2.0855
G1 X1.5111 Y2.0742
G1 Y1.9886
G1 Y1.9029
G1 X1.4968 Y1.891
G1 X1.481 Y1.8779
G3 X1.4796 Y1.874 I0.0026 J-0.0031
G1 X1.484 Y1.8509
G1 X1.4875 Y1.8326
G1 X1.2087
G1 X0.9291
G1 Y1.8516
G1 Y1.8729
G1 X0.9386 Y1.8823
G1 X0.9492 Y1.893
G3 X0.9503 Y1.896 I-0.0028 J0.0028
G1 X0.9472 Y1.9448
G1 X0.9441 Y1.9936
G3 X0.9409 Y1.9973 I-0.004 J-0.0003
G1 X0.9223 Y2.0008
G1 X0.9038 Y2.0044
G3 X0.9002 Y2.0033 I-0.0007 J-0.0039
G1 X0.8901 Y1.9932
G1 X0.88 Y1.9831
G3 X0.8789 Y1.98 I0.0028 J-0.0028
G1 X0.8861 Y1.8891
G1 X0.8933 Y1.7983
G3 X0.8973 Y1.7946 I0.004 J0.0003
G1 X2.0412
G1 X2.0422
G0 Z0.125
G0 X2.0139 Y1.8717
G0 Z0.021
G1 F10.0 Z-0.004
G1 F25.0 X2.0308 Y1.8781
G1 X2.0476 Y1.8846
G3 X2.0502 Y1.8886 I-0.0014 J0.0037
G1 X2.0471 Y1.9412
G1 X2.0441 Y1.9938
G3 X2.0401 Y1.9976 I-0.004 J-0.0002
G1 X2.0151
G1 X1.9901
G3 X1.9861 Y1.994 I0.0 J-0.004
G1 X1.983 Y1.9615
G1 X1.9802 Y1.9326
G1 X1.9562
G1 X1.9303
G1 X1.9098 Y1.9545
G1 X1.8891 Y1.9764
G1 Y2.0117
G1 Y2.0486
G3 X1.8851 Y2.0526 I-0.004 J0.0
G1 X1.7651
G1 X1.6491
G1 Y2.227
G1 Y2.4037
G1 X1.6678 Y2.4206
G1 X1.6878 Y2.4387
G3 X1.6891 Y2.4417 I-0.0027 J0.003
G1 Y2.4586
G1 Y2.4755
G3 X1.6878 Y2.4784 I-0.004 J0.0
G1 X1.6695 Y2.495
G1 X1.6512 Y2.5115
G3 X1.6486 Y2.5126 I-0.0027 J-0.003
G1 X1.6334
G1 X1.6182
G3 X1.6153 Y2.5113 I0.0 J-0.004
G1 X1.5987 Y2.493
G1 X1.5822 Y2.4747
G3 X1.5811 Y2.472 I0.003 J-0.0027
G1 Y2.4565
G1 Y2.441
G3 X1.5826 Y2.4379 I0.004 J0.0
G1 X1.5976 Y2.4255
G1 X1.6111 Y2.4142
G1 Y2.2173
G1 Y2.0186
G3 X1.6151 Y2.0146 I0.004 J0.0
G1 X1.7351
G1 X1.8511
G1 Y1.9898
G1 Y1.9629
G1 X1.8376 Y1.9516
G1 X1.8226 Y1.9392
G3 X1.8211 Y1.9361 I0.0026 J-0.0031
G1 Y1.9189
G1 Y1.9017
G3 X1.8224 Y1.8987 I0.004 J0.0
G1 X1.8407 Y1.8822
G1 X1.859 Y1.8656
G3 X1.8617 Y1.8646 I0.0027 J0.003
G1 X1.8772
G1 X1.8927
G3 X1.8958 Y1.866 I0.0 J0.004
G1 X1.9082 Y1.881
G1 X1.9195 Y1.8946
G1 X1.9465
G1 X1.9743
G1 X1.9918 Y1.8836
G1 X2.0104 Y1.872
G3 X2.0139 Y1.8717 I0.0021 J0.0034
G0 Z0.125
G0 X2.0862 Y1.883
G0 Z0.021
G1 F10.0 Z-0.004
G3 F25.0 X2.0896 Y1.8796 I0.004 J0.0006
G1 X2.1111 Y1.8765
G1 X2.1327 Y1.8735
G3 X2.1366 Y1.8753 I0.0006 J0.004
G1 X2.1436 Y1.8866
G1 X2.1505 Y1.8978
G3 X2.1511 Y1.9002 I-0.0034 J0.0021
G1 X2.1442 Y1.9876
G1 X2.1375 Y2.0729
G1 X2.1518 Y2.0847
G1 X2.1677 Y2.0979
G3 X2.1691 Y2.101 I-0.0026 J0.0031
G1 Y2.1186
G1 Y2.1361
G3 X2.1677 Y2.1392 I-0.004 J0.0
G1 X2.1511 Y2.1529
G1 X2.1346 Y2.1666
G3 X2.1319 Y2.1676 I-0.0026 J-0.0031
G1 X2.0135 Y2.164
G1 X1.8991 Y2.1606
G1 Y2.2263
G1 Y2.2942
G1 X1.9127 Y2.3055
G1 X1.9277 Y2.3179
G3 X1.9291 Y2.321 I-0.0026 J0.0031
G1 Y2.3382
G1 Y2.3555
G3 X1.9278 Y2.3584 I-0.004 J0.0
G1 X1.9095 Y2.375
G1 X1.8912 Y2.3915
G3 X1.8886 Y2.3926 I-0.0027 J-0.003
G1 X1.8734
G1 X1.8582
G3 X1.8553 Y2.3913 I0.0 J-0.004
G1 X1.8387 Y2.373
G1 X1.8222 Y2.3547
G3 X1.8211 Y2.352 I0.003 J-0.0027
G1 Y2.3365
G1 Y2.321
G3 X1.8226 Y2.3179 I0.004 J0.0
G1 X1.8376 Y2.3055
G1 X1.8511 Y2.2942
G1 Y2.2073
G1 Y2.1186
G3 X1.8551 Y2.1146 I0.004 J0.0
G1 X1.9577
G1 X2.0582
G1 X2.0719 Y2.0939
G1 X2.0861 Y2.0724
G1 Y1.9786
G1 Y1.8836
G3 X2.0862 Y1.883 I0.004 J0.0
G0 Z0.125
G0 X2.1861 Y1.8835
G0 Z0.021
G1 F10.0 Z-0.004
G3 F25.0 X2.1896 Y1.8796 I0.004 J0.0
G1 X2.21 Y1.8767
G1 X2.2304 Y1.8738
G3 X2.2338 Y1.8749 I0.0006 J0.004
G1 X2.2409 Y1.882
G1 X2.248 Y1.8891
G3 X2.2491 Y1.8919 I-0.0028 J0.0028
G1 Y1.9396
G1 Y1.9874
G3 X2.2472 Y1.9908 I-0.004 J0.0
G1 X2.2372 Y1.997
G1 X2.2291 Y2.002
G1 Y2.1342
G1 Y2.2686
G3 X2.2251 Y2.2726 I-0.004 J0.0
G1 X2.1151
G1 X2.0091
G1 Y2.297
G1 Y2.3237
G1 X2.0278 Y2.3406
G1 X2.0478 Y2.3587
G3 X2.0491 Y2.3617 I-0.0027 J0.003
G1 Y2.3786
G1 Y2.3955
G3 X2.0478 Y2.3984 I-0.004 J0.0
G1 X2.0278 Y2.4165
G1 X2.0091 Y2.4334
G1 Y2.4601
G1 Y2.4886
G3 X2.0051 Y2.4926 I-0.004 J0.0
G1 X1.8601
G1 X1.7151
G3 X1.7111 Y2.4886 I0.0 J-0.004
G1 Y2.4348
G1 Y2.3829
G1 X1.6976 Y2.3716
G1 X1.6826 Y2.3592
G3 X1.6811 Y2.3561 I0.0026 J-0.0031
G1 Y2.3389
G1 Y2.3217
G3 X1.6824 Y2.3187 I0.004 J0.0
G1 X1.7007 Y2.3022
G1 X1.719 Y2.2856
G3 X1.7217 Y2.2846 I0.0027 J0.003
G1 X1.7369
G1 X1.752
G3 X1.755 Y2.2859 I0.0 J0.004
G1 X1.7715 Y2.3042
G1 X1.7881 Y2.3225
G3 X1.7891 Y2.3251 I-0.003 J0.0027
G1 Y2.3403
G1 Y2.3555
G3 X1.7878 Y2.3584 I-0.004 J0.0
G1 X1.7678 Y2.3765
G1 X1.7491 Y2.3934
G1 Y2.4251
G1 Y2.4546
G1 X1.8601
G1 X1.9711
G1 Y2.4398
G1 Y2.4229
G1 X1.9576 Y2.4116
G1 X1.9426 Y2.3992
G3 X1.9411 Y2.3961 I0.0026 J-0.0031
G1 Y2.3786
G1 Y2.361
G3 X1.9426 Y2.3579 I0.004 J0.0
G1 X1.9576 Y2.3455
G1 X1.9711 Y2.3342
G1 Y2.2873
G1 Y2.2386
G3 X1.9751 Y2.2346 I0.004 J0.0
G1 X2.0865
G1 X2.1937
G1 X2.19 Y2.0612
G1 X2.1861 Y1.8837
G3 Y1.8835 I0.004 J-0.0001
G0 Z0.125
G0 X2.3861 Y1.8836
G0 Z0.021
G1 F10.0 Z-0.004
G3 F25.0 X2.3896 Y1.8796 I0.004 J0.0
G1 X2.4121 Y1.8764
G1 X2.4346 Y1.8732
G3 X2.4391 Y1.8765 I0.0006 J0.004
G1 X2.4405 Y1.8847
G3 X2.4406 Y1.8854 I-0.0039 J0.0007
G1 Y2.0257
G3 X2.4394 Y2.1661 I-12.4904 J-0.0333
G1 X2.4367 Y2.4346
G1 X2.6589
G1 X2.8811
G1 Y2.4206
G1 Y2.4205
G3 X2.8929 Y2.3892 I0.0495 J0.0007
G3 X2.8931 Y2.3889 I0.003 J0.0026
G1 X2.9017 Y2.3803
G1 X2.8901 Y2.3618
G1 X2.8769 Y2.3406
G3 Y2.3364 I0.0034 J-0.0021
G1 X2.8875 Y2.3196
G3 X2.8876 Y2.3194 I0.0034 J0.0021
G3 X2.916 Y2.291 I0.0938 J0.0654
G3 X2.9162 Y2.2909 I0.0023 J0.0033
G1 X2.933 Y2.2803
G3 X2.9373 I0.0021 J0.0034
G1 X2.9541 Y2.2909
G3 X2.9542 Y2.291 I-0.0021 J0.0034
G3 X2.9827 Y2.3195 I-0.0578 J0.0863
G3 X2.9828 Y2.3196 I-0.0033 J0.0022
G1 X2.9934 Y2.3364
G3 Y2.3406 I-0.0034 J0.0021
G1 X2.9801 Y2.3618
G1 X2.9686 Y2.3803
G1 X2.9771 Y2.3889
G3 X2.9774 Y2.3892 I-0.0028 J0.0028
G3 X2.9888 Y2.4178 I-0.0387 J0.032
G3 X2.9887 Y2.4188 I-0.004 J0.0003
G3 X2.9687 Y2.4587 I-0.0813 J-0.0159
G1 X2.95 Y2.4811
G3 X2.9469 Y2.4826 I-0.0031 J-0.0026
G1 X2.671
G1 X2.3951
G3 X2.3911 Y2.4786 I0.0 J-0.004
G1 X2.389 Y2.2336
G1 X2.3884 Y2.1593
G3 X2.3879 Y2.1033 I0.5069 J-0.0323
G1 X2.3872 Y2.0198
G3 X2.3868 Y1.9779 I0.6125 J-0.0261
G3 X2.3867 Y1.9571 I0.2493 J-0.0125
G3 X2.3865 Y1.9359 I0.1199 J-0.0115
G1 X2.3861 Y1.8836
G0 Z0.125
G0 X2.4861
G0 Z0.021
G1 F10.0 Z-0.004
G3 F25.0 X2.4896 Y1.8796 I0.004 J0.0
G1 X2.51 Y1.8767
G1 X2.5304 Y1.8738
G3 X2.5338 Y1.8749 I0.0006 J0.004
G1 X2.5409 Y1.882
G1 X2.548 Y1.8891
G3 X2.5491 Y1.8919 I-0.0028 J0.0028
G1 Y1.9396
G1 Y1.9874
G3 X2.5472 Y1.9908 I-0.004 J0.0
G1 X2.5372 Y1.997
G1 X2.5291 Y2.002
G1 Y2.1042
G1 Y2.2046
G1 X2.5389
G1 X2.5527
G3 X2.5558 Y2.206 I0.0 J0.004
G1 X2.5682 Y2.221
G1 X2.5795 Y2.2346
G1 X2.6051
G1 X2.6308
G1 X2.6421 Y2.221
G1 X2.6545 Y2.206
G3 X2.6576 Y2.2046 I0.0031 J0.0026
G1 X2.6751
G1 X2.6927
G3 X2.6958 Y2.206 I0.0 J0.004
G1 X2.7082 Y2.221
G1 X2.7195 Y2.2346
G1 X2.7664
G1 X2.8151
G3 X2.8191 Y2.2386 I0.0 J0.004
G1 Y2.2673
G1 Y2.2942
G1 X2.8327 Y2.3055
G1 X2.8477 Y2.3179
G3 X2.8491 Y2.321 I-0.0026 J0.0031
G1 Y2.3382
G1 Y2.3555
G3 X2.8478 Y2.3584 I-0.004 J0.0
G1 X2.8295 Y2.375
G1 X2.8112 Y2.3915
G3 X2.8086 Y2.3926 I-0.0027 J-0.003
G1 X2.7934
G1 X2.7782
G3 X2.7753 Y2.3913 I0.0 J-0.004
G1 X2.7587 Y2.373
G1 X2.7422 Y2.3547
G3 X2.7411 Y2.352 I0.003 J-0.0027
G1 Y2.3365
G1 Y2.321
G3 X2.7426 Y2.3179 I0.004 J0.0
G1 X2.7576 Y2.3055
G3 X2.7578 Y2.3053 I0.0026 J0.0031
G2 X2.7711 Y2.2868 I-0.0207 J-0.029
G1 Y2.2826
G1 X2.7464
G1 X2.7195
G1 X2.7082 Y2.2961
G1 X2.6958 Y2.3111
G3 X2.6927 Y2.3126 I-0.0031 J-0.0026
G1 X2.6751
G1 X2.6576
G3 X2.6545 Y2.3111 I0.0 J-0.004
G1 X2.6421 Y2.2961
G1 X2.6308 Y2.2826
G1 X2.6051
G1 X2.5795
G1 X2.5682 Y2.2961
G1 X2.5558 Y2.3111
G3 X2.5527 Y2.3126 I-0.0031 J-0.0026
G1 X2.5351
G1 X2.5176
G3 X2.5145 Y2.3111 I0.0 J-0.004
G1 X2.5026 Y2.2968
G1 X2.4907 Y2.2824
G3 X2.4897 Y2.2799 I0.0031 J-0.0026
G1 X2.4879 Y2.0818
G1 X2.4861 Y1.8836
G0 Z0.125
G0 X2.5861
G0 Z0.021
G1 F10.0 Z-0.004
G3 F25.0 X2.5896 Y1.8796 I0.004 J0.0
G1 X2.6128 Y1.8763
G1 X2.636 Y1.873
G3 X2.6405 Y1.876 I0.0006 J0.004
G1 X2.6459 Y1.8968
G1 X2.6505 Y1.9146
G1 X2.7001
G1 X2.7508
G1 X2.762 Y1.901
G1 X2.7745 Y1.886
G3 X2.7776 Y1.8846 I0.0031 J0.0026
G1 X2.7948
G1 X2.812
G3 X2.815 Y1.8859 I0.0 J0.004
G1 X2.8315 Y1.9042
G1 X2.8481 Y1.9225
G3 X2.8491 Y1.9251 I-0.003 J0.0027
G1 Y1.9406
G1 Y1.9561
G3 X2.8477 Y1.9592 I-0.004 J0.0
G1 X2.8327 Y1.9716
G1 X2.8191 Y1.9829
G1 Y1.9998
G1 Y2.0146
G1 X2.9351
G1 X3.0551
G3 X3.0591 Y2.0186 I0.0 J0.004
G1 Y2.2986
G1 Y2.5786
G3 X3.0551 Y2.5826 I-0.004 J0.0
G1 X2.685
G1 X2.316
G1 X2.2971 Y2.5944
G1 X2.2772 Y2.6068
G3 X2.2729 I-0.0021 J-0.0034
G1 X2.2555 Y2.5958
G1 X2.238 Y2.5848
G3 X2.2361 Y2.5814 I0.0021 J-0.0034
G1 Y2.5586
G1 Y2.5358
G3 X2.238 Y2.5324 I0.004 J0.0
G1 X2.2555 Y2.5214
G1 X2.2729 Y2.5103
G3 X2.2772 I0.0021 J0.0034
G1 X2.2971 Y2.5228
G1 X2.316 Y2.5346
G1 X2.665
G1 X3.0111
G1 Y2.2986
G1 Y2.0626
G1 X2.8951
G1 X2.7751
G3 X2.7711 Y2.0586 I0.0 J-0.004
G1 Y2.0206
G1 Y1.9842
G1 X2.7603 Y1.9734
G1 X2.7495 Y1.9626
G1 X2.6993
G1 X2.6505
G1 X2.6453 Y1.982
G2 X2.6393 Y2.0398 I0.233 J0.0536
G1 Y2.0399
G1 X2.6391 Y2.0742
G1 X2.6527 Y2.0855
G1 X2.6677 Y2.0979
G3 X2.6691 Y2.101 I-0.0026 J0.0031
G1 Y2.1182
G1 Y2.1355
G3 X2.6678 Y2.1384 I-0.004 J0.0
G1 X2.6495 Y2.155
G1 X2.6312 Y2.1715
G3 X2.6286 Y2.1726 I-0.0027 J-0.003
G1 X2.6134
G1 X2.5982
G3 X2.5953 Y2.1713 I0.0 J-0.004
G1 X2.5787 Y2.153
G1 X2.5622 Y2.1347
G3 X2.5611 Y2.132 I0.003 J-0.0027
G1 Y2.1165
G1 Y2.101
G3 X2.5626 Y2.0979 I0.004 J0.0
G1 X2.578 Y2.0852
G1 X2.5918 Y2.0737
G1 X2.589 Y1.9796
G1 X2.5861 Y1.8837
G3 Y1.8836 I0.004 J-0.0001
G0 Z0.125
G0 X2.6746 Y2.5997
G0 Z0.021
G1 F10.0 Z-0.004
G3 F25.0 X2.6772 Y2.6003 I0.0005 J0.004
G1 X2.6984 Y2.6136
G1 X2.7169 Y2.6251
G1 X2.7255 Y2.6166
G3 X2.7257 Y2.6164 I0.0028 J0.0028
G3 X2.7554 Y2.6046 I0.0319 J0.0371
G3 X2.7556 I0.0002 J0.004
G1 X2.772
G3 X2.775 Y2.6059 I0.0 J0.004
G1 X2.7915 Y2.6242
G1 X2.8081 Y2.6425
G3 X2.8091 Y2.6451 I-0.003 J0.0027
G1 Y2.6603
G1 Y2.6755
G3 X2.8078 Y2.6784 I-0.004 J0.0
G1 X2.7895 Y2.695
G3 X2.7546 Y2.7125 I-0.0495 J-0.0552
G3 X2.7535 Y2.7126 I-0.0008 J-0.0039
G3 X2.7256 Y2.7007 I0.0035 J-0.0471
G3 X2.7255 Y2.7006 I0.0027 J-0.003
G1 X2.7169 Y2.692
G1 X2.6984 Y2.7036
G1 X2.6772 Y2.7168
G3 X2.6729 I-0.0021 J-0.0034
G1 X2.6561 Y2.7062
G3 X2.656 Y2.7061 I0.0021 J-0.0034
G3 X2.6276 Y2.6777 I0.0654 J-0.0938
G3 X2.6275 Y2.6775 I0.0033 J-0.0023
G1 X2.6168 Y2.6607
G3 Y2.6564 I0.0034 J-0.0021
G1 X2.6275 Y2.6396
G3 Y2.6395 I0.0034 J0.0021
G3 X2.656 Y2.611 I0.0863 J0.0578
G3 X2.6561 Y2.6109 I0.0022 J0.0033
G1 X2.6729 Y2.6003
G3 X2.6746 Y2.5997 I0.0021 J0.0034
G0 Z0.125
G0 X2.5887 Y2.6433
G0 Z0.021
G1 F10.0 Z-0.004
G3 F25.0 X2.5891 Y2.6451 I-0.0036 J0.0018
G1 Y2.6603
G1 Y2.6755
G3 X2.5878 Y2.6784 I-0.004 J0.0
G1 X2.5695 Y2.695
G3 X2.5346 Y2.7125 I-0.0495 J-0.0552
G3 X2.5335 Y2.7126 I-0.0008 J-0.0039
G3 X2.5056 Y2.7007 I0.0035 J-0.0471
G3 X2.5055 Y2.7006 I0.0027 J-0.003
G1 X2.4969 Y2.692
G1 X2.4784 Y2.7036
G1 X2.4572 Y2.7168
G3 X2.4529 I-0.0021 J-0.0034
G1 X2.4361 Y2.7062
G3 X2.436 Y2.7061 I0.0021 J-0.0034
G3 X2.4076 Y2.6777 I0.0654 J-0.0938
G3 X2.4075 Y2.6775 I0.0033 J-0.0023
G1 X2.3968 Y2.6607
G3 Y2.6564 I0.0034 J-0.0021
G1 X2.4075 Y2.6396
G3 Y2.6395 I0.0034 J0.0021
G3 X2.436 Y2.611 I0.0863 J0.0578
G3 X2.4361 Y2.6109 I0.0022 J0.0033
G1 X2.4529 Y2.6003
G3 X2.4572 I0.0021 J0.0034
G1 X2.4784 Y2.6136
G1 X2.4969 Y2.6251
G1 X2.5055 Y2.6166
G3 X2.5057 Y2.6164 I0.0028 J0.0028
G3 X2.5354 Y2.6046 I0.0319 J0.0371
G3 X2.5356 I0.0002 J0.004
G1 X2.552
G3 X2.555 Y2.6059 I0.0 J0.004
G1 X2.5715 Y2.6242
G1 X2.5881 Y2.6425
G3 X2.5887 Y2.6433 I-0.003 J0.0027
G0 Z0.125
G0 Y2.7346
G0 Z0.021
G1 F10.0 Z-0.004
G1 F25.0 X2.8103
G1 X2.8368 Y2.6963
G1 X2.8646 Y2.6563
G3 X2.8678 Y2.6546 I0.0033 J0.0023
G1 X2.9803
G1 X3.0908
G1 X3.1021 Y2.641
G1 X3.1145 Y2.626
G3 X3.1176 Y2.6246 I0.0031 J0.0026
G1 X3.1348
G1 X3.152
G3 X3.155 Y2.6259 I0.0 J0.004
G1 X3.1715 Y2.6442
G1 X3.1881 Y2.6625
G3 X3.1891 Y2.6651 I-0.003 J0.0027
G1 Y2.6803
G1 Y2.6955
G3 X3.1878 Y2.6984 I-0.004 J0.0
G1 X3.1695 Y2.715
G1 X3.1512 Y2.7315
G3 X3.1486 Y2.7326 I-0.0027 J-0.003
G1 X3.1334
G1 X3.1182
G3 X3.1153 Y2.7313 I0.0 J-0.004
G1 X3.0972 Y2.7113
G1 X3.0803 Y2.6926
G1 X2.9899
G1 X2.8999
G1 X2.8734 Y2.7308
G1 X2.8457 Y2.7708
G3 X2.8424 Y2.7726 I-0.0033 J-0.0023
G1 X2.5194
G1 X2.1964
G3 X2.1924 Y2.769 I0.0 J-0.004
G1 X2.1893 Y2.7365
G1 X2.1865 Y2.7075
G1 X1.9851 Y2.7048
G1 X1.7811 Y2.702
G1 X1.7589 Y2.7139
G1 X1.7357 Y2.7262
G3 X1.7317 Y2.726 I-0.0019 J-0.0035
G1 X1.7148 Y2.7154
G1 X1.698 Y2.7048
G3 X1.6961 Y2.7014 I0.0021 J-0.0034
G1 Y2.6786
G1 Y2.6558
G3 X1.698 Y2.6524 I0.004 J0.0
G1 X1.7155 Y2.6414
G1 X1.7329 Y2.6303
G3 X1.7372 I0.0021 J0.0034
G1 X1.7571 Y2.6428
G1 X1.776 Y2.6546
G1 X1.9751
G1 X2.1743
G1 X2.1932 Y2.6428
G1 X2.2131 Y2.6303
G3 X2.2173 I0.0021 J0.0034
G1 X2.2348 Y2.6413
G1 X2.2523 Y2.6522
G3 X2.2541 Y2.655 I-0.0021 J0.0034
G1 X2.2571 Y2.6749
G1 X2.26 Y2.6947
G3 X2.2586 Y2.6984 I-0.004 J0.0006
G1 X2.2432 Y2.7112
G3 X2.2431 Y2.7113 I-0.0026 J-0.0031
G2 X2.2291 Y2.7305 I0.0257 J0.0333
G1 Y2.7346
G1 X2.5188
G1 X2.5887
G0 Z0.125
G0 Y2.906
G0 Z0.021
G1 F10.0 Z-0.004
G1 F25.0 X3.7775
G1 X4.1156 Y2.5679
G1 Y1.0804
G1 X3.901 Y0.704
G3 X3.8906 Y0.705 I-0.0104 J-0.0545
G1 X3.7965
G3 X3.741 Y0.6495 I0.0 J-0.0555
G1 Y0.6326
G3 X3.7965 Y0.5771 I0.0555 J0.0
G1 X3.8906
G3 X3.9461 Y0.6326 I0.0 J0.0555
G1 Y0.6495
G3 X3.9417 Y0.6713 I-0.0555 J0.0
G1 X4.183 Y1.0775
G3 X4.1836 Y1.0796 I-0.0034 J0.002
G1 Y2.5096
G1 Y2.5996
G3 X4.1824 Y2.6024 I-0.004 J0.0
G1 X4.1224 Y2.6624
G1 X3.872 Y2.9128
G1 X3.8224 Y2.9624
G3 X3.8196 Y2.9636 I-0.0028 J-0.0028
G1 X3.7296
G1 X0.2296
G3 X0.2256 Y2.9596 I0.0 J-0.004
G1 Y0.9895
G1 Y0.9795
G3 X0.2296 Y0.9755 I0.004 J0.0
G1 X0.4674
G3 X0.4688 Y0.9752 I0.0014 J0.0038
G1 X0.5455
G1 X0.5567 Y0.9617
G1 X0.5692 Y0.9467
G3 X0.5723 Y0.9452 I0.0031 J0.0026
G1 X0.5895
G1 X0.6067
G3 X0.6097 Y0.9465 I0.0 J0.004
G1 X0.6262 Y0.9648
G1 X0.6428 Y0.9831
G3 X0.6438 Y0.9858 I-0.003 J0.0027
G1 Y1.001
G1 Y1.0161
G3 X0.6425 Y1.0191 I-0.004 J0.0
G1 X0.6242 Y1.0356
G1 X0.6059 Y1.0522
G3 X0.6032 Y1.0532 I-0.0027 J-0.003
G1 X0.5877
G1 X0.5723
G3 X0.5692 Y1.0518 I0.0 J-0.004
G1 X0.5567 Y1.0368
G1 X0.5455 Y1.0232
G1 X0.4886
G1 X0.2836
G1 Y2.906
G1 X2.5887
G0 Z0.125
G0 X1.6407 Y2.7483
G0 Z0.021
G1 F10.0 Z-0.004
G3 F25.0 Y2.7484 I-0.0039 J-0.0007
G1 X1.6374 Y2.7653
G1 X1.6341 Y2.7822
G3 X1.6323 Y2.7848 I-0.0039 J-0.0008
G1 X1.6161 Y2.795
G1 X1.6 Y2.8051
G3 X1.5963 Y2.8054 I-0.0021 J-0.0034
G1 X1.5774 Y2.7973
G2 X1.5422 Y2.7918 I-0.0282 J0.0652
G1 X1.5239 Y2.7941
G3 X1.5207 Y2.7931 I-0.0005 J-0.004
G1 X1.5016 Y2.7758
G1 X1.4824 Y2.7584
G3 X1.4811 Y2.7555 I0.0027 J-0.003
G1 Y2.7386
G1 Y2.7217
G3 X1.4824 Y2.7187 I0.004 J0.0
G1 X1.5007 Y2.7022
G1 X1.519 Y2.6856
G3 X1.5217 Y2.6846 I0.0027 J0.003
G1 X1.5372
G1 X1.5527
G3 X1.5558 Y2.686 I0.0 J0.004
G1 X1.5682 Y2.701
G1 X1.5795 Y2.7146
G1 X1.5951
G1 X1.6127
G3 X1.6158 Y2.716 I0.0 J0.004
G1 X1.6278 Y2.7305
G1 X1.6399 Y2.7451
G3 X1.6407 Y2.7483 I-0.0031 J0.0026
G0 Z0.125
G0 X1.4683 Y2.6179
G0 Z0.021
G1 F10.0 Z-0.004
G3 F25.0 X1.4678 Y2.6184 I-0.0032 J-0.0024
G1 X1.4495 Y2.635
G1 X1.4312 Y2.6515
G3 X1.4286 Y2.6526 I-0.0027 J-0.003
G1 X1.4134
G1 X1.3982
G3 X1.3953 Y2.6513 I0.0 J-0.004
G1 X1.3787 Y2.633
G1 X1.3622 Y2.6147
G3 X1.3611 Y2.612 I0.003 J-0.0027
G1 Y2.5965
G1 Y2.581
G3 X1.3626 Y2.5779 I0.004 J0.0
G1 X1.3786 Y2.5646
G1 X1.3932 Y2.5525
G1 X1.3897 Y2.219
G1 X1.3861 Y1.8836
G3 X1.3896 Y1.8796 I0.004 J0.0
G1 X1.4121 Y1.8764
G1 X1.4346 Y1.8732
G3 X1.4391 Y1.8766 I0.0006 J0.004
G1 X1.4404 Y1.8848
G3 Y1.8854 I-0.004 J0.0006
G1 X1.4403 Y2.0547
G1 X1.4393 Y2.224
G1 X1.437 Y2.5525
G1 X1.4516 Y2.5646
G1 X1.4677 Y2.5779
G3 X1.4691 Y2.581 I-0.0026 J0.0031
G1 Y2.5982
G1 Y2.6155
G3 X1.4683 Y2.6179 I-0.004 J0.0
G0 Z0.125
G0 X1.3291 Y2.6155
G0 Z0.021
G1 F10.0 Z-0.004
G3 F25.0 X1.3278 Y2.6184 I-0.004 J-0.0001
G1 X1.3095 Y2.635
G1 X1.2912 Y2.6515
G3 X1.2886 Y2.6526 I-0.0027 J-0.003
G1 X1.2734
G1 X1.2582
G3 X1.2553 Y2.6513 I0.0 J-0.004
G1 X1.2387 Y2.633
G1 X1.2222 Y2.6147
G3 X1.2211 Y2.612 I0.003 J-0.0027
G1 Y2.5965
G1 Y2.581
G3 X1.2226 Y2.5779 I0.004 J0.0
G1 X1.2376 Y2.5655
G1 X1.2511 Y2.5542
G1 Y2.5323
G1 Y2.5126
G1 X1.1924
G1 X1.1296
G3 X1.1273 Y2.5118 I0.0 J-0.004
G1 X1.1051 Y2.4963
G1 X1.0828 Y2.4807
G3 X1.0811 Y2.4774 I0.0023 J-0.0033
G1 Y2.455
G1 Y2.4326
G3 X1.0823 Y2.4297 I0.004 J0.0
G1 X1.0943 Y2.4177
G1 X1.1063 Y2.4057
G3 X1.1091 Y2.4046 I0.0028 J0.0028
G1 X1.2073
G1 X1.3056
G3 X1.3092 Y2.4069 I0.0 J0.004
G1 X1.3204 Y2.4315
G1 X1.3316 Y2.4561
G3 X1.3313 Y2.4599 I-0.0036 J0.0017
G1 X1.3149 Y2.485
G1 X1.2991 Y2.5091
G1 Y2.532
G1 Y2.5542
G1 X1.3127 Y2.5655
G1 X1.3277 Y2.5779
G3 X1.3291 Y2.581 I-0.0026 J0.0031
G1 Y2.5982
G1 Y2.6155
G0 Z0.125
G0 X1.1891
G0 Z0.021
G1 F10.0 Z-0.004
G1 F25.0 Y2.6161
G3 X1.1877 Y2.6192 I-0.004 J0.0
G1 X1.1727 Y2.6316
G1 X1.1591 Y2.6429
G1 Y2.6686
G1 Y2.6942
G1 X1.1727 Y2.7055
G1 X1.1877 Y2.7179
G3 X1.1891 Y2.721 I-0.0026 J0.0031
G1 Y2.7382
G1 Y2.7555
G3 X1.1878 Y2.7584 I-0.004 J0.0
G1 X1.1695 Y2.775
G1 X1.1512 Y2.7915
G3 X1.1486 Y2.7926 I-0.0027 J-0.003
G1 X1.1334
G1 X1.1182
G3 X1.1153 Y2.7913 I0.0 J-0.004
G1 X1.0987 Y2.773
G1 X1.0822 Y2.7547
G3 X1.0811 Y2.752 I0.003 J-0.0027
G1 Y2.7365
G1 Y2.721
G3 X1.0826 Y2.7179 I0.004 J0.0
G1 X1.0976 Y2.7055
G1 X1.1111 Y2.6942
G1 Y2.6686
G1 Y2.6429
G1 X1.0976 Y2.6316
G1 X1.0826 Y2.6192
G3 X1.0811 Y2.6161 I0.0026 J-0.0031
G1 Y2.5989
G1 Y2.5817
G3 X1.0824 Y2.5787 I0.004 J0.0
G1 X1.1007 Y2.5622
G1 X1.119 Y2.5456
G3 X1.1217 Y2.5446 I0.0027 J0.003
G1 X1.1369
G1 X1.152
G3 X1.155 Y2.5459 I0.0 J0.004
G1 X1.1715 Y2.5642
G1 X1.1881 Y2.5825
G3 X1.1891 Y2.5851 I-0.003 J0.0027
G1 Y2.6006
G1 Y2.6155
G0 Z0.125
G0 X1.0491
G0 Z0.021
G1 F10.0 Z-0.004
G3 F25.0 X1.0478 Y2.6184 I-0.004 J0.0
G1 X1.0295 Y2.635
G1 X1.0112 Y2.6515
G3 X1.0086 Y2.6526 I-0.0027 J-0.003
G1 X0.9934
G1 X0.9782
G3 X0.9753 Y2.6513 I0.0 J-0.004
G1 X0.9587 Y2.633
G1 X0.9422 Y2.6147
G3 X0.9411 Y2.612 I0.003 J-0.0027
G1 Y2.5965
G1 Y2.581
G3 X0.9426 Y2.5779 I0.004 J0.0
G1 X0.9576 Y2.5655
G1 X0.9711 Y2.5542
G1 Y2.4473
G1 Y2.3386
G3 X0.9751 Y2.3346 I0.004 J0.0
G1 X1.1251
G1 X1.2711
G1 Y2.3201
G1 Y2.3034
G1 X1.2542 Y2.2881
G1 X1.237 Y2.2726
G1 X1.2168
G1 X1.1951
G3 X1.1911 Y2.2686 I0.0 J-0.004
G1 X1.189 Y2.1286
G1 X1.1865 Y1.9361
G1 X1.1861 Y1.8836
G3 X1.1896 Y1.8796 I0.004 J0.0
G1 X1.21 Y1.8767
G1 X1.2304 Y1.8738
G3 X1.2338 Y1.8749 I0.0006 J0.004
G1 X1.2409 Y1.882
G1 X1.248 Y1.8891
G3 X1.2491 Y1.8919 I-0.0028 J0.0028
G1 Y1.9396
G1 Y1.9874
G3 X1.2472 Y1.9908 I-0.004 J0.0
G1 X1.2372 Y1.997
G1 X1.2291 Y2.002
G1 Y2.1192
G1 Y2.2346
G1 X1.2389
G1 X1.2508
G1 X1.262 Y2.221
G1 X1.2745 Y2.206
G3 X1.2776 Y2.2046 I0.0031 J0.0026
G1 X1.2948
G1 X1.312
G3 X1.315 Y2.2059 I0.0 J0.004
G1 X1.3315 Y2.2242
G1 X1.3481 Y2.2425
G3 X1.3491 Y2.2451 I-0.003 J0.0027
G1 Y2.2603
G1 Y2.2755
G3 X1.3478 Y2.2784 I-0.004 J0.0
G1 X1.3278 Y2.2965
G1 X1.3091 Y2.3134
G1 Y2.3401
G1 Y2.3686
G3 X1.3051 Y2.3726 I-0.004 J0.0
G1 X1.1551
G1 X1.0091
G1 Y2.457
G1 Y2.5437
G1 X1.0278 Y2.5606
G1 X1.0478 Y2.5787
G3 X1.0491 Y2.5817 I-0.0027 J0.003
G1 Y2.5986
G1 Y2.6155
G0 Z0.125
G0 X0.7991
G0 Z0.021
G1 F10.0 Z-0.004
G1 F25.0 Y2.6673
G1 Y2.7542
G1 X0.8127 Y2.7655
G1 X0.8277 Y2.7779
G3 X0.8291 Y2.781 I-0.0026 J0.0031
G1 Y2.7982
G1 Y2.8155
G3 X0.8278 Y2.8184 I-0.004 J0.0
G1 X0.8095 Y2.835
G1 X0.7912 Y2.8515
G3 X0.7886 Y2.8526 I-0.0027 J-0.003
G1 X0.7734
G1 X0.7582
G3 X0.7553 Y2.8513 I0.0 J-0.004
G1 X0.7387 Y2.833
G1 X0.7222 Y2.8147
G3 X0.7211 Y2.812 I0.003 J-0.0027
G1 Y2.7965
G1 Y2.781
G3 X0.7226 Y2.7779 I0.004 J0.0
G1 X0.7376 Y2.7655
G1 X0.7511 Y2.7542
G1 Y2.6873
G1 Y2.6226
G1 X0.6964
G1 X0.6395
G1 X0.6282 Y2.6361
G1 X0.6158 Y2.6511
G3 X0.6127 Y2.6526 I-0.0031 J-0.0026
G1 X0.5955
G1 X0.5782
G3 X0.5753 Y2.6513 I0.0 J-0.004
G1 X0.5587 Y2.633
G1 X0.5422 Y2.6147
G3 X0.5411 Y2.612 I0.003 J-0.0027
G1 Y2.5968
G1 Y2.5817
G3 X0.5424 Y2.5787 I0.004 J0.0
G1 X0.5607 Y2.5622
G1 X0.579 Y2.5456
G3 X0.5817 Y2.5446 I0.0027 J0.003
G1 X0.5972
G1 X0.6127
G3 X0.6158 Y2.546 I0.0 J0.004
G1 X0.6282 Y2.561
G1 X0.6395 Y2.5746
G1 X0.7164
G1 X0.7951
G3 X0.7991 Y2.5786 I0.0 J0.004
G1 Y2.6155
G0 Z0.125
G0 X0.4883 Y2.6945
G0 Z0.021
G1 F10.0 Z-0.004
G3 F25.0 X0.489 Y2.6978 I-0.0663 J0.0169
G3 Y2.6994 I-0.0039 J0.0008
G3 X0.4715 Y2.733 I-0.0676 J-0.0138
G1 X0.4574 Y2.7486
G1 X0.4715 Y2.7642
G1 X0.4881 Y2.7825
G3 X0.4891 Y2.7851 I-0.003 J0.0027
G1 Y2.8003
G1 Y2.8155
G3 X0.4878 Y2.8184 I-0.004 J0.0
G1 X0.4695 Y2.835
G1 X0.4512 Y2.8515
G3 X0.4486 Y2.8526 I-0.0027 J-0.003
G1 X0.4334
G1 X0.4182
G3 X0.4153 Y2.8513 I0.0 J-0.004
G1 X0.3987 Y2.833
G3 X0.3812 Y2.7994 I0.0495 J-0.0472
G3 Y2.7978 I0.0039 J-0.0008
G3 X0.3987 Y2.7641 I0.0675 J0.0138
G1 X0.4128 Y2.7486
G1 X0.3987 Y2.733
G1 X0.3822 Y2.7147
G3 X0.3811 Y2.712 I0.003 J-0.0027
G1 Y2.6968
G1 Y2.6817
G3 X0.3824 Y2.6787 I0.004 J0.0
G1 X0.4007 Y2.6622
G1 X0.419 Y2.6456
G3 X0.4217 Y2.6446 I0.0027 J0.003
G1 X0.4369
G1 X0.452
G3 X0.455 Y2.6459 I0.0 J0.004
G1 X0.4715 Y2.6641
G3 X0.4883 Y2.6945 I-0.0495 J0.0472
G0 Z0.125
G0 X0.4357 Y2.3574
G0 Z0.021
G1 F10.0 Z-0.004
G3 F25.0 X0.433 Y2.3569 I-0.0006 J-0.004
G1 X0.4162 Y2.3462
G3 X0.4161 I0.0021 J-0.0034
G3 X0.3875 Y2.3177 I0.0578 J-0.0863
G3 Y2.3176 I0.0033 J-0.0022
G1 X0.3769 Y2.3008
G3 Y2.2965 I0.0034 J-0.0021
G1 X0.3901 Y2.2753
G1 X0.4017 Y2.2568
G1 X0.3931 Y2.2482
G3 X0.3929 Y2.248 I0.0028 J-0.0028
G3 X0.3811 Y2.218 I0.0383 J-0.0323
G3 Y2.2178 I0.004 J-0.0002
G1 Y2.201
G3 X0.3826 Y2.1979 I0.004 J0.0
G1 X0.3976 Y2.1855
G1 X0.4111 Y2.1742
G1 Y2.0473
G1 Y1.9186
G3 X0.4151 Y1.9146 I0.004 J0.0
G1 X0.549
G1 X0.6797
G1 X0.6842 Y1.8976
G1 X0.6894 Y1.8776
G3 X0.6933 Y1.8746 I0.0039 J0.001
G1 X0.7145
G1 X0.7358
G3 X0.7395 Y1.8771 I0.0 J0.004
G1 X0.7448 Y1.891
G3 X0.745 Y1.8918 I-0.0037 J0.0014
G3 X0.7472 Y1.9502 I-0.2374 J0.0383
G1 X0.7441 Y1.9939
G3 X0.7401 Y1.9976 I-0.004 J-0.0003
G1 X0.7151
G1 X0.6901
G3 X0.6862 Y1.9941 I0.0 J-0.004
G1 X0.683 Y1.9716
G1 X0.6803 Y1.9526
G1 X0.5644
G1 X0.4491
G1 Y2.057
G1 Y2.1637
G1 X0.4678 Y2.1806
G1 X0.4878 Y2.1987
G3 X0.4891 Y2.2017 I-0.0027 J0.003
G1 Y2.2181
G3 Y2.2183 I-0.004 J0.0
G3 X0.4773 Y2.248 I-0.0476 J-0.0017
G3 X0.4771 Y2.2482 I-0.003 J-0.0026
G1 X0.4686 Y2.2568
G1 X0.4801 Y2.2753
G1 X0.4934 Y2.2965
G3 Y2.3008 I-0.0034 J0.0021
G1 X0.4828 Y2.3176
G3 X0.4827 Y2.3177 I-0.0034 J-0.0021
G3 X0.4542 Y2.3461 I-0.0938 J-0.0654
G3 X0.4541 Y2.3462 I-0.0023 J-0.0033
G1 X0.4373 Y2.3569
G3 X0.4357 Y2.3574 I-0.0021 J-0.0034
G0 Z0.125
G0 X0.7947 Y2.1307
G0 Z0.021
G1 F10.0 Z-0.004
G3 F25.0 X0.7941 Y2.1288 I0.0034 J-0.0021
G1 X0.7871 Y2.0123
G1 X0.7801 Y1.8958
G3 X0.7813 Y1.8927 I0.004 J-0.0002
G1 X0.7907 Y1.8833
G1 X0.8002 Y1.8739
G3 X0.8038 Y1.8728 I0.0028 J0.0028
G1 X0.8223 Y1.8763
G1 X0.8409 Y1.8798
G3 X0.8441 Y1.8835 I-0.0007 J0.0039
G1 X0.8472 Y1.9323
G1 X0.8503 Y1.9811
G3 X0.8492 Y1.9842 I-0.004 J0.0003
G1 X0.8386 Y1.9948
G1 X0.8291 Y2.0042
G1 Y2.0506
G1 Y2.0946
G1 X0.8689
G1 X0.9108
G1 X0.9221 Y2.081
G1 X0.9345 Y2.066
G3 X0.9376 Y2.0646 I0.0031 J0.0026
G1 X0.9544
G3 X0.9545 I0.0 J0.004
G3 X0.9866 Y2.0782 I-0.0019 J0.0491
G1 X0.9922 Y2.0837
G1 X0.9893 Y1.9887
G1 X0.9861 Y1.8837
G3 X0.9896 Y1.8796 I0.004 J-0.0001
G1 X1.01 Y1.8767
G1 X1.0304 Y1.8738
G3 X1.0338 Y1.8749 I0.0006 J0.004
G1 X1.0409 Y1.882
G1 X1.048 Y1.8891
G3 X1.0491 Y1.8919 I-0.0028 J0.0028
G1 Y1.9396
G1 Y1.9874
G3 X1.0472 Y1.9908 I-0.004 J0.0
G1 X1.0372 Y1.997
G1 X1.0291 Y2.002
G1 Y2.0318
G1 Y2.0613
G1 X1.0485 Y2.0701
G3 X1.0486 I-0.0017 J0.0036
G3 X1.0825 Y2.0987 I-0.0423 J0.0845
G3 X1.0827 Y2.099 I-0.0032 J0.0024
G1 X1.0934 Y2.1165
G3 Y2.1207 I-0.0034 J0.0021
G1 X1.0828 Y2.1375
G3 X1.0827 Y2.1376 I-0.0034 J-0.0021
G3 X1.0542 Y2.1662 I-0.0863 J-0.0578
G3 X1.0541 I-0.0022 J-0.0033
G1 X1.0373 Y2.1768
G3 X1.0331 I-0.0021 J-0.0034
G1 X1.0119 Y2.1636
G1 X0.9933 Y2.152
G1 X0.9848 Y2.1606
G3 X0.9846 Y2.1608 I-0.0028 J-0.0028
G3 X0.9549 Y2.1726 I-0.0319 J-0.0371
G3 X0.9547 I-0.0002 J-0.004
G1 X0.9382
G3 X0.9353 Y2.1713 I0.0 J-0.004
G1 X0.9172 Y2.1513
G1 X0.9003 Y2.1326
G1 X0.85
G1 X0.7981
G3 X0.7947 Y2.1307 I0.0 J-0.004
G0 Z0.125
G0 X0.8029 Y1.7044
G0 Z0.021
G1 F10.0 Z-0.004
G3 F25.0 X0.8002 Y1.7033 I0.0001 J-0.004
G1 X0.7901 Y1.6932
G1 X0.78 Y1.6831
G3 X0.7789 Y1.68 I0.0028 J-0.0028
G1 X0.7861 Y1.5891
G1 X0.7933 Y1.4983
G3 X0.7973 Y1.4946 I0.004 J0.0003
G1 X0.8473
G1 X0.8953
G1 X0.9138 Y1.4711
G1 X0.9334 Y1.4461
G3 X0.9366 Y1.4446 I0.0031 J0.0025
G1 X0.9539
G1 X0.9711
G3 X0.974 Y1.4457 I0.0 J0.004
G1 X0.986 Y1.4577
G1 X0.9951 Y1.4669
G1 X1.0043 Y1.4577
G3 X1.0045 Y1.4576 I0.0028 J0.0028
G3 X1.0353 Y1.4446 I0.0346 J0.0389
G3 X1.0356 I0.0003 J0.004
G1 X1.052
G3 X1.055 Y1.4459 I0.0 J0.004
G1 X1.0715 Y1.4642
G1 X1.0881 Y1.4825
G3 X1.0891 Y1.4851 I-0.003 J0.0027
G1 Y1.5003
G1 Y1.5155
G3 X1.0878 Y1.5184 I-0.004 J0.0
G1 X1.0696 Y1.5349
G3 X1.0377 Y1.5525 I-0.0469 J-0.0475
G3 X1.0368 Y1.5526 I-0.0009 J-0.0039
G1 X1.0291
G1 Y1.5614
G2 X1.0386 Y1.5824 I0.0356 J-0.0034
G1 X1.0492 Y1.593
G3 X1.0503 Y1.596 I-0.0028 J0.0028
G1 X1.0472 Y1.6449
G1 X1.0441 Y1.6938
G3 X1.0401 Y1.6976 I-0.004 J-0.0003
G1 X1.0151
G1 X0.9901
G3 X0.9861 Y1.6935 I0.0 J-0.004
G1 X0.9883 Y1.6111
G1 X0.9903 Y1.5361
G1 X0.977 Y1.5445
G1 X0.9572 Y1.5568
G3 X0.953 I-0.0021 J-0.0034
G1 X0.9331 Y1.5444
G1 X0.9143 Y1.5326
G1 X0.8703
G1 X0.8291
G1 Y1.5516
G1 Y1.5729
G1 X0.8386 Y1.5823
G1 X0.8492 Y1.593
G3 X0.8503 Y1.596 I-0.0028 J0.0028
G1 X0.8472 Y1.6448
G1 X0.8441 Y1.6936
G3 X0.8409 Y1.6973 I-0.004 J-0.0003
G1 X0.8223 Y1.7008
G1 X0.8038 Y1.7044
G3 X0.8029 I-0.0007 J-0.0039
G0 Z0.125
G0 X0.7441 Y1.6943
G0 Z0.021
G1 F10.0 Z-0.004
G3 F25.0 X0.7401 Y1.6976 I-0.0039 J-0.0007
G1 X0.7151
G1 X0.6901
G3 X0.6861 Y1.6939 I0.0 J-0.004
G1 X0.6831 Y1.6514
G1 X0.6803 Y1.6126
G1 X0.5496
G1 X0.4151
G3 X0.4111 Y1.6086 I0.0 J-0.004
G1 Y1.4948
G1 Y1.3829
G1 X0.3976 Y1.3716
G1 X0.3826 Y1.3592
G3 X0.3811 Y1.3561 I0.0026 J-0.0031
G1 Y1.3393
G3 Y1.339 I0.004 J0.0
G3 X0.3941 Y1.308 I0.0557 J0.005
G3 X0.3943 Y1.3077 I0.0031 J0.0026
G1 X0.4035 Y1.2986
G1 X0.3943 Y1.2894
G3 X0.3941 Y1.2892 I0.0028 J-0.0028
G3 X0.3811 Y1.2584 I0.0389 J-0.0346
G3 Y1.2581 I0.004 J-0.0003
G1 Y1.2417
G3 X0.3824 Y1.2387 I0.004 J0.0
G1 X0.4007 Y1.2222
G1 X0.419 Y1.2056
G3 X0.4217 Y1.2046 I0.0027 J0.003
G1 X0.4369
G1 X0.452
G3 X0.455 Y1.2059 I0.0 J0.004
G1 X0.4715 Y1.2242
G1 X0.4716
G3 X0.489 Y1.2591 I-0.0552 J0.0495
G3 X0.4891 Y1.2602 I-0.0039 J0.0008
G3 X0.476 Y1.2893 I-0.0488 J-0.0044
G3 Y1.2894 I-0.0029 J-0.0027
G1 X0.4668 Y1.2986
G1 X0.476 Y1.3077
G3 X0.4761 Y1.3079 I-0.0028 J0.0028
G3 X0.4891 Y1.3387 I-0.0389 J0.0346
G3 Y1.339 I-0.004 J0.0003
G1 Y1.3555
G3 X0.4878 Y1.3584 I-0.004 J0.0
G1 X0.4678 Y1.3765
G1 X0.4491 Y1.3934
G1 Y1.4849
G1 Y1.5741
G1 X0.5927 Y1.5768
G1 X0.7402 Y1.5796
G3 X0.7441 Y1.5836 I-0.0001 J0.004
G1 Y1.6386
G1 Y1.6936
G3 Y1.6943 I-0.004 J0.0
G0 Z0.125
G0 X1.1861 Y1.6936
G0 Z0.021
G1 F10.0 Z-0.004
G1 F25.0 Y1.6935
G1 X1.1865 Y1.641
G1 X1.189 Y1.4635
G1 X1.1911 Y1.3385
G3 X1.1951 Y1.3346 I0.004 J0.0001
G1 X1.2231
G1 X1.2495
G1 X1.2603 Y1.3237
G1 X1.2711 Y1.3129
G1 Y1.2916
G1 Y1.2726
G1 X1.1251
G1 X0.9751
G3 X0.9711 Y1.2686 I0.0 J-0.004
G1 Y1.1548
G1 Y1.0429
G1 X0.9576 Y1.0316
G1 X0.9426 Y1.0192
G3 X0.9411 Y1.0161 I0.0026 J-0.0031
G1 Y0.9989
G1 Y0.9817
G3 X0.9424 Y0.9787 I0.004 J0.0
G1 X0.9607 Y0.9622
G1 X0.979 Y0.9456
G3 X0.9817 Y0.9446 I0.0027 J0.003
G1 X0.9969
G1 X1.012
G3 X1.015 Y0.9459 I0.0 J0.004
G1 X1.0315 Y0.9642
G1 X1.0481 Y0.9825
G3 X1.0491 Y0.9851 I-0.003 J0.0027
G1 Y1.0003
G1 Y1.0155
G3 X1.0478 Y1.0184 I-0.004 J0.0
G1 X1.0278 Y1.0365
G1 X1.0091 Y1.0534
G1 Y1.1451
G1 Y1.2346
G1 X1.1551
G1 X1.3051
G3 X1.3091 Y1.2386 I0.0 J0.004
G1 Y1.272
G1 Y1.3037
G1 X1.3278 Y1.3206
G1 X1.3478 Y1.3387
G3 X1.3491 Y1.3417 I-0.0027 J0.003
G1 Y1.3586
G1 Y1.3755
G3 X1.3478 Y1.3784 I-0.004 J0.0
G1 X1.3295 Y1.395
G1 X1.3112 Y1.4115
G3 X1.3086 Y1.4126 I-0.0027 J-0.003
G1 X1.2934
G1 X1.2782
G3 X1.2753 Y1.4113 I0.0 J-0.004
G1 X1.2572 Y1.3913
G3 X1.257 Y1.3911 I0.003 J-0.0027
G2 X1.2328 Y1.3726 I-0.0487 J0.0387
G1 X1.2291
G1 Y1.4716
G1 Y1.5729
G1 X1.2386 Y1.5823
G1 X1.2492 Y1.593
G3 X1.2503 Y1.596 I-0.0028 J0.0028
G1 X1.2472 Y1.6449
G1 X1.2441 Y1.6938
G3 X1.2401 Y1.6976 I-0.004 J-0.0003
G1 X1.2151
G1 X1.1901
G3 X1.1861 Y1.6936 I0.0 J-0.004
G0 Z0.125
G0 X1.2861
G0 Z0.021
G1 F10.0 Z-0.004
G1 F25.0 Y1.6386
G1 Y1.5836
G3 X1.2896 Y1.5796 I0.004 J0.0
G1 X1.3121 Y1.5764
G1 X1.3347 Y1.5732
G3 X1.339 Y1.5757 I0.0006 J0.004
G1 X1.3445 Y1.5903
G3 X1.3447 Y1.591 I-0.0037 J0.0014
G3 X1.3472 Y1.6503 I-0.1948 J0.038
G1 X1.3441 Y1.6939
G3 X1.3401 Y1.6976 I-0.004 J-0.0003
G1 X1.3151
G1 X1.2901
G3 X1.2861 Y1.6936 I0.0 J-0.004
G0 Z0.125
G0 X1.3861
G0 Z0.021
G1 F10.0 Z-0.004
G1 F25.0 Y1.6935
G1 X1.3897 Y1.3682
G1 X1.3933 Y1.0447
G1 X1.3787 Y1.0326
G1 X1.3626 Y1.0192
G3 X1.3611 Y1.0161 I0.0026 J-0.0031
G1 Y0.9989
G1 Y0.9817
G3 X1.3624 Y0.9787 I0.004 J0.0
G1 X1.3807 Y0.9622
G1 X1.399 Y0.9456
G3 X1.4017 Y0.9446 I0.0027 J0.003
G1 X1.4169
G1 X1.432
G3 X1.435 Y0.9459 I0.0 J0.004
G1 X1.4515 Y0.9642
G1 X1.4681 Y0.9825
G3 X1.4691 Y0.9851 I-0.003 J0.0027
G1 Y1.0006
G1 Y1.0161
G3 X1.4677 Y1.0192 I-0.004 J0.0
G1 X1.4516 Y1.0326
G1 X1.437 Y1.0447
G1 X1.4405 Y1.3682
G1 X1.4441 Y1.6935
G3 X1.4401 Y1.6976 I-0.004 J0.0
G1 X1.4151
G1 X1.3901
G3 X1.3861 Y1.6936 I0.0 J-0.004
G0 Z0.125
G0 X1.4812 Y1.6728
G0 Z0.021
G1 F10.0 Z-0.004
G3 F25.0 X1.4811 Y1.672 I0.0039 J-0.0009
G1 Y1.6565
G1 Y1.641
G3 X1.4826 Y1.6379 I0.004 J0.0
G1 X1.4976 Y1.6255
G1 X1.5111 Y1.6142
G1 Y1.5786
G1 Y1.5429
G1 X1.4976 Y1.5316
G1 X1.4826 Y1.5192
G3 X1.4811 Y1.5161 I0.0026 J-0.0031
G1 Y1.4986
G1 Y1.481
G3 X1.4826 Y1.4779 I0.004 J0.0
G1 X1.4976 Y1.4655
G1 X1.5111 Y1.4542
G1 Y1.2373
G1 Y1.0186
G3 X1.5151 Y1.0146 I0.004 J0.0
G1 X1.7681
G1 X2.021
G3 X2.0242 Y1.0161 I0.0 J0.004
G1 X2.0625 Y1.0663
G3 Y1.0664 I-0.0032 J0.0024
G2 X2.1288 Y1.1362 I0.2857 J-0.2046
G1 X2.1574 Y1.1567
G3 X2.1591 Y1.1599 I-0.0023 J0.0033
G1 Y1.178
G1 Y1.1961
G3 X2.1577 Y1.1992 I-0.004 J0.0
G1 X2.1432 Y1.2113
G1 X2.1286 Y1.2233
G3 X2.1253 Y1.2242 I-0.0026 J-0.0031
G1 X2.1076 Y1.2207
G1 X2.0899 Y1.2173
G3 X2.0871 Y1.2152 I0.0008 J-0.0039
G1 X2.0769 Y1.1953
G1 X2.0507 Y1.1561
G1 X2.0221 Y1.1183
G1 X1.9784 Y1.0626
G1 X1.7678
G1 X1.5591
G1 Y1.2573
G1 Y1.4542
G1 X1.5727 Y1.4655
G1 X1.5877 Y1.4779
G3 X1.5891 Y1.481 I-0.0026 J0.0031
G1 Y1.4986
G1 Y1.5161
G3 X1.5877 Y1.5192 I-0.004 J0.0
G1 X1.5727 Y1.5316
G1 X1.5591 Y1.5429
G1 Y1.5786
G1 Y1.6142
G1 X1.5727 Y1.6255
G1 X1.5877 Y1.6379
G3 X1.5891 Y1.641 I-0.0026 J0.0031
G1 Y1.6582
G1 Y1.6755
G3 X1.5878 Y1.6784 I-0.004 J0.0
G1 X1.5695 Y1.695
G1 X1.5512 Y1.7115
G3 X1.5486 Y1.7126 I-0.0027 J-0.003
G1 X1.5334
G1 X1.5182
G3 X1.5153 Y1.7113 I0.0 J-0.004
G1 X1.4987 Y1.693
G1 X1.4822 Y1.6747
G3 X1.4812 Y1.6728 I0.003 J-0.0027
G0 Z0.125
G0 X1.3375 Y1.8739
G0 Z0.021
G1 F10.0 Z-0.004
G3 F25.0 X1.339 Y1.8757 I-0.0023 J0.0033
G1 X1.3445 Y1.8903
G3 X1.3447 Y1.891 I-0.0037 J0.0014
G3 X1.3472 Y1.9503 I-0.1944 J0.038
G1 X1.3441 Y1.9939
G3 X1.3401 Y1.9976 I-0.004 J-0.0003
G1 X1.3151
G1 X1.2901
G3 X1.2861 Y1.9936 I0.0 J-0.004
G1 Y1.9386
G1 Y1.8836
G3 X1.2896 Y1.8796 I0.004 J0.0
G1 X1.3121 Y1.8764
G1 X1.3347 Y1.8732
G3 X1.3375 Y1.8739 I0.0006 J0.004
G0 Z0.125
G0 X1.2854 Y1.1926
G0 Z0.021
G1 F10.0 Z-0.004
G3 F25.0 X1.2851 I-0.0003 J-0.004
G1 X1.2074
G1 X1.1296
G3 X1.1273 Y1.1918 I0.0 J-0.004
G1 X1.1051 Y1.1763
G1 X1.0828 Y1.1607
G3 X1.0811 Y1.1574 I0.0023 J-0.0033
G1 Y1.135
G1 Y1.1126
G3 X1.0823 Y1.1097 I0.004 J0.0
G1 X1.0943 Y1.0977
G1 X1.1063 Y1.0857
G3 X1.1091 Y1.0846 I0.0028 J0.0028
G1 X1.1821
G1 X1.2511
G1 Y1.0648
G1 Y1.0429
G1 X1.2376 Y1.0316
G1 X1.2226 Y1.0192
G3 X1.2211 Y1.0161 I0.0026 J-0.0031
G1 Y0.9989
G1 Y0.9817
G3 X1.2224 Y0.9787 I0.004 J0.0
G1 X1.2407 Y0.9622
G1 X1.259 Y0.9456
G3 X1.2617 Y0.9446 I0.0027 J0.003
G1 X1.2769
G1 X1.292
G3 X1.295 Y0.9459 I0.0 J0.004
G1 X1.3115 Y0.9642
G1 X1.3281 Y0.9825
G3 X1.3291 Y0.9851 I-0.003 J0.0027
G1 Y1.0006
G1 Y1.0161
G3 X1.3277 Y1.0192 I-0.004 J0.0
G1 X1.3127 Y1.0316
G1 X1.2992 Y1.0429
G1 X1.2994 Y1.0622
G1 X1.2997 Y1.0822
G1 X1.3136 Y1.1006
G3 X1.329 Y1.1347 I-0.068 J0.0512
G3 Y1.1365 I-0.0039 J0.0008
G3 X1.3079 Y1.1715 I-0.0704 J-0.0187
G1 X1.288 Y1.1914
G3 X1.2854 Y1.1926 I-0.0028 J-0.0028
G0 Z0.125
G0 X1.1549 Y1.0483
G0 Z0.021
G1 F10.0 Z-0.004
G1 F25.0 X1.1512 Y1.0515
G3 X1.1486 Y1.0526 I-0.0027 J-0.003
G1 X1.1334
G1 X1.1182
G3 X1.1153 Y1.0513 I0.0 J-0.004
G1 X1.0987 Y1.033
G1 X1.0822 Y1.0147
G3 X1.0811 Y1.012 I0.003 J-0.0027
G1 Y0.9965
G1 Y0.981
G3 X1.0826 Y0.9779 I0.004 J0.0
G1 X1.0976 Y0.9655
G2 X1.1108 Y0.9465 I-0.027 J-0.033
G2 X1.0879 Y0.9201 I-0.0604 J0.0292
G3 X1.0877 Y0.9199 I0.0022 J-0.0033
G1 X1.0627 Y0.9003
G3 X1.0611 Y0.8971 I0.0025 J-0.0031
G1 Y0.8794
G1 Y0.8617
G3 X1.0624 Y0.8587 I0.004 J0.0
G1 X1.0807 Y0.8422
G1 X1.099 Y0.8256
G3 X1.1017 Y0.8246 I0.0027 J0.003
G1 X1.1169
G1 X1.132
G3 X1.135 Y0.8259 I0.0 J0.004
G1 X1.1516 Y0.8442
G1 X1.1682 Y0.8625
G3 X1.1692 Y0.8658 I-0.003 J0.0027
G1 X1.1631 Y0.9103
G1 X1.1573 Y0.9527
G1 X1.1716 Y0.9646
G1 X1.1877 Y0.9779
G3 X1.1891 Y0.981 I-0.0026 J0.0031
G1 Y0.9982
G1 Y1.0155
G3 X1.1878 Y1.0184 I-0.004 J0.0
G1 X1.1695 Y1.035
G1 X1.1549 Y1.0483
G0 Z0.125
G0 X1.4616 Y0.8938
G0 Z0.021
G1 F10.0 Z-0.004
G3 F25.0 X1.4611 Y0.892 I0.0036 J-0.0018
G1 Y0.8768
G1 Y0.8617
G3 X1.4624 Y0.8587 I0.004 J0.0
G1 X1.4818 Y0.8412
G1 X1.5011 Y0.8237
G3 X1.5046 Y0.8228 I0.0027 J0.003
G1 X1.5344 Y0.8293
G1 X1.5613 Y0.8352
G1 X1.5664 Y0.8271
G1 X1.5729 Y0.8165
G3 X1.5763 Y0.8146 I0.0034 J0.0021
G1 X1.5937
G1 X1.6111
G3 X1.614 Y0.8157 I0.0 J0.004
G1 X1.626 Y0.8277
G1 Y0.8278
G3 X1.6391 Y0.8592 I-0.0341 J0.0327
G3 Y0.8593 I-0.004 J0.0001
G1 Y0.8761
G3 X1.6377 Y0.8792 I-0.004 J0.0
G1 X1.6227 Y0.8916
G1 X1.6078 Y0.904
G3 X1.6042 Y0.9048 I-0.0026 J-0.0031
G1 X1.5847 Y0.8997
G1 X1.5676 Y0.8952
G1 X1.5521 Y0.9123
G1 X1.535 Y0.9313
G3 X1.532 Y0.9326 I-0.003 J-0.0027
G1 X1.5151
G1 X1.4982
G3 X1.4953 Y0.9313 I0.0 J-0.004
G1 X1.4787 Y0.913
G1 X1.4622 Y0.8947
G3 X1.4616 Y0.8938 I0.003 J-0.0027
G0 Z0.125
G0 X2.0041 Y0.2484
G0 Z0.021
G1 F10.0 Z-0.004
G3 F25.0 X2.004 Y0.2483 I0.0026 J-0.0031
G1 X1.9799 Y0.2265
G1 X1.9558 Y0.2047
G3 X1.9545 Y0.2018 I0.0027 J-0.003
G1 Y0.1693
G1 Y0.1369
G3 X1.9558 Y0.134 I0.004 J0.0
G1 X1.9779 Y0.114
G1 X1.9999 Y0.0941
G3 X2.0026 Y0.0931 I0.0027 J0.003
G1 X2.0329
G1 X2.0618
G1 X2.1549 Y0.0165
G3 X2.1574 Y0.0156 I0.0025 J0.0031
G1 X2.549
G3 X2.55 Y0.0157 I0.0 J0.004
G1 X3.1801 Y0.1756
G1 X3.4096
G3 X3.4108 Y0.1757 I0.0 J0.004
G1 X3.5708 Y0.2257
G3 X3.5736 Y0.2296 I-0.0012 J0.0038
G1 Y0.6179
G1 X3.6929 Y0.7372
G1 X4.0725 Y1.1367
G3 X4.0736 Y1.1395 I-0.0029 J0.0028
G1 Y1.8996
G3 X4.0718 Y1.9029 I-0.004 J0.0
G1 X3.953 Y1.9821
G3 X3.9097 Y2.0136 I-0.0447 J-0.0161
G3 X3.9096 I-0.0001 J-0.004
G1 X3.6596
G3 X3.6595 I0.0 J-0.004
G3 X3.6158 Y1.9808 I0.0015 J-0.0475
G3 X3.6156 Y1.9796 I0.0038 J-0.0012
G1 Y1.9596
G3 X3.6158 Y1.9583 I0.004 J0.0
G3 X3.6595 Y1.9256 I0.0452 J0.0147
G3 X3.6596 I0.0001 J0.004
G1 X3.9084
G1 X4.0156 Y1.8574
G1 Y1.1512
G1 X3.6625 Y0.7781
G1 X3.5168 Y0.6324
G3 X3.5156 Y0.6296 I0.0028 J-0.0028
G1 Y0.2724
G1 X3.4089 Y0.2336
G1 X3.1796
G3 X3.1787 Y0.2335 I0.0 J-0.004
G1 X2.4792 Y0.0736
G1 X2.1812
G1 X2.1071 Y0.1429
G1 Y0.1714
G1 Y0.2018
G3 X2.1058 Y0.2047 I-0.004 J0.0
G1 X2.0817 Y0.2265
G1 X2.0576 Y0.2483
G3 X2.0549 Y0.2494 I-0.0027 J-0.003
G1 X2.0067
G3 X2.0041 Y0.2484 I0.0 J-0.004
G0 Z0.125
G0 X2.3485 Y0.2023
G0 Z0.021
G1 F10.0 Z-0.004
G3 F25.0 Y0.2018 I0.004 J-0.0005
G1 Y0.1693
G1 Y0.1369
G3 X2.3498 Y0.134 I0.004 J0.0
G1 X2.3719 Y0.114
G1 X2.3939 Y0.0941
G3 X2.3966 Y0.0931 I0.0027 J0.003
G1 X2.4269
G1 X2.4572
G3 X2.4602 Y0.0944 I0.0 J0.004
G1 X2.4801 Y0.1164
G1 X2.4993 Y0.1376
G1 X2.9097 Y0.2556
G1 X3.3396
G3 X3.3411 Y0.2559 I0.0 J0.004
G1 X3.4911 Y0.3159
G3 X3.4936 Y0.3196 I-0.0015 J0.0037
G1 Y0.6281
G1 X3.6126 Y0.767
G3 X3.6136 Y0.7696 I-0.003 J0.0026
G1 Y1.4492
G1 X3.6578 Y1.5257
G3 X3.6595 Y1.5256 I0.0032 J0.0474
G3 X3.6596 I0.0001 J0.004
G1 X3.9096
G3 X3.9097 I0.0 J0.004
G3 X3.9534 Y1.5583 I-0.0015 J0.0475
G3 X3.9536 Y1.5596 I-0.0038 J0.0012
G1 Y1.5796
G3 X3.9534 Y1.5808 I-0.004 J0.0
G3 X3.9097 Y1.6136 I-0.0452 J-0.0147
G3 X3.9096 I-0.0001 J-0.004
G1 X3.6596
G3 X3.6595 I0.0 J-0.004
G3 X3.6158 Y1.5808 I0.0015 J-0.0475
G3 X3.6156 Y1.5796 I0.0038 J-0.0012
G1 Y1.5658
G1 X3.5463 Y1.4621
G3 X3.5456 Y1.4599 I0.0033 J-0.0022
G1 Y0.7709
G1 X3.4365 Y0.632
G3 X3.4356 Y0.6296 I0.0031 J-0.0025
G1 Y0.3719
G1 X3.3286 Y0.3136
G1 X2.9096
G3 X2.9086 Y0.3134 I0.0 J-0.004
G1 X2.4982 Y0.2062
G1 X2.4757 Y0.2265
G1 X2.4516 Y0.2483
G3 X2.4489 Y0.2494 I-0.0027 J-0.003
G1 X2.4007
G3 X2.398 Y0.2483 I0.0 J-0.004
G1 X2.3739 Y0.2265
G1 X2.3498 Y0.2047
G3 X2.3485 Y0.2023 I0.0027 J-0.003
G0 Z0.125
G0 X3.0495 Y0.4753
G0 Z0.021
G1 F10.0 Z-0.004
G3 F25.0 X3.1012 Y0.44 I0.0517 J0.0201
G1 X3.1181
G3 X3.1736 Y0.4955 I0.0 J0.0555
G1 Y0.5896
G3 X3.1181 Y0.6451 I-0.0555 J0.0
G1 X3.1012
G3 X3.0457 Y0.5896 I0.0 J-0.0555
G1 Y0.4955
G3 X3.0495 Y0.4753 I0.0555 J0.0
G0 Z0.125
G0 X3.2756 Y0.5778
G0 Z0.021
G1 F10.0 Z-0.004
G1 F25.0 Y0.4136
G1 X3.0316
G1 X2.7251 Y0.809
G1 X2.7372 Y0.8189
G3 X2.7386 Y0.822 I-0.0026 J0.0031
G1 Y0.8392
G1 Y0.8565
G3 X2.7373 Y0.8594 I-0.004 J0.0
G1 X2.719 Y0.876
G1 X2.7007 Y0.8925
G3 X2.698 Y0.8936 I-0.0027 J-0.003
G1 X2.6829
G1 X2.6677
G3 X2.6647 Y0.8922 I0.0 J-0.004
G1 X2.6482 Y0.874
G1 X2.6316 Y0.8557
G3 X2.6306 Y0.853 I0.003 J-0.0027
G1 Y0.8375
G1 Y0.822
G3 X2.6321 Y0.8189 I0.004 J0.0
G1 X2.6471 Y0.8065
G1 X2.6617 Y0.7943
G1 X2.9963 Y0.3472
G3 X2.9995 Y0.3456 I0.0032 J0.0024
G1 X3.3296
G3 X3.3336 Y0.3496 I0.0 J0.004
G1 Y0.5738
G1 X3.3606
G3 X3.4161 Y0.6293 I0.0 J0.0555
G1 Y0.6463
G3 X3.3606 Y0.7018 I-0.0555 J0.0
G1 X3.2665
G3 X3.211 Y0.6463 I0.0 J-0.0555
G1 Y0.6293
G3 X3.2665 Y0.5738 I0.0555 J0.0
G0 Z0.125
G0 X3.5757
G0 Z0.021
G1 F10.0 Z-0.004
G1 F25.0 Y0.4955
G3 X3.6312 Y0.44 I0.0555 J0.0
G1 X3.6481
G3 X3.7036 Y0.4955 I0.0 J0.0555
G1 Y0.5896
G3 X3.6481 Y0.6451 I-0.0555 J0.0
G1 X3.6312
G3 X3.5757 Y0.5896 I0.0 J-0.0555
G1 Y0.5738
G0 Z0.125
G0 X3.3844 Y0.1696
G0 Z0.021
G1 F10.0 Z-0.004
G3 F25.0 X3.3606 Y0.175 I-0.0237 J-0.0502
G1 X3.2665
G3 X3.211 Y0.1195 I0.0 J-0.0555
G1 Y0.1026
G3 X3.2665 Y0.0471 I0.0555 J0.0
G1 X3.3606
G3 X3.4161 Y0.1026 I0.0 J0.0555
G1 Y0.1195
G3 X3.3844 Y0.1696 I-0.0555 J0.0
G0 Z0.125
G0 X3.7414 Y0.1262
G0 Z0.021
G1 F10.0 Z-0.004
G3 F25.0 X3.741 Y0.1195 I0.0551 J-0.0067
G1 Y0.1026
G3 X3.7965 Y0.0471 I0.0555 J0.0
G1 X3.8906
G3 X3.9461 Y0.1026 I0.0 J0.0555
G1 Y0.1195
G3 X3.8906 Y0.175 I-0.0555 J0.0
G1 X3.7965
G3 X3.7414 Y0.1262 I0.0 J-0.0555
G0 Z0.125
G0 Y2.0256
G0 Z0.021
G1 F10.0 Z-0.004
G1 F25.0 X3.9096
G3 X3.9097 I0.0 J0.004
G3 X3.9534 Y2.0583 I-0.0015 J0.0475
G3 X3.9536 Y2.0596 I-0.0038 J0.0012
G1 Y2.0796
G3 X3.9534 Y2.0808 I-0.004 J0.0
G3 X3.9097 Y2.1136 I-0.0452 J-0.0147
G3 X3.9096 I-0.0001 J-0.004
G1 X3.6596
G3 X3.6595 I0.0 J-0.004
G3 X3.6158 Y2.0808 I0.0015 J-0.0475
G3 X3.6156 Y2.0796 I0.0038 J-0.0012
G1 Y2.0596
G3 X3.6158 Y2.0583 I0.004 J0.0
G3 X3.6595 Y2.0256 I0.0452 J0.0147
G3 X3.6596 I0.0001 J0.004
G1 X3.7414
G0 Z0.125
G0 Y2.1256
G0 Z0.021
G1 F10.0 Z-0.004
G1 F25.0 X3.9096
G3 X3.9097 I0.0 J0.004
G3 X3.9534 Y2.1583 I-0.0015 J0.0475
G3 X3.9536 Y2.1596 I-0.0038 J0.0012
G1 Y2.1796
G3 X3.9534 Y2.1808 I-0.004 J0.0
G3 X3.9097 Y2.2136 I-0.0452 J-0.0147
G3 X3.9096 I-0.0001 J-0.004
G1 X3.6596
G3 X3.6595 I0.0 J-0.004
G3 X3.6158 Y2.1808 I0.0015 J-0.0475
G3 X3.6156 Y2.1796 I0.0038 J-0.0012
G1 Y2.1596
G3 X3.6158 Y2.1583 I0.004 J0.0
G3 X3.6595 Y2.1256 I0.0452 J0.0147
G3 X3.6596 I0.0001 J0.004
G1 X3.7414
G0 Z0.125
G0 Y2.2256
G0 Z0.021
G1 F10.0 Z-0.004
G1 F25.0 X3.9096
G3 X3.9097 I0.0 J0.004
G3 X3.9534 Y2.2583 I-0.0015 J0.0475
G3 X3.9536 Y2.2596 I-0.0038 J0.0012
G1 Y2.2796
G3 X3.9534 Y2.2808 I-0.004 J0.0
G3 X3.9097 Y2.3136 I-0.0452 J-0.0147
G3 X3.9096 I-0.0001 J-0.004
G1 X3.6596
G3 X3.6595 I0.0 J-0.004
G3 X3.6158 Y2.2808 I0.0015 J-0.0475
G3 X3.6156 Y2.2796 I0.0038 J-0.0012
G1 Y2.2596
G3 X3.6158 Y2.2583 I0.004 J0.0
G3 X3.6595 Y2.2256 I0.0452 J0.0147
G3 X3.6596 I0.0001 J0.004
G1 X3.7414
G0 Z0.125
G0 X0.4909 Y0.8758
G0 Z0.021
G1 F10.0 Z-0.004
G3 F25.0 X0.4899 Y0.8772 I-0.0037 J-0.0015
G1 X0.4716 Y0.8938
G1 X0.4533 Y0.9103
G3 X0.4506 Y0.9114 I-0.0027 J-0.003
G1 X0.4351
G1 X0.4197
G3 X0.4166 Y0.9099 I0.0 J-0.004
G1 X0.4041 Y0.8949
G1 X0.3929 Y0.8814
G1 X0.3092
G3 X0.3052 Y0.8774 I0.0 J-0.004
G1 Y0.7018
G1 X0.2565
G3 X0.201 Y0.6463 I0.0 J-0.0555
G1 Y0.6293
G3 X0.2565 Y0.5738 I0.0555 J0.0
G1 X0.3506
G3 X0.4061 Y0.6293 I0.0 J0.0555
G1 Y0.6463
G3 X0.3663 Y0.6995 I-0.0555 J0.0
G3 X0.3653 Y0.6996 I-0.0011 J-0.0038
G1 X0.3635 Y0.6997
G1 Y0.8334
G1 X0.3929
G1 X0.4041 Y0.8198
G1 X0.4166 Y0.8048
G3 X0.4197 Y0.8034 I0.0031 J0.0026
G1 X0.4369
G1 X0.4541
G3 X0.4571 Y0.8047 I0.0 J0.004
G1 X0.4736 Y0.823
G1 X0.4902 Y0.8413
G3 X0.4912 Y0.8439 I-0.003 J0.0027
G1 Y0.8591
G1 Y0.8743
G3 X0.4909 Y0.8758 I-0.004 J0.0
G0 Z0.125
G0 X0.1526 Y0.6228
G0 Z0.021
G1 F10.0 Z-0.004
G3 F25.0 X0.1081 Y0.6451 I-0.0444 J-0.0332
G1 X0.0912
G3 X0.0357 Y0.5896 I0.0 J-0.0555
G1 Y0.4955
G3 X0.0912 Y0.44 I0.0555 J0.0
G1 X0.1081
G3 X0.1636 Y0.4955 I0.0 J0.0555
G1 Y0.5896
G3 X0.1526 Y0.6228 I-0.0555 J0.0
G0 Z0.125
G0 X0.2453 Y0.1738
G0 Z0.021
G1 F10.0 Z-0.004
G3 F25.0 X0.201 Y0.1195 I0.0112 J-0.0543
G1 Y0.1026
G3 X0.2565 Y0.0471 I0.0555 J0.0
G1 X0.3506
G3 X0.4061 Y0.1026 I0.0 J0.0555
G1 Y0.1195
G3 X0.3506 Y0.175 I-0.0555 J0.0
G1 X0.2565
G3 X0.2453 Y0.1738 I0.0 J-0.0555
( Profile2 )
S1000
G0 Z0.125
G0 X2.3523 Y0.9035
G0 Z0.021
G1 F10.0 Z-0.004
G1 F25.0 X2.3688 Y0.9218
G3 X2.3701 Y0.9251 I-0.0037 J0.0034
G1 Y0.9403
G1 Y0.9555
G3 X2.3685 Y0.9592 I-0.005 J0.0
G1 X2.3502 Y0.9757
G1 X2.3319 Y0.9923
G3 X2.3286 Y0.9936 I-0.0034 J-0.0037
G1 X2.3131
G1 X2.2976
G3 X2.2937 Y0.9918 I0.0 J-0.005
G1 X2.2813 Y0.9768
G1 X2.2703 Y0.9636
G1 X2.2138
G1 X2.1563
G1 X2.1376 Y0.9752
G1 X2.1178 Y0.9876
G3 X2.1125 I-0.0026 J-0.0042
G1 X2.0926 Y0.9752
G1 X2.074 Y0.9636
G1 X1.9051
G1 X1.7363
G1 X1.7176 Y0.9752
G1 X1.6977 Y0.9877
G3 X1.6924 I-0.0026 J-0.0042
G1 X1.6749 Y0.9766
G1 X1.6575 Y0.9656
G3 X1.6551 Y0.9614 I0.0027 J-0.0042
G1 Y0.9386
G1 Y0.9158
G3 X1.6575 Y0.9115 I0.005 J0.0
G1 X1.6749 Y0.9005
G1 X1.6924 Y0.8895
G3 X1.6977 I0.0027 J0.0042
G1 X1.7176 Y0.9019
G1 X1.7363 Y0.9136
G1 X1.9051
G1 X2.074
G1 X2.0926 Y0.9019
G1 X2.1125 Y0.8895
G3 X2.1178 I0.0026 J0.0042
G1 X2.1376 Y0.9019
G1 X2.1563 Y0.9136
G1 X2.2138
G1 X2.2703
G1 X2.2813 Y0.9004
G1 X2.2937 Y0.8854
G3 X2.2976 Y0.8836 I0.0038 J0.0032
G1 X2.3148
G1 X2.332
G3 X2.3357 Y0.8852 I0.0 J0.005
G1 X2.3523 Y0.9035
G0 Z0.125
G0 X2.4004 Y0.8927
G0 Z0.021
G1 F10.0 Z-0.004
G1 F25.0 X2.3758 Y0.7836
G1 X2.0201
G1 Y0.7865
G2 X2.0332 Y0.8047 I0.0388 J-0.0142
G3 X2.0333 I-0.0031 J0.0039
G1 X2.0483 Y0.8172
G3 X2.0501 Y0.821 I-0.0032 J0.0038
G1 Y0.8382
G1 Y0.8555
G3 X2.0485 Y0.8592 I-0.005 J0.0
G1 X2.0302 Y0.8757
G1 X2.0119 Y0.8923
G3 X2.0086 Y0.8936 I-0.0034 J-0.0037
G1 X1.9934
G1 X1.9782
G3 X1.9745 Y0.8919 I0.0 J-0.005
G1 X1.958 Y0.8736
G1 X1.9414 Y0.8554
G3 X1.9401 Y0.852 I0.0037 J-0.0034
G1 Y0.8365
G1 Y0.821
G3 X1.9419 Y0.8172 I0.005 J0.0
G1 X1.9569 Y0.8047
G3 X1.9572 Y0.8045 I0.0032 J0.0038
G2 X1.9701 Y0.7866 I-0.0201 J-0.0281
G1 Y0.7836
G1 X1.8951
G1 X1.8201
G1 Y0.7881
G2 X1.8318 Y0.8161 I0.0881 J-0.0204
G1 X1.8442 Y0.836
G3 Y0.8413 I-0.0042 J0.0026
G1 X1.8332 Y0.8588
G1 X1.8222 Y0.8762
G3 X1.8179 Y0.8786 I-0.0042 J-0.0027
G1 X1.7951
G1 X1.7723
G3 X1.7681 Y0.8762 I0.0 J-0.005
G1 X1.7571 Y0.8588
G1 X1.746 Y0.8413
G3 Y0.836 I0.0042 J-0.0027
G1 X1.7585 Y0.8161
G3 X1.7586 Y0.8159 I0.0042 J0.0026
G2 X1.7701 Y0.7882 I-0.0603 J-0.0414
G1 Y0.7836
G1 X1.3451
G1 X0.9201
G1 Y1.0466
G1 Y1.3125
G1 X0.9307 Y1.323
G1 X0.9412 Y1.3336
G1 X1.0424
G1 X1.1456
G3 X1.1506 Y1.3386 I0.0 J0.005
G1 X1.1479 Y1.5161
G1 X1.1451 Y1.6936
G3 X1.1401 Y1.6986 I-0.005 J-0.0001
G1 X1.1151
G1 X1.0901
G3 X1.0851 Y1.6939 I0.0 J-0.005
G1 X1.0821 Y1.6412
G1 X1.0791 Y1.5886
G3 X1.0823 Y1.5837 I0.005 J-0.0003
G1 X1.0978 Y1.5777
G1 X1.1101 Y1.573
G1 Y1.4725
G1 Y1.3736
G1 X1.0317
G1 X0.9504
G1 X0.9338 Y1.3919
G1 X0.9157 Y1.4119
G3 X0.912 Y1.4136 I-0.0037 J-0.0034
G1 X0.8951
G1 X0.8782
G3 X0.8745 Y1.4119 I0.0 J-0.005
G1 X0.8564 Y1.3919
G1 X0.8398 Y1.3736
G1 X0.7036
G1 X0.5701
G1 Y1.407
G1 Y1.4433
G1 X0.5885 Y1.4599
G1 X0.6085 Y1.478
G3 X0.6101 Y1.4817 I-0.0034 J0.0037
G1 Y1.4986
G1 Y1.5155
G3 X0.6085 Y1.5192 I-0.005 J0.0
G1 X0.5902 Y1.5357
G1 X0.5719 Y1.5523
G3 X0.5686 Y1.5536 I-0.0034 J-0.0037
G1 X0.5534
G1 X0.5382
G3 X0.5345 Y1.5519 I0.0 J-0.005
G1 X0.518 Y1.5336
G1 X0.5014 Y1.5154
G3 X0.5001 Y1.512 I0.0037 J-0.0034
G1 Y1.4965
G1 Y1.481
G3 X0.5019 Y1.4772 I0.005 J0.0
G1 X0.5169 Y1.4647
G1 X0.5301 Y1.4538
G1 Y1.3973
G1 Y1.3386
G3 X0.5351 Y1.3336 I0.005 J0.0
G1 X0.6931
G1 X0.8491
G1 X0.8596 Y1.323
G1 X0.8701 Y1.3125
G1 Y1.0266
G1 Y0.7386
G3 X0.8751 Y0.7336 I0.005 J0.0
G1 X2.1531
G1 X2.4296 Y0.7346
G3 X2.4345 Y0.7384 I0.0 J0.005
G1 X2.4835 Y0.9346
G1 X2.7759
G1 X2.8345 Y0.7371
G3 X2.8393 Y0.7336 I0.0048 J0.0014
G1 X3.4311
G3 X3.4347 Y0.735 I0.0 J0.005
G1 X3.4467 Y0.747
G1 X3.4587 Y0.759
G3 X3.4601 Y0.7626 I-0.0035 J0.0035
G1 X3.4599 Y1.6346
G1 X3.9096
G3 X3.9098 I0.0 J0.005
G3 X3.9544 Y1.668 I-0.0015 J0.0485
G3 X3.9546 Y1.6696 I-0.0048 J0.0016
G1 Y1.8696
G3 X3.9544 Y1.8711 I-0.005 J0.0
G3 X3.9098 Y1.9046 I-0.0461 J-0.0151
G3 X3.9096 I-0.0002 J-0.005
G1 X3.4598
G1 X3.4595 Y2.8436
G3 X3.4585 Y2.8466 I-0.005 J0.0
G1 X3.4452 Y2.8641
G1 X3.4319 Y2.8816
G3 X3.4279 Y2.8836 I-0.004 J-0.003
G1 X2.1515
G1 X0.8751
G3 X0.8701 Y2.8786 I0.0 J-0.005
G1 Y2.5901
G1 Y2.3039
G1 X0.8535 Y2.2888
G1 X0.8366 Y2.2736
G1 X0.6868
G1 X0.5351
G3 X0.5301 Y2.2686 I0.0 J-0.005
G1 Y2.2148
G1 Y2.1634
G1 X0.5169 Y2.1524
G1 X0.5019 Y2.14
G3 X0.5001 Y2.1361 I0.0032 J-0.0038
G1 Y2.1189
G1 Y2.1017
G3 X0.5018 Y2.098 I0.005 J0.0
G1 X0.5201 Y2.0814
G1 X0.5383 Y2.0649
G3 X0.5417 Y2.0636 I0.0034 J0.0037
G1 X0.5569
G1 X0.572
G3 X0.5757 Y2.0652 I0.0 J0.005
G1 X0.5923 Y2.0835
G1 X0.6088 Y2.1018
G3 X0.6101 Y2.1051 I-0.0037 J0.0034
G1 Y2.1203
G1 Y2.1355
G3 X0.6085 Y2.1392 I-0.005 J0.0
G1 X0.5885 Y2.1573
G1 X0.5701 Y2.1739
G1 Y2.2051
G1 Y2.2336
G1 X0.7089
G1 X0.8503
G1 X0.8613 Y2.2204
G1 X0.8737 Y2.2054
G3 X0.8776 Y2.2036 I0.0038 J0.0032
G1 X0.8951
G1 X0.9127
G3 X0.9165 Y2.2054 I0.0 J0.005
G1 X0.929 Y2.2204
G1 X0.9399 Y2.2336
G1 X1.0264
G1 X1.1101
G1 Y2.1196
G1 Y2.0041
G1 X1.0978 Y1.9994
G1 X1.0823 Y1.9935
G3 X1.0791 Y1.9885 I0.0018 J-0.0047
G1 X1.0821 Y1.9359
G1 X1.0851 Y1.8833
G3 X1.0901 Y1.8786 I0.005 J0.0003
G1 X1.1151
G1 X1.1401
G3 X1.1451 Y1.8835 I0.0 J0.005
G1 X1.1478 Y2.076
G1 X1.1506 Y2.2685
G3 X1.1456 Y2.2736 I-0.005 J0.0001
G1 X1.0469
G1 X0.9504
G1 X0.9354 Y2.2902
G1 X0.9201 Y2.3071
G1 Y2.5719
G1 Y2.8336
G1 X1.3651
G1 X1.8101
G1 Y2.829
G2 X1.7985 Y2.8011 I-0.0881 J0.0204
G1 Y2.801
G1 X1.786 Y2.7812
G3 Y2.7758 I0.0042 J-0.0026
G1 X1.7971 Y2.7584
G1 X1.8081 Y2.7409
G3 X1.8123 Y2.7386 I0.0042 J0.0027
G1 X1.8351
G1 X1.8579
G3 X1.8622 Y2.7409 I0.0 J0.005
G1 X1.8732 Y2.7584
G1 X1.8842 Y2.7758
G3 Y2.7812 I-0.0042 J0.0027
G1 X1.8718 Y2.801
G3 X1.8717 Y2.8012 I-0.0042 J-0.0026
G2 X1.8601 Y2.8289 I0.0603 J0.0414
G1 Y2.8336
G1 X1.9151
G1 X1.9701
G1 Y2.8307
G2 X1.957 Y2.8125 I-0.0388 J0.0142
G3 X1.9569 Y2.8124 I0.0031 J-0.0039
G1 X1.9419 Y2.8
G3 X1.9401 Y2.7961 I0.0032 J-0.0038
G1 Y2.7789
G1 Y2.7617
G3 X1.9418 Y2.758 I0.005 J0.0
G1 X1.9601 Y2.7414
G1 X1.9783 Y2.7249
G3 X1.9817 Y2.7236 I0.0034 J0.0037
G1 X1.9969
G1 X2.012
G3 X2.0157 Y2.7252 I0.0 J0.005
G1 X2.0323 Y2.7435
G1 X2.0488 Y2.7618
G3 X2.0501 Y2.7651 I-0.0037 J0.0034
G1 Y2.7806
G1 Y2.7961
G3 X2.0483 Y2.8 I-0.005 J0.0
G1 X2.0333 Y2.8124
G3 X2.033 Y2.8126 I-0.0032 J-0.0038
G2 X2.0201 Y2.8305 I0.0201 J0.0281
G1 Y2.8336
G1 X2.4501
G1 X2.8801
G1 Y2.8201
G1 Y2.8017
G3 X2.8818 Y2.798 I0.005 J0.0
G1 X2.9001 Y2.7814
G1 X2.9183 Y2.7649
G3 X2.9217 Y2.7636 I0.0034 J0.0037
G1 X2.9369
G1 X2.952
G3 X2.9557 Y2.7652 I0.0 J0.005
G1 X2.9723 Y2.7835
G1 X2.9888 Y2.8018
G3 X2.9901 Y2.8051 I-0.0037 J0.0034
G1 Y2.8219
G1 Y2.8336
G1 X3.1801
G1 X3.3701
G1 Y1.8086
G1 Y0.7836
G1 X3.1651
G1 X2.9601
G1 Y0.8373
G1 Y0.8938
G1 X2.9733 Y0.9047
G1 X2.9883 Y0.9172
G3 X2.9901 Y0.921 I-0.0032 J0.0038
G1 Y0.9382
G1 Y0.9555
G3 X2.9885 Y0.9592 I-0.005 J0.0
G1 X2.9702 Y0.9757
G1 X2.9519 Y0.9923
G3 X2.9486 Y0.9936 I-0.0034 J-0.0037
G1 X2.9334
G1 X2.9182
G3 X2.9145 Y0.9919 I0.0 J-0.005
G1 X2.898 Y0.9736
G1 X2.8814 Y0.9554
G3 X2.8801 Y0.952 I0.0037 J-0.0034
G1 Y0.9365
G1 Y0.921
G3 X2.8819 Y0.9172 I0.005 J0.0
G1 X2.8969 Y0.9047
G1 X2.9101 Y0.8938
G1 Y0.8373
G1 Y0.7846
G1 X2.8933
G1 X2.8244 Y1.0011
G3 X2.8196 Y1.0046 I-0.0048 J-0.0015
G1 X2.4296
G3 X2.4247 Y1.0007 I0.0 J-0.005
G1 X2.4004 Y0.8927
G0 Z0.125
G0 X2.4801 Y0.8551
G0 Z0.021
G1 F10.0 Z-0.004
G3 F25.0 X2.4796 Y0.853 I0.0045 J-0.0021
G1 Y0.8375
G1 Y0.822
G3 X2.4814 Y0.8182 I0.005 J0.0
G1 X2.4964 Y0.8057
G1 X2.5089 Y0.7954
G1 X2.4858 Y0.7146
G1 X2.2094
G3 X2.2044 Y0.7097 I0.0 J-0.005
G1 X2.1967 Y0.3898
G3 Y0.3896 I0.005 J-0.0001
G1 Y0.2796
G1 Y0.2476
G1 X2.1743 Y0.2273
G1 X2.1502 Y0.2055
G3 X2.1485 Y0.2018 I0.0034 J-0.0037
G1 Y0.1693
G1 Y0.1369
G3 X2.1502 Y0.1332 I0.005 J0.0
G1 X2.1722 Y0.1133
G1 X2.1942 Y0.0934
G3 X2.1976 Y0.0921 I0.0034 J0.0037
G1 X2.2279
G1 X2.2582
G3 X2.2619 Y0.0937 I0.0 J0.005
G1 X2.2819 Y0.1157
G1 X2.3018 Y0.1378
G3 X2.3031 Y0.1411 I-0.0037 J0.0034
G1 Y0.1714
G1 Y0.2018
G3 X2.3014 Y0.2055 I-0.005 J0.0
G1 X2.2773 Y0.2273
G1 X2.2549 Y0.2476
G1 Y0.2796
G1 Y0.3896
G1 X2.2644 Y0.6546
G1 X2.5396
G3 X2.5446 Y0.659 I0.0 J0.005
G1 X2.5594 Y0.7946
G1 X2.5728 Y0.8057
G1 X2.5878 Y0.8182
G3 X2.5896 Y0.822 I-0.0032 J0.0038
G1 Y0.8392
G1 Y0.8565
G3 X2.588 Y0.8602 I-0.005 J0.0
G1 X2.5697 Y0.8767
G1 X2.5514 Y0.8933
G3 X2.548 Y0.8946 I-0.0034 J-0.0037
G1 X2.5329
G1 X2.5177
G3 X2.514 Y0.8929 I0.0 J-0.005
G1 X2.4974 Y0.8746
G1 X2.4809 Y0.8563
G3 X2.4801 Y0.8551 I0.0037 J-0.0034
G0 Z0.125
G0 Y1.0336
G0 Z0.021
G1 F10.0 Z-0.004
G1 F25.0 X2.6307
G1 X3.0551
G3 X3.0601 Y1.0386 I0.0 J0.005
G1 Y1.3486
G1 Y1.6586
G3 X3.0551 Y1.6636 I-0.005 J0.0
G1 X2.9464
G1 X2.8399
G1 X2.829 Y1.6768
G1 X2.8165 Y1.6918
G3 X2.8127 Y1.6936 I-0.0038 J-0.0032
G1 X2.7951
G1 X2.7776
G3 X2.7737 Y1.6918 I0.0 J-0.005
G1 X2.7613 Y1.6768
G1 X2.7503 Y1.6636
G1 X2.7001
G1 X2.6513
G1 X2.6469 Y1.6806
G1 X2.6414 Y1.7014
G3 X2.6359 Y1.7051 I-0.0048 J-0.0013
G1 X2.6127 Y1.7018
G1 X2.5894 Y1.6985
G3 X2.5851 Y1.6936 I0.0007 J-0.005
G1 Y1.6067
G1 Y1.522
G1 X2.5741 Y1.5107
G1 X2.574
G3 X2.5601 Y1.4784 I0.0365 J-0.0348
G3 Y1.4781 I0.005 J-0.0002
G1 Y1.4617
G3 X2.5618 Y1.458 I0.005 J0.0
G1 X2.5801 Y1.4414
G1 X2.5983 Y1.4249
G3 X2.6017 Y1.4236 I0.0034 J0.0037
G1 X2.6169
G1 X2.632
G3 X2.6357 Y1.4252 I0.0 J0.005
G1 X2.6523 Y1.4435
G1 X2.6688 Y1.4618
G3 X2.6701 Y1.4651 I-0.0037 J0.0034
G1 Y1.4806
G1 Y1.4961
G3 X2.6683 Y1.5 I-0.005 J0.0
G1 X2.6533 Y1.5124
G1 X2.6401 Y1.5234
G1 X2.6403 Y1.5472
G2 X2.6463 Y1.5949 I0.2551 J-0.008
G1 X2.6513 Y1.6136
G1 X2.7001
G1 X2.7503
G1 X2.7613 Y1.6004
G1 X2.7737 Y1.5854
G3 X2.7776 Y1.5836 I0.0038 J0.0032
G1 X2.7951
G1 X2.8127
G3 X2.8165 Y1.5854 I0.0 J0.005
G1 X2.829 Y1.6004
G1 X2.8399 Y1.6136
G1 X2.9264
G1 X3.0101
G1 Y1.3486
G1 Y1.0836
G1 X2.615
G1 X2.2163
G1 X2.1976 Y1.0952
G1 X2.1777 Y1.1077
G3 X2.1724 I-0.0026 J-0.0042
G1 X2.1549 Y1.0967
G1 X2.1375 Y1.0857
G3 X2.1352 Y1.0824 I0.0027 J-0.0042
G1 X2.1319 Y1.0655
G1 X2.1286 Y1.0486
G3 X2.1296 Y1.0444 I0.0049 J-0.001
G1 X2.1417 Y1.0299
G1 X2.1537 Y1.0154
G3 X2.1576 Y1.0136 I0.0038 J0.0032
G1 X2.1758
G1 X2.1939
G3 X2.1982 Y1.0159 I0.0 J0.005
G1 X2.2044 Y1.0259
G1 X2.2091 Y1.0336
G1 X2.4801
G0 Z0.125
G0 Y1.1136
G0 Z0.021
G1 F10.0 Z-0.004
G1 F25.0 X2.6751
G1 X2.9551
G3 X2.9601 Y1.1186 I0.0 J0.005
G1 Y1.2073
G1 Y1.2938
G1 X2.9733 Y1.3047
G1 X2.9883 Y1.3172
G3 X2.9901 Y1.321 I-0.0032 J0.0038
G1 Y1.3386
G1 Y1.3561
G3 X2.9883 Y1.36 I-0.005 J0.0
G1 X2.9733 Y1.3724
G1 X2.9601 Y1.3834
G1 Y1.3986
G1 Y1.4138
G1 X2.9733 Y1.4247
G1 X2.9883 Y1.4372
G3 X2.9901 Y1.441 I-0.0032 J0.0038
G1 Y1.4582
G1 Y1.4755
G3 X2.9885 Y1.4792 I-0.005 J0.0
G1 X2.9702 Y1.4957
G1 X2.9519 Y1.5123
G3 X2.9486 Y1.5136 I-0.0034 J-0.0037
G1 X2.9334
G1 X2.9182
G3 X2.9145 Y1.5119 I0.0 J-0.005
G1 X2.898 Y1.4936
G1 X2.8814 Y1.4754
G3 X2.8801 Y1.472 I0.0037 J-0.0034
G1 Y1.4565
G1 Y1.441
G3 X2.8819 Y1.4372 I0.005 J0.0
G1 X2.8969 Y1.4247
G1 X2.9101 Y1.4138
G1 Y1.3986
G1 Y1.3834
G1 X2.8969 Y1.3724
G1 X2.8819 Y1.36
G3 X2.8801 Y1.3561 I0.0032 J-0.0038
G1 Y1.3386
G1 Y1.321
G3 X2.8819 Y1.3172 I0.005 J0.0
G1 X2.8969 Y1.3047
G1 X2.9101 Y1.2938
G1 Y1.2273
G1 Y1.1636
G1 X2.6739
G1 X2.4377
G1 X2.4414 Y1.426
G1 X2.4451 Y1.6935
G3 X2.4401 Y1.6986 I-0.005 J0.0001
G1 X2.4151
G1 X2.3901
G3 X2.3851 Y1.6935 I0.0 J-0.005
G1 X2.3855 Y1.641
G1 X2.388 Y1.3535
G1 X2.3901 Y1.1185
G3 X2.3951 Y1.1136 I0.005 J0.0
G1 X2.4801
G0 Z0.125
G0 X2.5155 Y1.189
G0 Z0.021
G1 F10.0 Z-0.004
G3 F25.0 X2.5176 Y1.1886 I0.0021 J0.0045
G1 X2.5351
G1 X2.5527
G3 X2.5565 Y1.1904 I0.0 J0.005
G1 X2.569 Y1.2054
G1 X2.5799 Y1.2186
G1 X2.6051
G1 X2.6303
G1 X2.6413 Y1.2054
G1 X2.6537 Y1.1904
G3 X2.6576 Y1.1886 I0.0038 J0.0032
G1 X2.6751
G1 X2.6927
G3 X2.6965 Y1.1904 I0.0 J0.005
G1 X2.709 Y1.2054
G1 X2.7198 Y1.2184
G1 X2.7431 Y1.2168
G1 X2.7601 Y1.2014
G1 X2.7783 Y1.1849
G3 X2.7817 Y1.1836 I0.0034 J0.0037
G1 X2.7969
G1 X2.812
G3 X2.8157 Y1.1852 I0.0 J0.005
G1 X2.8323 Y1.2035
G1 X2.8488 Y1.2218
G3 X2.8501 Y1.2251 I-0.0037 J0.0034
G1 Y1.2406
G1 Y1.2561
G3 X2.8483 Y1.26 I-0.005 J0.0
G1 X2.8333 Y1.2724
G1 X2.8183 Y1.2849
G3 X2.8151 Y1.286 I-0.0032 J-0.0038
G1 X2.7751
G3 X2.7719 Y1.2849 I0.0 J-0.005
G1 X2.7569 Y1.2724
G1 X2.7439 Y1.2616
G1 X2.7204 Y1.268
G1 X2.709 Y1.2818
G1 X2.6965 Y1.2968
G3 X2.6927 Y1.2986 I-0.0038 J-0.0032
G1 X2.6755
G1 X2.6582
G3 X2.6545 Y1.2969 I0.0 J-0.005
G1 X2.6364 Y1.2769
G1 X2.6198 Y1.2586
G1 X2.6051
G1 X2.5904
G1 X2.5738 Y1.2769
G1 X2.5557 Y1.2969
G3 X2.552 Y1.2986 I-0.0037 J-0.0034
G1 X2.5429
G1 X2.5301 Y1.3889
G1 Y1.4816
G1 Y1.5725
G1 X2.5393 Y1.5816
G1 X2.5499 Y1.5922
G3 X2.5513 Y1.5961 I-0.0035 J0.0035
G1 X2.5482 Y1.645
G1 X2.5451 Y1.6939
G3 X2.5401 Y1.6986 I-0.005 J-0.0003
G1 X2.5151
G1 X2.4901
G3 X2.4851 Y1.6935 I0.0 J-0.005
G1 X2.4869 Y1.5055
G1 X2.4886 Y1.3176
G1 X2.4846 Y1.2298
G3 X2.4856 Y1.2266 I0.005 J-0.0002
G1 X2.5016 Y1.205
G3 X2.5017 Y1.2048 I0.004 J0.003
G1 X2.5137 Y1.1904
G3 X2.5155 Y1.189 I0.0038 J0.0032
G0 Z0.125
G0 X2.3688 Y1.3218
G0 Z0.021
G1 F10.0 Z-0.004
G3 F25.0 X2.3701 Y1.3251 I-0.0037 J0.0034
G1 Y1.3406
G1 Y1.3561
G3 X2.3683 Y1.36 I-0.005 J0.0
G1 X2.3519 Y1.3736
G1 X2.3373 Y1.3857
G1 X2.3435 Y1.5353
G1 X2.3497 Y1.6874
G3 X2.3474 Y1.6919 I-0.005 J0.0002
G1 X2.3376 Y1.6979
G1 X2.3301 Y1.7025
G1 Y1.7192
G1 Y1.7336
G1 X2.7401
G1 X3.1501
G1 Y1.7307
G2 X3.137 Y1.7125 I-0.0388 J0.0142
G3 X3.1369 Y1.7124 I0.0031 J-0.0039
G1 X3.1219 Y1.7
