( Made using CamBam - http://www.cambam.co.uk )
( mfos_dual_vca_2 11/23/2014 10:43:29 PM )
( T1 : 0.04 )
( T2 : 0.031 )
( T3 : 0.0039 )
G20 G90 G64 G40
G0 Z0.125
( T1 : 0.04 )
T1 M6
( Drill1 )
G17
M3 S1000
G0 X0.0794 Y0.124
G98
G81 X0.0794 Y0.124 Z-0.075 R0.125 F20.0
G81 X0.082 Y0.4648 Z-0.075
G81 X0.2818 Y0.8261 Z-0.075
G81 Y0.967 Z-0.075
G81 Y1.1053 Z-0.075
G81 X0.2229 Y2.1456 Z-0.075
G81 X0.2203 Y2.448 Z-0.075
G81 X0.9813 Y2.8656 Z-0.075
G81 X1.1991 Z-0.075
G81 X1.6808 Y3.1065 Z-0.075
G81 X1.8781 Z-0.075
G81 X1.937 Y2.448 Z-0.075
G81 X1.9396 Y2.1431 Z-0.075
G81 X1.8807 Y1.1053 Z-0.075
G81 Y0.967 Z-0.075
G81 Y0.8261 Z-0.075
G81 X2.0216 Y0.4648 Z-0.075
G81 Y0.2649 Z-0.075
G80
( Drill2 )
G0 Z0.125
( T2 : 0.031 )
T2 M6
M3 S1000
G0 X1.422 Y2.6273
G98
G81 X1.422 Y2.6273 Z-0.075 R0.125 F20.0
G81 X1.545 Z-0.075
G81 X1.6398 Y2.4864 Z-0.075
G81 X1.5399 Y2.366 Z-0.075
G81 Y2.2276 Z-0.075
G81 X1.4015 Y2.3045 Z-0.075
G81 X1.2427 Y2.3096 Z-0.075
G81 Y2.2046 Z-0.075
G81 X1.2401 Y2.1046 Z-0.075
G81 X1.2427 Y2.0073 Z-0.075
G81 Y1.9073 Z-0.075
G81 Y1.8048 Z-0.075
G81 X1.2401 Y1.7075 Z-0.075
G81 Y1.5461 Z-0.075
G81 X1.4195 Y1.4282 Z-0.075
G81 X1.3785 Y1.2283 Z-0.075
G81 X1.2222 Y1.2258 Z-0.075
G81 X1.2401 Y1.1053 Z-0.075
G81 Y1.0054 Z-0.075
G81 X1.2427 Y0.9055 Z-0.075
G81 X1.2401 Y0.8056 Z-0.075
G81 X1.2427 Y0.7082 Z-0.075
G81 Y0.6057 Z-0.075
G81 X1.2401 Y0.5058 Z-0.075
G81 X1.2375 Y0.4058 Z-0.075
G81 X1.3785 Y0.247 Z-0.075
G81 X1.5399 Y0.1266 Z-0.075
G81 X1.6193 Y0.1291 Z-0.075
G81 X1.8807 Y0.2829 Z-0.075
G81 X2.0216 Y0.1266 Z-0.075
G81 X1.7397 Y0.4443 Z-0.075
G81 X1.522 Y0.5852 Z-0.075
G81 X1.381 Y0.6467 Z-0.075
G81 Y0.7261 Z-0.075
G81 X1.522 Y0.9849 Z-0.075
G81 X1.7397 Y0.926 Z-0.075
G81 X1.7423 Y0.8466 Z-0.075
G81 X1.8807 Y0.6851 Z-0.075
G81 X2.0011 Y0.8056 Z-0.075
G81 Y1.2078 Z-0.075
G81 X2.0216 Y1.2873 Z-0.075
G81 X1.9396 Y1.3872 Z-0.075
G81 X2.0395 Y1.4846 Z-0.075
G81 Y1.6844 Z-0.075
G81 X1.9396 Y1.8048 Z-0.075
G81 X1.8217 Y1.8638 Z-0.075
G81 X1.6987 Y1.8048 Z-0.075
G81 X1.6424 Y1.6844 Z-0.075
G81 Y1.5461 Z-0.075
G81 X1.7397 Y1.3283 Z-0.075
G81 X1.4015 Y1.8048 Z-0.075
G81 X1.5399 Y2.0073 Z-0.075
G81 X1.9422 Z-0.075
G81 X1.9396 Y2.2251 Z-0.075
G81 X1.9422 Y2.3685 Z-0.075
G81 X1.9396 Y2.6248 Z-0.075
G81 X1.4374 Y2.8656 Z-0.075
G81 X1.4425 Y3.1039 Z-0.075
G81 X1.0197 Y2.6248 Z-0.075
G81 X0.9403 Z-0.075
G81 X0.9429 Y2.4838 Z-0.075
G81 Y2.3045 Z-0.075
G81 X0.9403 Y2.2071 Z-0.075
G81 Y2.1046 Z-0.075
G81 Y2.0073 Z-0.075
G81 Y1.9048 Z-0.075
G81 X0.9429 Y1.8074 Z-0.075
G81 X0.9403 Y1.7049 Z-0.075
G81 X0.9608 Y1.564 Z-0.075
G81 X0.9403 Y1.4256 Z-0.075
G81 X1.0197 Z-0.075
G81 X1.0223 Y1.2283 Z-0.075
G81 X0.9429 Y1.1053 Z-0.075
G81 X0.9403 Y1.008 Z-0.075
G81 X0.9429 Y0.9055 Z-0.075
G81 X0.9403 Y0.8056 Z-0.075
G81 X0.9429 Y0.7056 Z-0.075
G81 Y0.6057 Z-0.075
G81 Y0.5058 Z-0.075
G81 X0.9403 Y0.4058 Z-0.075
G81 X0.761 Y0.247 Z-0.075
G81 X0.661 Y0.1266 Z-0.075
G81 X0.5816 Z-0.075
G81 X0.2793 Y0.2854 Z-0.075
G81 X0.1793 Y0.1266 Z-0.075
G81 X0.4227 Y0.4468 Z-0.075
G81 X0.62 Y0.5852 Z-0.075
G81 X0.761 Y0.6467 Z-0.075
G81 Y0.7261 Z-0.075
G81 X0.62 Y0.9875 Z-0.075
G81 X0.4202 Y0.926 Z-0.075
G81 Y0.844 Z-0.075
G81 X0.2818 Y0.6851 Z-0.075
G81 X0.1409 Y0.8261 Z-0.075
G81 Y1.2258 Z-0.075
G81 X0.123 Y1.2847 Z-0.075
G81 X0.1998 Y1.4256 Z-0.075
G81 X0.0999 Y1.5256 Z-0.075
G81 Y1.6844 Z-0.075
G81 X0.1998 Y1.9073 Z-0.075
G81 X0.3203 Y1.9663 Z-0.075
G81 X0.4407 Y1.9073 Z-0.075
G81 X0.5047 Y1.687 Z-0.075
G81 X0.5406 Y1.5666 Z-0.075
G81 Y1.4256 Z-0.075
G81 X0.4202 Y1.3257 Z-0.075
G81 X0.761 Y1.2258 Z-0.075
G81 Y1.8048 Z-0.075
G81 X0.6226 Y2.2251 Z-0.075
G81 X0.62 Y2.366 Z-0.075
G81 X0.5406 Y2.4838 Z-0.075
G81 Y2.6248 Z-0.075
G81 X0.4612 Z-0.075
G81 X0.5995 Y2.8272 Z-0.075
G81 X0.761 Y2.8682 Z-0.075
G81 Y3.1065 Z-0.075
G81 X0.2024 Y2.8272 Z-0.075
G81 X0.0615 Y2.6273 Z-0.075
G81 X0.2229 Y2.366 Z-0.075
G81 X0.2203 Y2.2276 Z-0.075
G81 X0.761 Y2.3045 Z-0.075
G81 X1.2427 Y2.4864 Z-0.075
G81 X1.1402 Y0.1266 Z-0.075
G81 X1.0607 Z-0.075
G80
( Engrave1 )
G0 Z0.125
( T3 : 0.0039 )
T3 M6
M3 S1000
G0 X2.1302 Y3.1347
G0 Z0.0749
G1 F20.0 Z-0.0026
G1 F40.0 X2.1422 Y3.1227
G2 X2.1427 Y3.1215 I-0.0012 J-0.0012
G1 Y1.8435
G1 Y0.5655
G2 X2.141 Y0.5638 I-0.0017 J0.0
G1 X1.853
G1 X1.5657
G1 X1.5542 Y0.5523
G1 X1.5427 Y0.5408
G1 Y0.3835
G1 Y0.2255
G2 X1.541 Y0.2238 I-0.0017 J0.0
G1 X1.4822
G1 X1.4242
G1 X1.4123 Y0.2094
G1 X1.3998 Y0.1944
G2 X1.3985 Y0.1938 I-0.0013 J0.0011
G1 X1.3831
G1 X1.3676
G2 X1.3664 Y0.1943 I0.0 J0.0017
G1 X1.3482 Y0.2108
G1 X1.3299 Y0.2274
G2 X1.3293 Y0.2286 I0.0011 J0.0012
G1 Y0.2438
G1 Y0.2589
G2 X1.3297 Y0.2601 I0.0017 J0.0
G1 X1.3463 Y0.2784
G1 X1.3628 Y0.2967
G2 X1.3641 Y0.2972 I0.0012 J-0.0011
G1 X1.381
G1 X1.3979
G2 X1.3991 Y0.2967 I0.0 J-0.0017
G1 X1.4172 Y0.2767
G1 X1.4348 Y0.2572
G1 X1.4725
G1 X1.5093
G1 Y0.394
G1 Y0.5317
G1 X1.4899 Y0.5493
G1 X1.4699 Y0.5674
G2 X1.4693 Y0.5686 I0.0011 J0.0012
G1 Y0.5855
G1 Y0.6024
G2 X1.4699 Y0.6037 I0.0017 J0.0
G1 X1.4899 Y0.6218
G1 X1.5093 Y0.6394
G1 Y0.7221
G1 Y0.8038
G1 X1.4071
G1 X1.3043
G1 X1.2987 Y0.7894
G1 X1.2928 Y0.7739
G2 X1.2911 Y0.7728 I-0.0016 J0.0006
G1 X1.2385 Y0.7758
G1 X1.1859 Y0.7788
G2 X1.1843 Y0.7805 I0.0001 J0.0017
G1 Y0.8055
G1 Y0.8305
G2 X1.186 Y0.8322 I0.0017 J0.0
G1 X1.3635 Y0.8349
G1 X1.541 Y0.8377
G2 X1.5427 Y0.836 I0.0 J-0.0017
G1 Y0.7328
G1 Y0.6302
G1 X1.5542 Y0.6187
G1 X1.5657 Y0.6072
G1 X1.833
G1 X2.0993
G1 Y1.0355
G1 Y1.4638
G1 X2.091
G3 X2.0618 Y1.4517 I0.014 J-0.0751
G1 X2.0617
G1 X2.0418 Y1.4392
G2 X2.04 I-0.0009 J0.0014
G1 X2.0226 Y1.4503
G1 X2.0051 Y1.4613
G2 X2.0043 Y1.4627 I0.0009 J0.0014
G1 Y1.4855
G1 Y1.5083
G2 X2.0051 Y1.5098 I0.0017 J0.0
G1 X2.0226 Y1.5208
G1 X2.04 Y1.5318
G2 X2.0418 I0.0009 J-0.0014
G1 X2.0617 Y1.5194
G3 X2.091 Y1.5072 I0.0501 J0.0792
G1 X2.0993
G1 Y1.5855
G1 Y1.6638
G1 X2.0925
G3 X2.0724 Y1.6495 I0.0107 J-0.0364
G2 X2.0723 Y1.6494 I-0.0014 J0.001
G1 X2.0598 Y1.6344
G2 X2.0585 Y1.6338 I-0.0013 J0.0011
G1 X2.0431
G1 X2.0276
G2 X2.0264 Y1.6343 I0.0 J0.0017
G1 X2.0082 Y1.6508
G1 X1.9899 Y1.6674
G2 X1.9893 Y1.6686 I0.0011 J0.0012
G1 Y1.6838
G1 Y1.6989
G2 X1.9897 Y1.7001 I0.0017 J0.0
G1 X2.0063 Y1.7184
G1 X2.0228 Y1.7367
G2 X2.0241 Y1.7372 I0.0012 J-0.0011
G1 X2.0413
G1 X2.0585
G2 X2.0598 Y1.7366 I0.0 J-0.0017
G1 X2.0723 Y1.7216
G3 X2.0925 Y1.7072 I0.035 J0.0278
G1 X2.0993
G1 Y2.1555
G1 Y2.6038
G1 X2.0422
G1 X1.9842
G1 X1.9723 Y2.5894
G1 X1.9598 Y2.5744
G2 X1.9585 Y2.5738 I-0.0013 J0.0011
G1 X1.9431
G1 X1.9276
G2 X1.9264 Y2.5743 I0.0 J0.0017
G1 X1.9082 Y2.5908
G1 X1.8899 Y2.6074
G2 X1.8893 Y2.6086 I0.0011 J0.0012
G1 Y2.6238
G1 Y2.6389
G2 X1.8897 Y2.6401 I0.0017 J0.0
G1 X1.9063 Y2.6584
G1 X1.9228 Y2.6767
G2 X1.9241 Y2.6772 I0.0012 J-0.0011
G1 X1.9413
G1 X1.9585
G2 X1.9598 Y2.6766 I0.0 J-0.0017
G1 X1.9723 Y2.6616
G1 X1.9842 Y2.6472
G1 X2.0422
G1 X2.0993
G1 Y2.8555
G1 Y3.0638
G1 X1.071
G1 X0.0427
G1 Y2.8705
G1 Y2.6772
G1 X0.0577
G1 X0.0744
G2 X0.0755 Y2.6768 I0.0 J-0.0017
G1 X0.0938 Y2.6602
G1 X0.1121 Y2.6437
G2 X0.1127 Y2.6424 I-0.0011 J-0.0012
G1 Y2.6273
G1 Y2.6121
G2 X0.1122 Y2.611 I-0.0017 J0.0
G1 X0.0957 Y2.5927
G1 X0.0791 Y2.5744
G2 X0.0779 Y2.5738 I-0.0012 J0.0011
G1 X0.0594
G1 X0.0427
G1 Y2.1405
G1 Y1.7072
G1 X0.0495
G3 X0.0696 Y1.7215 I-0.0107 J0.0364
G2 X0.0697 Y1.7216 I0.0014 J-0.001
G1 X0.0821 Y1.7366
G2 X0.0834 Y1.7372 I0.0013 J-0.0011
G1 X0.0989
G1 X0.1144
G2 X0.1155 Y1.7368 I0.0 J-0.0017
G1 X0.1338 Y1.7202
G1 X0.1521 Y1.7037
G2 X0.1527 Y1.7024 I-0.0011 J-0.0012
G1 Y1.6873
G1 Y1.6721
G2 X0.1522 Y1.671 I-0.0017 J0.0
G1 X0.1357 Y1.6527
G1 X0.1191 Y1.6344
G2 X0.1179 Y1.6338 I-0.0012 J0.0011
G1 X0.1007
G1 X0.0834
G2 X0.0821 Y1.6344 I0.0 J0.0017
G1 X0.0697 Y1.6494
G1 Y1.6495
G3 X0.0495 Y1.6638 I-0.035 J-0.0278
G1 X0.0427
G1 Y1.6055
G1 Y1.5472
G1 X0.051
G3 X0.0802 Y1.5593 I-0.0141 J0.0752
G1 X0.0803 Y1.5594
G1 X0.1002 Y1.5718
G2 X0.102 I0.0009 J-0.0014
G1 X0.1194 Y1.5608
G1 X0.1369 Y1.5498
G2 X0.1377 Y1.5483 I-0.0009 J-0.0014
G1 Y1.5255
G1 Y1.5027
G2 X0.1369 Y1.5013 I-0.0017 J0.0
G1 X0.1194 Y1.4903
G1 X0.102 Y1.4792
G2 X0.1002 I-0.0009 J0.0014
G1 X0.0803 Y1.4917
G3 X0.0509 Y1.5038 I-0.0501 J-0.0792
G1 X0.0427
G1 Y1.0555
G1 Y0.6072
G1 X0.3077
G1 X0.5738
G1 X0.5916 Y0.6233
G1 X0.6093 Y0.6394
G1 Y0.7373
G1 Y0.836
G2 X0.611 Y0.8376 I0.0017 J0.0
G1 X0.8035 Y0.8349
G1 X0.996 Y0.8322
G2 X0.9977 Y0.8305 I0.0 J-0.0017
G1 Y0.8055
G1 Y0.7805
G2 X0.9961 Y0.7788 I-0.0017 J0.0
G1 X0.9435 Y0.7758
G1 X0.8909 Y0.7728
G2 X0.8892 Y0.7739 I-0.0001 J0.0017
G1 X0.8832 Y0.7894
G1 X0.8777 Y0.8038
G1 X0.7599
G1 X0.6427
G1 Y0.7167
G1 Y0.6288
G1 X0.6571 Y0.6168
G1 X0.6721 Y0.6044
G2 X0.6727 Y0.6031 I-0.0011 J-0.0013
G1 Y0.5855
G1 Y0.568
G2 X0.6721 Y0.5667 I-0.0017 J0.0
G1 X0.6571 Y0.5542
G1 X0.6427 Y0.5423
G1 Y0.3993
G1 Y0.2572
G1 X0.6744
G1 X0.7071
G1 X0.7247 Y0.2767
G1 X0.7428 Y0.2967
G2 X0.7441 Y0.2972 I0.0012 J-0.0011
G1 X0.7593
G1 X0.7744
G2 X0.7755 Y0.2968 I0.0 J-0.0017
G1 X0.7938 Y0.2802
G1 X0.8121 Y0.2637
G2 X0.8127 Y0.2624 I-0.0011 J-0.0012
G1 Y0.2473
G1 Y0.2321
G2 X0.8122 Y0.231 I-0.0017 J0.0
G1 X0.7957 Y0.2127
G1 X0.7791 Y0.1944
G2 X0.7779 Y0.1938 I-0.0012 J0.0011
G1 X0.7607
G1 X0.7434
G2 X0.7421 Y0.1944 I0.0 J0.0017
G1 X0.7297 Y0.2094
G1 X0.7178 Y0.2238
G1 X0.6648
G1 X0.611
G2 X0.6093 Y0.2255 I0.0 J0.0017
G1 Y0.3772
G1 Y0.5283
G1 X0.5932 Y0.5461
G1 X0.5771 Y0.5638
G1 X0.2894
G1 X0.001
G2 X-0.0007 Y0.5655 I0.0 J0.0017
G1 Y1.8419
G1 Y3.1183
G2 X0.0 Y3.1197 I0.0017 J0.0
G1 X0.0175 Y3.1329
G1 X0.035 Y3.1462
G2 X0.036 Y3.1466 I0.001 J-0.0013
G1 X1.0765 Y3.1469
G1 X2.117 Y3.1472
G2 X2.1182 Y3.1467 I0.0 J-0.0017
G1 X2.1302 Y3.1347
G0 Z0.125
G0 X2.052 Y3.0355
G0 Z0.0749
G1 F20.0 Z-0.0026
G2 F40.0 X2.0527 Y3.0342 I-0.001 J-0.0013
G1 Y3.0239
G1 Y3.0136
G2 X2.0514 Y3.012 I-0.0017 J0.0
G1 X2.0314 Y3.0068
G1 X2.0127 Y3.0019
G1 Y2.9844
G1 Y2.9672
G1 X2.0254
G1 X2.0255
G2 X2.0477 Y2.9559 I-0.0016 J-0.0306
G2 X2.0478 Y2.9557 I-0.0013 J-0.0011
G1 X2.0544 Y2.9451
G2 X2.0542 Y2.943 I-0.0014 J-0.0009
G1 X2.0488 Y2.9376
G1 X2.0435 Y2.9323
G2 X2.0417 Y2.9319 I-0.0012 J0.0012
G1 X1.9761 Y2.9537
G1 X1.9105 Y2.9756
G2 X1.9093 Y2.9772 I0.0005 J0.0016
G1 Y2.9859
G1 Y2.9947
G2 X1.9105 Y2.9963 I0.0017 J0.0
G1 X1.9505 Y3.0083
G1 X1.9714 Y3.0156
G1 X1.9715
G3 X1.9893 Y3.0263 I-0.0122 J0.0407
G1 Y3.0325
G2 X1.9909 Y3.0342 I0.0017 J0.0
G1 X2.0209 Y3.035
G1 X2.021
G1 X2.0209
G1 X2.021
G1 X2.0509 Y3.0359
G2 X2.052 Y3.0355 I0.0 J-0.0017
G0 Z0.125
G0 X2.051 Y2.9172
G0 Z0.0749
G1 F20.0 Z-0.0026
G1 F40.0 X2.031
G1 X2.011
G3 X2.0093 Y2.9155 I0.0 J-0.0017
G1 Y2.9055
G3 X2.021 Y2.8938 I0.0117 J0.0
G1 X2.0293
G1 Y2.8755
G1 Y2.8572
G1 X1.981
G1 X1.9327
G1 Y2.8755
G1 Y2.8938
G1 X1.941
G3 X1.9527 Y2.9055 I0.0 J0.0117
G1 Y2.9155
G3 X1.951 Y2.9172 I-0.0017 J0.0
G1 X1.931
G1 X1.911
G3 X1.9093 Y2.9155 I0.0 J-0.0017
G1 Y2.8755
G1 Y2.8355
G3 X1.911 Y2.8338 I0.0017 J0.0
G1 X1.981
G1 X2.051
G3 X2.0527 Y2.8355 I0.0 J0.0017
G1 Y2.8755
G1 Y2.9155
G3 X2.051 Y2.9172 I-0.0017 J0.0
G0 Z0.125
G0 X2.0085 Y2.7936
G0 Z0.0749
G1 F20.0 Z-0.0026
G3 F40.0 X1.9832 Y2.8017 I-0.2389 J-0.6946
G1 X1.9546 Y2.8107
G3 X1.9249 Y2.8172 I-0.0408 J-0.1154
G3 X1.9247 I-0.0002 J-0.0017
G1 X1.911
G3 X1.9093 Y2.8155 I0.0 J-0.0017
G1 Y2.8059
G1 Y2.7963
G3 X1.9105 Y2.7947 I0.0017 J0.0
G1 X1.9505 Y2.7827
G3 X1.9506 I0.0005 J0.0016
G2 X1.9884 Y2.7654 I-0.0201 J-0.0937
G2 X1.9715 Y2.7556 I-0.0304 J0.0332
G1 X1.9714
G1 X1.9505 Y2.7483
G1 X1.9105 Y2.7363
G3 X1.9093 Y2.7347 I0.0005 J-0.0016
G1 Y2.7251
G1 Y2.7155
G3 X1.9111 Y2.7138 I0.0017 J0.0
G1 X1.9286 Y2.7146
G3 X1.9288 Y2.7147 I-0.0001 J0.0017
G3 X1.9959 Y2.7329 I-0.1416 J0.6541
G1 X2.0453 Y2.7502
G3 X2.0464 Y2.7513 I-0.0006 J0.0016
G1 X2.0503 Y2.7631
G1 X2.0543 Y2.775
G3 X2.0532 Y2.7771 I-0.0016 J0.0005
G1 X2.0399 Y2.7819
G3 X2.0085 Y2.7936 I-0.2704 J-0.6829
G0 Z0.125
G0 X1.8426 Y2.746
G0 Z0.0749
G1 F20.0 Z-0.0026
G3 F40.0 X1.841 Y2.7472 I-0.0016 J-0.0005
G1 X1.531
G1 X1.221
G3 X1.2193 Y2.7455 I0.0 J-0.0017
G1 Y2.6367
G1 Y2.5288
G1 X1.2049 Y2.5168
G1 X1.1899 Y2.5044
G3 X1.1893 Y2.5031 I0.0011 J-0.0013
G1 Y2.4855
G1 Y2.468
G3 X1.1899 Y2.4667 I0.0017 J0.0
G1 X1.2049 Y2.4542
G1 X1.2193 Y2.4423
G1 Y2.3905
G1 Y2.3392
G1 X1.1998 Y2.334
G1 X1.179 Y2.3286
G3 X1.1777 Y2.3267 I0.0004 J-0.0016
G1 X1.181 Y2.3035
G1 X1.1843 Y2.2803
G3 X1.186 Y2.2788 I0.0017 J0.0002
G1 X1.2728
G1 X1.359
G1 X1.3711 Y2.2668
G1 X1.3712
G3 X1.4014 Y2.2538 I0.0325 J0.0341
G1 X1.4179
G3 X1.4191 Y2.2544 I0.0 J0.0017
G1 X1.4357 Y2.2727
G1 X1.4522 Y2.291
G3 X1.4527 Y2.2921 I-0.0012 J0.0011
G1 Y2.3073
G1 Y2.3224
G3 X1.4521 Y2.3237 I-0.0017 J0.0
G1 X1.4338 Y2.3402
G1 X1.4155 Y2.3568
G3 X1.4144 Y2.3572 I-0.0011 J-0.0012
G1 X1.3989
G1 X1.3834
G3 X1.3821 Y2.3566 I0.0 J-0.0017
G1 X1.3697 Y2.3416
G1 X1.3578 Y2.3272
G1 X1.3323 Y2.3273
G2 X1.2839 Y2.3335 I0.0081 J0.2584
G1 X1.2627 Y2.3391
G1 Y2.3905
G1 Y2.4423
G1 X1.2771 Y2.4542
G1 X1.2921 Y2.4667
G3 X1.2927 Y2.468 I-0.0011 J0.0013
G1 Y2.4855
G1 Y2.5031
G3 X1.2921 Y2.5044 I-0.0017 J0.0
G1 X1.2771 Y2.5168
G1 X1.2627 Y2.5288
G1 Y2.6167
G1 Y2.7038
G1 X1.531
G1 X1.7993
G1 Y2.3054
G1 Y1.9057
G1 X1.7871 Y1.8862
G1 X1.7747 Y1.8663
G3 Y1.8646 I0.0014 J-0.0009
G1 X1.7857 Y1.8471
G1 X1.7967 Y1.8296
G3 X1.7978 Y1.8289 I0.0014 J0.0009
G1 X1.8147 Y1.8255
G1 X1.8316 Y1.8222
G3 X1.833 Y1.8226 I0.0003 J0.0017
G1 X1.8475 Y1.8346
G1 X1.8621 Y1.8467
G3 X1.8627 Y1.848 I-0.0011 J0.0013
G1 Y1.8662
G1 Y1.8843
G3 X1.8619 Y1.8858 I-0.0017 J0.0
G1 X1.8519 Y1.892
G1 X1.8427 Y1.8976
G1 Y2.3211
G1 Y2.7455
G3 X1.8426 Y2.746 I-0.0017 J0.0
G0 Z0.125
G0 X1.7621 Y2.6468
G0 Z0.0749
G1 F20.0 Z-0.0026
G3 F40.0 X1.761 Y2.6472 I-0.0011 J-0.0013
G1 X1.6722
G1 X1.5842
G1 X1.5723 Y2.6616
G1 X1.5598 Y2.6766
G3 X1.5585 Y2.6772 I-0.0013 J-0.0011
G1 X1.541
G1 X1.5234
G3 X1.5221 Y2.6766 I0.0 J-0.0017
G1 X1.5097 Y2.6616
G1 X1.4978 Y2.6472
G1 X1.481
G1 X1.4642
G1 X1.4523 Y2.6616
G1 X1.4398 Y2.6766
G3 X1.4385 Y2.6772 I-0.0013 J-0.0011
G1 X1.4213
G1 X1.4041
G3 X1.4028 Y2.6767 I0.0 J-0.0017
G1 X1.3863 Y2.6584
G1 X1.3697 Y2.6401
G3 X1.3693 Y2.6389 I0.0012 J-0.0011
G1 Y2.6238
G1 Y2.6086
G3 X1.3699 Y2.6074 I0.0017 J0.0
G1 X1.3882 Y2.5908
G1 X1.4064 Y2.5743
G3 X1.4076 Y2.5738 I0.0011 J0.0012
G1 X1.4231
G1 X1.4385
G3 X1.4398 Y2.5744 I0.0 J0.0017
G1 X1.4523 Y2.5894
G1 X1.4642 Y2.6038
G1 X1.481
G1 X1.4978
G1 X1.5097 Y2.5894
G1 X1.5221 Y2.5744
G3 X1.5234 Y2.5738 I0.0013 J0.0011
G1 X1.541
G1 X1.5585
G3 X1.5598 Y2.5744 I0.0 J0.0017
G1 X1.5723 Y2.5894
G1 X1.5842 Y2.6038
G1 X1.6522
G1 X1.7193
G1 Y2.3643
G1 Y2.1248
G1 X1.4535 Y2.1285
G1 X1.186 Y2.1322
G3 X1.1843 Y2.1305 I0.0 J-0.0017
G1 Y2.1055
G1 Y2.0805
G3 X1.186 Y2.0788 I0.0017 J0.0
G1 X1.2385 Y2.0792
G1 X1.526 Y2.0817
G1 X1.761 Y2.0838
G3 X1.7627 Y2.0855 I0.0 J0.0017
G1 Y2.3655
G1 Y2.6455
G3 X1.7621 Y2.6468 I-0.0017 J0.0
G0 Z0.125
G0 X1.6593 Y2.5333
G0 Z0.0749
G1 F20.0 Z-0.0026
G1 F40.0 X1.6555 Y2.5368
G3 X1.6544 Y2.5372 I-0.0011 J-0.0012
G1 X1.6389
G1 X1.6234
G3 X1.6221 Y2.5366 I0.0 J-0.0017
G1 X1.6097 Y2.5216
G1 X1.5978 Y2.5072
G1 X1.5598
G1 X1.521
G3 X1.5193 Y2.5055 I0.0 J-0.0017
G1 Y2.4567
G1 Y2.4088
G1 X1.5049 Y2.3968
G1 X1.4899 Y2.3844
G3 X1.4893 Y2.3831 I0.0011 J-0.0013
G1 Y2.3658
G1 Y2.3486
G3 X1.4899 Y2.3474 I0.0017 J0.0
G1 X1.5099 Y2.3293
G1 X1.5293 Y2.3117
G1 Y2.2955
G1 Y2.2794
G1 X1.5099 Y2.2618
G1 X1.4899 Y2.2437
G3 X1.4893 Y2.2424 I0.0011 J-0.0012
G1 Y2.229
G1 Y2.2172
G1 X1.398
G1 X1.3057
G1 X1.2956 Y2.2273
G1 X1.285 Y2.2379
G3 X1.2837 Y2.2384 I-0.0012 J-0.0012
G1 X1.2348 Y2.2353
G1 X1.1859 Y2.2322
G3 X1.1843 Y2.2305 I0.0001 J-0.0017
G1 Y2.2055
G1 Y2.1805
G3 X1.186 Y2.1788 I0.0017 J0.0
G1 X1.3741 Y2.1806
G1 X1.5621 Y2.1823
G3 X1.5632 Y2.1827 I0.0 J0.0017
G1 X1.5776 Y2.1947
G1 X1.5921 Y2.2067
G3 X1.5927 Y2.208 I-0.0011 J0.0013
G1 Y2.2255
G1 Y2.2431
G3 X1.5921 Y2.2444 I-0.0017 J0.0
G1 X1.5771 Y2.2568
G1 X1.5627 Y2.2688
G1 Y2.2955
G1 Y2.3223
G1 X1.5771 Y2.3342
G1 X1.5921 Y2.3467
G3 X1.5927 Y2.348 I-0.0011 J0.0013
G1 Y2.3655
G1 Y2.3831
G3 X1.5921 Y2.3844 I-0.0017 J0.0
G1 X1.5771 Y2.3968
G1 X1.5627 Y2.4088
G1 Y2.4367
G1 Y2.4638
G1 X1.5798
G1 X1.5978
G1 X1.6097 Y2.4494
G1 X1.6221 Y2.4344
G3 X1.6234 Y2.4338 I0.0013 J0.0011
G1 X1.6407
G1 X1.6579
G3 X1.6591 Y2.4344 I0.0 J0.0017
G1 X1.6757 Y2.4527
G1 X1.6922 Y2.471
G3 X1.6927 Y2.4721 I-0.0012 J0.0011
G1 Y2.4873
G1 Y2.5024
G3 X1.6921 Y2.5037 I-0.0017 J0.0
G1 X1.6738 Y2.5202
G1 X1.6593 Y2.5333
G0 Z0.125
G0 X1.8918 Y2.4537
G0 Z0.0749
G1 F20.0 Z-0.0026
G3 F40.0 X1.8893 Y2.4446 I0.068 J-0.0233
G3 Y2.4441 I0.0016 J-0.0003
G3 X1.9006 Y2.4176 I0.0448 J0.0033
G1 Y2.4175
G1 X1.9105 Y2.4076
G1 X1.898 Y2.3876
G1 X1.8847 Y2.3663
G3 Y2.3646 I0.0014 J-0.0009
G1 X1.8953 Y2.3478
G1 X1.8954 Y2.3477
G3 X1.9232 Y2.3199 I0.0919 J0.0641
G1 X1.9233 Y2.3198
G1 X1.9401 Y2.3092
G3 X1.9419 I0.0009 J0.0014
G1 X1.9587 Y2.3198
G1 X1.9588
G3 X1.9867 Y2.3477 I-0.0565 J0.0844
G1 Y2.3478
G1 X1.9973 Y2.3646
G3 Y2.3663 I-0.0014 J0.0009
G1 X1.984 Y2.3876
G1 X1.9715 Y2.4076
G1 X1.9814 Y2.4175
G3 Y2.4176 I-0.0012 J0.0012
G3 X1.9927 Y2.4459 I-0.0353 J0.0304
G1 Y2.446
G1 Y2.4624
G3 X1.9921 Y2.4637 I-0.0017 J0.0
G1 X1.9738 Y2.4802
G1 X1.9555 Y2.4968
G3 X1.9544 Y2.4972 I-0.0011 J-0.0012
G1 X1.9393
G1 X1.9241
G3 X1.9228 Y2.4967 I0.0 J-0.0017
G1 X1.9063 Y2.4784
G3 X1.8918 Y2.4537 I0.0535 J-0.048
G0 Z0.125
G0 X1.9238 Y2.2772
G0 Z0.0749
G1 F20.0 Z-0.0026
G3 F40.0 X1.9228 Y2.2767 I0.0003 J-0.0017
G1 X1.9063 Y2.2584
G3 X1.8893 Y2.2246 I0.0535 J-0.048
G3 Y2.2241 I0.0016 J-0.0003
G3 X1.9006 Y2.1976 I0.0448 J0.0033
G1 Y2.1975
G1 X1.9105 Y2.1876
G1 X1.898 Y2.1676
G1 X1.8847 Y2.1463
G3 Y2.1446 I0.0014 J-0.0009
G1 X1.8953 Y2.1278
G1 X1.8954 Y2.1277
G3 X1.9232 Y2.0999 I0.0919 J0.0641
G1 X1.9233 Y2.0998
G1 X1.9401 Y2.0892
G3 X1.9419 I0.0009 J0.0014
G1 X1.9587 Y2.0998
G1 X1.9588
G3 X1.9867 Y2.1277 I-0.0565 J0.0844
G1 Y2.1278
G1 X1.9973 Y2.1446
G3 Y2.1463 I-0.0014 J0.0009
G1 X1.984 Y2.1676
G1 X1.9715 Y2.1876
G1 X1.9814 Y2.1975
G3 Y2.1976 I-0.0012 J0.0012
G3 X1.9927 Y2.2259 I-0.0353 J0.0304
G1 Y2.226
G1 Y2.2424
G3 X1.9921 Y2.2437 I-0.0017 J0.0
G1 X1.9738 Y2.2602
G1 X1.9555 Y2.2768
G3 X1.9544 Y2.2772 I-0.0011 J-0.0012
G1 X1.9393
G1 X1.9241
G3 X1.9238 I0.0 J-0.0017
G0 Z0.125
G0 X1.9241 Y2.0572
G0 Z0.0749
G1 F20.0 Z-0.0026
G3 F40.0 X1.9228 Y2.0567 I0.0 J-0.0017
G1 X1.9063 Y2.0384
G1 X1.8897 Y2.0201
G3 X1.8893 Y2.0189 I0.0012 J-0.0011
G1 Y2.0035
G1 Y1.988
G3 X1.8899 Y1.9867 I0.0017 J0.0
G1 X1.9049 Y1.9742
G1 X1.9193 Y1.9623
G1 Y1.9042
G1 Y1.8457
G1 X1.9072 Y1.8263
G1 X1.8948 Y1.8064
G3 Y1.8046 I0.0014 J-0.0009
G1 X1.9072 Y1.7848
G1 X1.9193 Y1.7653
G1 Y1.5955
G1 Y1.4257
G1 X1.9071 Y1.4062
G1 X1.8947 Y1.3863
G3 Y1.3846 I0.0014 J-0.0009
G1 X1.9057 Y1.3671
G1 X1.9167 Y1.3496
G3 X1.9182 Y1.3488 I0.0014 J0.0009
G1 X1.941
G1 X1.9638
G3 X1.9652 Y1.3496 I0.0 J0.0017
G1 X1.9763 Y1.3671
G1 X1.9873 Y1.3846
G3 Y1.3863 I-0.0014 J0.0009
G1 X1.9748 Y1.4062
G1 X1.9627 Y1.4257
G1 Y1.5955
G1 Y1.7653
G1 X1.9748 Y1.7848
G1 X1.9872 Y1.8046
G3 Y1.8064 I-0.0014 J0.0009
G1 X1.9748 Y1.8263
G1 X1.9627 Y1.8457
G1 Y1.9042
G1 Y1.9623
G1 X1.9771 Y1.9742
G1 X1.9921 Y1.9867
G3 X1.9927 Y1.988 I-0.0011 J0.0013
G1 Y2.0052
G1 Y2.0224
G3 X1.9921 Y2.0237 I-0.0017 J0.0
G1 X1.9738 Y2.0402
G1 X1.9555 Y2.0568
G3 X1.9544 Y2.0572 I-0.0011 J-0.0012
G1 X1.9393
G1 X1.9241
G0 Z0.125
G0 X1.7208 Y1.8467
G0 Z0.0749
G1 F20.0 Z-0.0026
G3 F40.0 X1.7196 Y1.8472 I-0.0012 J-0.0012
G1 X1.7015
G1 X1.6834
G3 X1.6821 Y1.8466 I0.0 J-0.0017
G1 X1.6701 Y1.8321
G1 X1.658 Y1.8176
G3 X1.6577 Y1.8162 I0.0013 J-0.0011
G1 X1.6611 Y1.7984
G1 X1.6645 Y1.7807
G3 X1.6654 Y1.7795 I0.0017 J0.0003
G1 X1.6855 Y1.7693
G1 X1.7248 Y1.7429
G1 X1.7627 Y1.7143
G1 X1.8193 Y1.67
G1 Y1.4582
G1 Y1.2472
G1 X1.6222
G1 X1.4242
G1 X1.4123 Y1.2616
G1 X1.3998 Y1.2766
G3 X1.3985 Y1.2772 I-0.0013 J-0.0011
G1 X1.381
G1 X1.3634
G3 X1.3621 Y1.2766 I0.0 J-0.0017
G1 X1.3497 Y1.2616
G1 X1.3378 Y1.2472
G1 X1.301
G1 X1.2642
G1 X1.2523 Y1.2616
G1 X1.2398 Y1.2766
G3 X1.2385 Y1.2772 I-0.0013 J-0.0011
G1 X1.2213
G1 X1.2041
G3 X1.2028 Y1.2767 I0.0 J-0.0017
G1 X1.1863 Y1.2584
G1 X1.1697 Y1.2401
G3 X1.1693 Y1.2389 I0.0012 J-0.0011
G1 Y1.2238
G1 Y1.2086
G3 X1.1699 Y1.2074 I0.0017 J0.0
G1 X1.1882 Y1.1908
G1 X1.2064 Y1.1743
G3 X1.2076 Y1.1738 I0.0011 J0.0012
G1 X1.2231
G1 X1.2385
G3 X1.2398 Y1.1744 I0.0 J0.0017
G1 X1.2523 Y1.1894
G1 X1.2642 Y1.2038
G1 X1.301
G1 X1.3378
G1 X1.3497 Y1.1894
G1 X1.3621 Y1.1744
G3 X1.3634 Y1.1738 I0.0013 J0.0011
G1 X1.381
G1 X1.3985
G3 X1.3998 Y1.1744 I0.0 J0.0017
G1 X1.4123 Y1.1894
G1 X1.4242 Y1.2038
G1 X1.6422
G1 X1.861
G3 X1.8627 Y1.2055 I0.0 J0.0017
G1 Y1.4585
G1 Y1.7114
G3 X1.862 Y1.7128 I-0.0017 J0.0
G1 X1.8118 Y1.751
G1 Y1.7511
G2 X1.7415 Y1.8178 I0.206 J0.2876
G1 X1.721 Y1.8465
G3 X1.7208 Y1.8467 I-0.0014 J-0.001
G0 Z0.125
G0 X1.6553 Y1.737
G0 Z0.0749
G1 F20.0 Z-0.0026
G3 F40.0 X1.6544 Y1.7372 I-0.0009 J-0.0014
G1 X1.6393
G1 X1.6241
G3 X1.6228 Y1.7367 I0.0 J-0.0017
G1 X1.6047 Y1.7167
G1 X1.5871 Y1.6972
G1 X1.5744
G1 X1.5627
G1 Y1.8055
G1 Y1.9155
G3 X1.561 Y1.9172 I-0.0017 J0.0
G1 X1.433
G1 X1.3057
G1 X1.2956 Y1.9273
G1 X1.285 Y1.9379
G3 X1.2837 Y1.9384 I-0.0012 J-0.0012
G1 X1.2348 Y1.9353
G1 X1.1859 Y1.9322
G3 X1.1843 Y1.9305 I0.0001 J-0.0017
G1 Y1.9055
G1 Y1.8805
G3 X1.186 Y1.8788 I0.0017 J0.0
G1 X1.3585 Y1.8827
G1 X1.5293 Y1.8865
G1 Y1.7769
G1 Y1.6655
G3 X1.531 Y1.6638 I0.0017 J0.0
G1 X1.5648
G1 X1.5978
G1 X1.6101 Y1.6489
G1 X1.623 Y1.6334
G3 X1.6245 Y1.6329 I0.0013 J0.0011
G1 X1.6453 Y1.6356
G1 X1.6655 Y1.6382
G1 X1.6975 Y1.6145
G1 X1.7293 Y1.5909
G1 Y1.5136
G1 Y1.4372
G1 X1.6025
G1 X1.4748
G1 X1.4572 Y1.4567
G1 X1.4391 Y1.4767
G3 X1.4379 Y1.4772 I-0.0012 J-0.0011
G1 X1.421
G1 X1.4041
G3 X1.4028 Y1.4767 I0.0 J-0.0017
G1 X1.3863 Y1.4584
G1 X1.3697 Y1.4401
G3 X1.3693 Y1.4389 I0.0012 J-0.0011
G1 Y1.4238
G1 Y1.4086
G3 X1.3699 Y1.4074 I0.0017 J0.0
G1 X1.3882 Y1.3908
G1 X1.4064 Y1.3743
G3 X1.4076 Y1.3738 I0.0011 J0.0012
G1 X1.4231
G1 X1.4385
G3 X1.4398 Y1.3744 I0.0 J0.0017
G1 X1.4523 Y1.3894
G1 X1.4642 Y1.4038
G1 X1.6122
G1 X1.761
G3 X1.7627 Y1.4055 I0.0 J0.0017
G1 Y1.513
G1 Y1.6205
G3 X1.762 Y1.6218 I-0.0017 J0.0
G1 X1.727 Y1.6498
G1 X1.6927 Y1.6772
G1 Y1.6894
G3 X1.6926 Y1.6898 I-0.0017 J0.0
G3 X1.6738 Y1.7202 I-0.0532 J-0.0118
G1 X1.6555 Y1.7368
G3 X1.6553 Y1.737 I-0.0011 J-0.0012
G0 Z0.125
G0 X1.6544 Y1.5972
G0 Z0.0749
G1 F20.0 Z-0.0026
G1 F40.0 X1.6389
G1 X1.6234
G3 X1.6221 Y1.5966 I0.0 J-0.0017
G1 X1.6097 Y1.5816
G1 X1.5978 Y1.5672
G1 X1.5098
G1 X1.4227
G1 Y1.6643
G1 Y1.7623
G1 X1.4371 Y1.7742
G1 X1.4521 Y1.7867
G3 X1.4527 Y1.788 I-0.0011 J0.0013
G1 Y1.8052
G1 Y1.8224
G3 X1.4521 Y1.8237 I-0.0017 J0.0
G1 X1.4338 Y1.8402
G3 X1.4 Y1.8572 I-0.048 J-0.0535
G3 X1.3996 I-0.0003 J-0.0016
G3 X1.3712 Y1.8442 I0.0038 J-0.046
G1 X1.3711
G1 X1.359 Y1.8322
G1 X1.2728
G1 X1.186
G3 X1.1843 Y1.8305 I0.0 J-0.0017
G1 Y1.8055
G1 Y1.7805
G3 X1.186 Y1.7788 I0.0017 J0.0
G1 X1.271
G1 X1.3555
G1 X1.3676 Y1.771
G1 X1.3793 Y1.7634
G1 Y1.6449
G1 Y1.5255
G3 X1.381 Y1.5238 I0.0017 J0.0
G1 X1.4898
G1 X1.5978
G1 X1.6097 Y1.5094
G1 X1.6221 Y1.4944
G3 X1.6234 Y1.4938 I0.0013 J0.0011
G1 X1.6407
G1 X1.6579
G3 X1.6591 Y1.4944 I0.0 J0.0017
G1 X1.6757 Y1.5127
G1 X1.6922 Y1.531
G3 X1.6927 Y1.5321 I-0.0012 J0.0011
G1 Y1.5473
G1 Y1.5624
G3 X1.6921 Y1.5637 I-0.0017 J0.0
G1 X1.6738 Y1.5802
G1 X1.6555 Y1.5968
G3 X1.6544 Y1.5972 I-0.0011 J-0.0012
G0 Z0.125
G0 X1.7236 Y1.3771
G0 Z0.0749
G1 F20.0 Z-0.0026
G3 F40.0 X1.7228 Y1.3767 I0.0005 J-0.0016
G1 X1.7047 Y1.3567
G1 X1.6871 Y1.3372
G1 X1.4744
G1 X1.2627
G1 Y1.4193
G1 Y1.5023
G1 X1.2771 Y1.5142
G1 X1.2921 Y1.5267
G3 X1.2927 Y1.528 I-0.0011 J0.0013
G1 Y1.5455
G1 Y1.5631
G3 X1.2921 Y1.5644 I-0.0017 J0.0
G1 X1.2771 Y1.5768
G1 X1.2627 Y1.5888
G1 Y1.6306
G1 Y1.6719
G1 X1.2822 Y1.677
G1 X1.303 Y1.6824
G3 X1.3042 Y1.6843 I-0.0004 J0.0016
G1 X1.301 Y1.7075
G1 X1.2977 Y1.7308
G3 X1.296 Y1.7322 I-0.0017 J-0.0002
G1 X1.241
G1 X1.186
G3 X1.1843 Y1.7308 I0.0 J-0.0017
G1 X1.181 Y1.7075
G1 X1.1777 Y1.6843
G3 X1.179 Y1.6824 I0.0017 J-0.0002
G1 X1.1998 Y1.677
G1 X1.2193 Y1.6719
G1 Y1.6306
G1 Y1.5888
G1 X1.2049 Y1.5768
G1 X1.1899 Y1.5644
G3 X1.1893 Y1.5631 I0.0011 J-0.0013
G1 Y1.5458
G1 Y1.5286
G3 X1.1899 Y1.5274 I0.0017 J0.0
G1 X1.2099 Y1.5093
G1 X1.2293 Y1.4917
G1 Y1.399
G1 Y1.3055
G3 X1.231 Y1.3038 I0.0017 J0.0
G1 X1.4648
G1 X1.6978
G1 X1.7097 Y1.2894
G1 X1.7221 Y1.2744
G3 X1.7234 Y1.2738 I0.0013 J0.0011
G1 X1.7407
G1 X1.7579
G3 X1.7591 Y1.2744 I0.0 J0.0017
G1 X1.7757 Y1.2927
G1 X1.7922 Y1.311
G3 X1.7927 Y1.3121 I-0.0012 J0.0011
G1 Y1.3273
G1 Y1.3424
G3 X1.7921 Y1.3437 I-0.0017 J0.0
G1 X1.7738 Y1.3602
G1 X1.7555 Y1.3768
G3 X1.7544 Y1.3772 I-0.0011 J-0.0012
G1 X1.7393
G1 X1.7241
G3 X1.7236 Y1.3771 I0.0 J-0.0017
G0 Z0.125
G0 X1.7208 Y1.1263
G0 Z0.0749
G1 F20.0 Z-0.0026
G1 F40.0 X1.5114 Y1.1286
G1 X1.186 Y1.1322
G3 X1.1843 Y1.1305 I0.0 J-0.0017
G1 Y1.1055
G1 Y1.0805
G3 X1.186 Y1.0788 I0.0017 J0.0
G1 X1.5114 Y1.0824
G1 X1.836 Y1.086
G1 X1.8488 Y1.0705
G1 X1.8621 Y1.0544
G3 X1.8634 Y1.0538 I0.0013 J0.0011
G1 X1.8807
G1 X1.8979
G3 X1.8991 Y1.0544 I0.0 J0.0017
G1 X1.9157 Y1.0727
G1 X1.9322 Y1.091
G3 X1.9327 Y1.0921 I-0.0012 J0.0011
G1 Y1.1073
G1 Y1.1224
G3 X1.9321 Y1.1237 I-0.0017 J0.0
G1 X1.9138 Y1.1402
G1 X1.8955 Y1.1568
G3 X1.8944 Y1.1572 I-0.0011 J-0.0012
G1 X1.8789
G1 X1.8634
G3 X1.8621 Y1.1566 I0.0 J-0.0017
G1 X1.8488 Y1.1405
G1 X1.836 Y1.125
G1 X1.7208 Y1.1263
G0 Z0.125
G0 X1.7437 Y1.0172
G0 Z0.0749
G1 F20.0 Z-0.0026
G1 F40.0 Y1.0171
G3 X1.7098 Y0.9967 I0.0181 J-0.0682
G1 X1.6898 Y0.9767
G3 X1.6893 Y0.9755 I0.0012 J-0.0012
G1 Y0.8977
G1 Y0.82
G3 X1.6896 Y0.819 I0.0017 J0.0
G1 X1.7052 Y0.7968
G1 X1.7207 Y0.7746
G3 X1.7221 Y0.7738 I0.0014 J0.001
G1 X1.7446
G1 X1.767
G3 X1.7682 Y0.7743 I0.0 J0.0017
G1 X1.7802 Y0.7863
G1 X1.7922 Y0.7983
G3 X1.7927 Y0.7995 I-0.0012 J0.0012
G1 Y0.8725
G1 Y0.9438
G1 X1.8148
G1 X1.8378
G1 X1.8497 Y0.9294
G1 X1.8621 Y0.9144
G3 X1.8634 Y0.9138 I0.0013 J0.0011
G1 X1.8807
G1 X1.8979
G3 X1.8991 Y0.9144 I0.0 J0.0017
G1 X1.9157 Y0.9327
G1 X1.9322 Y0.951
G3 X1.9327 Y0.9521 I-0.0012 J0.0011
G1 Y0.9673
G1 Y0.9824
G3 X1.9321 Y0.9837 I-0.0017 J0.0
G1 X1.9138 Y1.0002
G1 X1.8955 Y1.0168
G3 X1.8944 Y1.0172 I-0.0011 J-0.0012
G1 X1.8789
G1 X1.8634
G3 X1.8621 Y1.0166 I0.0 J-0.0017
G1 X1.8497 Y1.0016
G1 X1.8378 Y0.9872
G1 X1.8173 Y0.9875
G1 X1.7966 Y0.9878
G1 X1.7776 Y1.0022
G3 X1.7444 Y1.0172 I-0.0498 J-0.0661
G3 X1.7437 I-0.0003 J-0.0016
G0 Z0.125
G0 X1.6426 Y0.9959
G0 Z0.0749
G1 F20.0 Z-0.0026
G3 F40.0 X1.641 Y0.9972 I-0.0016 J-0.0003
G1 X1.6075
G1 X1.5748
G1 X1.5572 Y1.0167
G1 X1.5391 Y1.0367
G3 X1.5379 Y1.0372 I-0.0012 J-0.0011
G1 X1.521
G1 X1.5041
G3 X1.5028 Y1.0367 I0.0 J-0.0017
G1 X1.4863 Y1.0184
G1 X1.4697 Y1.0001
G3 X1.4693 Y0.9989 I0.0012 J-0.0011
G1 Y0.9838
G1 Y0.9686
G3 X1.4699 Y0.9674 I0.0017 J0.0
G1 X1.4899 Y0.9493
G3 Y0.9492 I0.0011 J0.0012
G2 X1.5093 Y0.9236 I-0.0401 J-0.0505
G1 Y0.9172
G1 X1.408
G1 X1.3057
G1 X1.2956 Y0.9273
G1 X1.285 Y0.9379
G3 X1.2837 Y0.9384 I-0.0012 J-0.0012
G1 X1.2348 Y0.9353
G1 X1.1859 Y0.9322
G3 X1.1843 Y0.9305 I0.0001 J-0.0017
G1 Y0.9055
G1 Y0.8805
G3 X1.186 Y0.8788 I0.0017 J0.0
G1 X1.2385 Y0.8792
G1 X1.416 Y0.8817
G1 X1.541 Y0.8838
G3 X1.5427 Y0.8855 I0.0 J0.0017
G1 Y0.9135
G1 Y0.9408
G1 X1.5542 Y0.9523
G1 X1.5657 Y0.9638
G1 X1.588
G1 X1.6093
G1 Y0.8155
G1 Y0.6655
G3 X1.611 Y0.6638 I0.0017 J0.0
G1 X1.7248
G1 X1.8378
G1 X1.8497 Y0.6494
G1 X1.8621 Y0.6344
G3 X1.8634 Y0.6338 I0.0013 J0.0011
G1 X1.8807
G1 X1.8979
G3 X1.8991 Y0.6344 I0.0 J0.0017
G1 X1.9157 Y0.6527
G1 X1.9322 Y0.671
G3 X1.9327 Y0.6721 I-0.0012 J0.0011
G1 Y0.6873
G1 Y0.7024
G3 X1.9321 Y0.7037 I-0.0017 J0.0
G1 X1.9138 Y0.7202
G1 X1.8955 Y0.7368
G3 X1.8944 Y0.7372 I-0.0011 J-0.0012
G1 X1.8793
G1 X1.8641
G3 X1.8628 Y0.7367 I0.0 J-0.0017
G1 X1.8447 Y0.7167
G1 X1.8271 Y0.6972
G1 X1.7344
G1 X1.6427
G1 Y0.8455
G1 Y0.9955
G3 X1.6426 Y0.9959 I-0.0017 J0.0
G0 Z0.125
G0 X1.8297 Y0.84
G0 Z0.0749
G1 F20.0 Z-0.0026
G3 F40.0 X1.8293 Y0.8389 I0.0013 J-0.0011
G1 Y0.8238
G1 Y0.8086
G3 X1.8299 Y0.8074 I0.0017 J0.0
G1 X1.8482 Y0.7908
G1 X1.8664 Y0.7743
G3 X1.8676 Y0.7738 I0.0011 J0.0012
G1 X1.8831
G1 X1.8985
G3 X1.8998 Y0.7744 I0.0 J0.0017
G1 X1.9123 Y0.7894
G1 Y0.7895
G2 X1.9332 Y0.8037 I0.0348 J-0.0285
G2 X1.9614 Y0.7796 I-0.0294 J-0.0629
G3 X1.9615 Y0.7795 I0.0014 J0.0009
G1 X1.9811 Y0.7545
G3 X1.9824 Y0.7538 I0.0013 J0.001
G1 X2.0002
G1 X2.0179
G3 X2.0191 Y0.7544 I0.0 J0.0017
G1 X2.0357 Y0.7727
G1 X2.0522 Y0.791
G3 X2.0527 Y0.7921 I-0.0012 J0.0011
G1 Y0.8073
G1 Y0.8224
G3 X2.0521 Y0.8237 I-0.0017 J0.0
G1 X2.0338 Y0.8403
G1 X2.0155 Y0.8568
G3 X2.0141 Y0.8573 I-0.0011 J-0.0012
G1 X1.9695 Y0.8512
G1 X1.9259 Y0.8452
G1 X1.9132 Y0.8605
G1 X1.8998 Y0.8766
G3 X1.8985 Y0.8772 I-0.0013 J-0.0011
G1 X1.8813
G1 X1.8641
G3 X1.8628 Y0.8767 I0.0 J-0.0017
G1 X1.8463 Y0.8584
G1 X1.8297 Y0.8401
G1 Y0.84
G0 Z0.125
G0 X1.7548 Y0.4972
G0 Z0.0749
G1 F20.0 Z-0.0026
G3 F40.0 X1.7544 I-0.0004 J-0.0016
G1 X1.7393
G1 X1.7241
G3 X1.7228 Y0.4967 I0.0 J-0.0017
G1 X1.7063 Y0.4784
G1 X1.6897 Y0.4601
G3 X1.6893 Y0.4589 I0.0012 J-0.0011
G1 Y0.4438
G1 Y0.4286
G3 X1.6899 Y0.4274 I0.0017 J0.0
G1 X1.7099 Y0.4093
G1 X1.7293 Y0.3917
G1 Y0.214
G1 Y0.0372
G1 X1.436
G1 X1.1427
G1 Y0.0516
G1 Y0.0668
G1 X1.167 Y0.086
G1 X1.192 Y0.1057
G3 X1.1927 Y0.107 I-0.001 J0.0013
G1 Y0.1255
G1 Y0.1441
G3 X1.192 Y0.1454 I-0.0017 J0.0
G1 X1.167 Y0.1651
G1 X1.1427 Y0.1842
G1 Y0.3838
G1 Y0.5825
G1 X1.2185 Y0.5807
G1 X1.296 Y0.5788
G3 X1.2977 Y0.5805 I0.0 J0.0017
G1 Y0.6055
G1 Y0.6305
G3 X1.2961 Y0.6322 I-0.0017 J0.0
G1 X1.2472 Y0.6353
G1 X1.1983 Y0.6384
G3 X1.197 Y0.6379 I-0.0001 J-0.0017
G1 X1.1865 Y0.6274
G2 X1.159 Y0.6172 I-0.0293 J0.0368
G1 X1.1427
G1 Y1.298
G1 Y1.9789
G1 X1.3195 Y1.9817
G1 X1.4972 Y1.9845
G1 X1.5094 Y1.9698
G1 X1.5221 Y1.9544
G3 X1.5234 Y1.9538 I0.0013 J0.0011
G1 X1.5407
G1 X1.5579
G3 X1.5591 Y1.9544 I0.0 J0.0017
G1 X1.5757 Y1.9727
G1 X1.5922 Y1.991
G3 X1.5927 Y1.9921 I-0.0012 J0.0011
G1 Y2.0073
G1 Y2.0224
G3 X1.5921 Y2.0237 I-0.0017 J0.0
G1 X1.5738 Y2.0402
G1 X1.5555 Y2.0568
G3 X1.5544 Y2.0572 I-0.0011 J-0.0012
G1 X1.5389
G1 X1.5234
G3 X1.5221 Y2.0566 I0.0 J-0.0017
G1 X1.5085 Y2.0401
G1 X1.4953 Y2.0243
G1 X1.3441 Y2.0305
G1 X1.192 Y2.0368
G3 X1.1905 Y2.036 I-0.0001 J-0.0017
G1 X1.1844 Y2.0262
G1 X1.1789 Y2.0172
G1 X1.1604
G1 X1.1427
G1 Y2.4305
G1 Y2.8438
G1 X1.1495
G2 X1.1697 Y2.8295 I-0.0148 J-0.0421
G1 Y2.8294
G1 X1.1821 Y2.8144
G3 X1.1834 Y2.8138 I0.0013 J0.0011
G1 X1.201
G1 X1.2185
G3 X1.2198 Y2.8144 I0.0 J0.0017
G1 X1.2323 Y2.8294
G1 X1.2442 Y2.8438
G1 X1.321
G1 X1.3978
G1 X1.4097 Y2.8294
G1 X1.4221 Y2.8144
G3 X1.4234 Y2.8138 I0.0013 J0.0011
G1 X1.4407
G1 X1.4579
G3 X1.4591 Y2.8144 I0.0 J0.0017
G1 X1.4757 Y2.8327
G1 X1.4922 Y2.851
G3 X1.4927 Y2.8521 I-0.0012 J0.0011
G1 Y2.8673
G1 Y2.8824
G3 X1.4921 Y2.8837 I-0.0017 J0.0
G1 X1.4738 Y2.9002
G1 X1.4555 Y2.9168
G3 X1.4544 Y2.9172 I-0.0011 J-0.0012
G1 X1.4393
G1 X1.4241
G3 X1.4228 Y2.9167 I0.0 J-0.0017
G1 X1.4047 Y2.8967
G1 X1.3871 Y2.8772
G1 X1.321
G1 X1.2548
G1 X1.2388 Y2.8949
G1 X1.2227 Y2.9127
G1 Y2.9538
G1 Y2.9955
G3 X1.221 Y2.9972 I-0.0017 J0.0
G1 X0.906
G1 X0.591
G3 X0.5893 Y2.9955 I0.0 J-0.0017
G1 Y2.9371
G1 Y2.8794
G1 X0.5699 Y2.8618
G1 X0.5499 Y2.8437
G3 X0.5493 Y2.8424 I0.0011 J-0.0012
G1 Y2.8255
G1 Y2.8086
G3 X0.5499 Y2.8074 I0.0017 J0.0
G1 X0.5682 Y2.7908
G1 X0.5864 Y2.7743
G3 X0.5876 Y2.7738 I0.0011 J0.0012
G1 X0.6027
G1 X0.6179
G3 X0.6191 Y2.7744 I0.0 J0.0017
G1 X0.6357 Y2.7927
G1 X0.6522 Y2.811
G3 X0.6527 Y2.8121 I-0.0012 J0.0011
G1 Y2.8276
G1 Y2.8431
G3 X0.6521 Y2.8444 I-0.0017 J0.0
G1 X0.6371 Y2.8568
G1 X0.6227 Y2.8688
G1 Y2.9167
G1 Y2.9638
G1 X0.906
G1 X1.1893
G1 Y2.9423
G1 Y2.9197
G1 X1.1667 Y2.8985
G1 X1.144 Y2.8772
G1 X1.1278
G1 X1.111
G3 X1.1093 Y2.8755 I0.0 J-0.0017
G1 Y1.5155
G1 Y0.1572
G1 X1.1061
G2 X1.0818 Y0.1693 I0.0232 J0.0771
G3 X1.0817 Y0.1694 I-0.001 J-0.0014
G1 X1.0618 Y0.1818
G3 X1.06 I-0.0009 J-0.0014
G1 X1.0432 Y0.1712
G3 X1.0153 Y0.1433 I0.0642 J-0.092
G1 X1.0047 Y0.1264
G3 Y0.1246 I0.0014 J-0.0009
G1 X1.0153 Y0.1078
G3 X1.0432 Y0.0799 I0.0843 J0.0564
G1 Y0.0798
G1 X1.06 Y0.0692
G3 X1.0618 I0.0009 J0.0014
G1 X1.0817 Y0.0816
G2 X1.105 Y0.0933 I0.128 J-0.2266
G2 X1.1093 Y0.0657 I-0.0514 J-0.0222
G3 Y0.0655 I0.0017 J-0.0002
G1 Y0.0372
G1 X0.776
G1 X0.4427
G1 Y0.2193
G1 Y0.4023
G1 X0.4571 Y0.4142
G1 X0.4721 Y0.4267
G3 X0.4727 Y0.428 I-0.0011 J0.0013
G1 Y0.4452
G1 Y0.4624
G3 X0.4721 Y0.4637 I-0.0017 J0.0
G1 X0.4538 Y0.4802
G1 X0.4355 Y0.4968
G3 X0.4344 Y0.4972 I-0.0011 J-0.0012
G1 X0.4193
G1 X0.4041
G3 X0.4028 Y0.4967 I0.0 J-0.0017
G1 X0.3863 Y0.4784
G1 X0.3697 Y0.4601
G3 X0.3693 Y0.4589 I0.0012 J-0.0011
G1 Y0.4438
G1 Y0.4286
G3 X0.3699 Y0.4274 I0.0017 J0.0
G1 X0.3899 Y0.4093
G1 X0.4093 Y0.3917
G1 Y0.199
G1 Y0.0055
G3 X0.411 Y0.0038 I0.0017 J0.0
G1 X1.086
G1 X1.761
G3 X1.7627 Y0.0055 I0.0 J0.0017
G1 Y0.2043
G1 Y0.4023
G1 X1.7771 Y0.4142
G1 X1.7921 Y0.4267
G3 X1.7927 Y0.428 I-0.0011 J0.0013
G1 Y0.4452
G1 Y0.4624
G3 X1.7921 Y0.4637 I-0.0017 J0.0
G1 X1.7738 Y0.4802
G1 X1.7555 Y0.4968
G3 X1.7548 Y0.4972 I-0.0011 J-0.0012
G0 Z0.125
G0 X1.8593 Y0.4857
G0 Z0.0749
G1 F20.0 Z-0.0026
G3 F40.0 Y0.4855 I0.0017 J-0.0002
G1 Y0.4067
G1 Y0.3288
G1 X1.8449 Y0.3168
G1 X1.8299 Y0.3044
G3 X1.8293 Y0.3031 I0.0011 J-0.0013
G1 Y0.2858
G1 Y0.2686
G3 X1.8299 Y0.2674 I0.0017 J0.0
G1 X1.8482 Y0.2508
G1 X1.8664 Y0.2343
G3 X1.8676 Y0.2338 I0.0011 J0.0012
G1 X1.8827
G1 X1.8979
G3 X1.8991 Y0.2344 I0.0 J0.0017
G1 X1.9157 Y0.2527
G1 X1.9322 Y0.271
G3 X1.9327 Y0.2721 I-0.0012 J0.0011
G1 Y0.2876
G1 Y0.3031
G3 X1.9321 Y0.3044 I-0.0017 J0.0
G1 X1.9171 Y0.3168
G1 X1.9027 Y0.3288
G1 Y0.3867
G1 Y0.4438
G1 X1.9398
G1 X1.9778
G1 X1.9897 Y0.4294
G1 X2.0021 Y0.4144
G3 X2.0034 Y0.4138 I0.0013 J0.0011
G1 X2.0207
G1 X2.0379
G3 X2.0391 Y0.4144 I0.0 J0.0017
G1 X2.0557 Y0.4327
G1 X2.0722 Y0.451
G3 X2.0727 Y0.4521 I-0.0012 J0.0011
G1 Y0.4673
G1 Y0.4824
G3 X2.0721 Y0.4837 I-0.0017 J0.0
G1 X2.0538 Y0.5002
G1 X2.0355 Y0.5168
G3 X2.0344 Y0.5172 I-0.0011 J-0.0012
G1 X2.0189
G1 X2.0034
G3 X2.0021 Y0.5166 I0.0 J-0.0017
G1 X1.9897 Y0.5016
G1 X1.9778 Y0.4872
G1 X1.9198
G1 X1.861
G3 X1.8593 Y0.4857 I0.0 J-0.0017
G0 Z0.125
G0 X2.003 Y0.3168
G0 Z0.0749
G1 F20.0 Z-0.0026
G3 F40.0 X2.0028 Y0.3167 I0.0011 J-0.0013
G1 X1.9863 Y0.2984
G1 X1.9697 Y0.2801
G3 X1.9693 Y0.2789 I0.0012 J-0.0011
G1 Y0.2635
G1 Y0.248
G3 X1.9699 Y0.2467 I0.0017 J0.0
G1 X1.9849 Y0.2342
G1 X1.9993 Y0.2223
G1 Y0.1955
G1 Y0.1688
G1 X1.9849 Y0.1568
G1 X1.9699 Y0.1444
G3 X1.9693 Y0.1431 I0.0011 J-0.0013
G1 Y0.1258
G1 Y0.1086
G3 X1.9699 Y0.1074 I0.0017 J0.0
G1 X1.9882 Y0.0908
G1 X2.0064 Y0.0743
G3 X2.0076 Y0.0738 I0.0011 J0.0012
G1 X2.0227
G1 X2.0379
G3 X2.0391 Y0.0744 I0.0 J0.0017
G1 X2.0557 Y0.0927
G1 X2.0722 Y0.111
G3 X2.0727 Y0.1121 I-0.0012 J0.0011
G1 Y0.1276
G1 Y0.1431
G3 X2.0721 Y0.1444 I-0.0017 J0.0
G1 X2.0571 Y0.1568
G1 X2.0427 Y0.1688
G1 Y0.1955
G1 Y0.2223
G1 X2.0571 Y0.2342
G1 X2.0721 Y0.2467
G3 X2.0727 Y0.248 I-0.0011 J0.0013
G1 Y0.2652
G1 Y0.2824
G3 X2.0721 Y0.2837 I-0.0017 J0.0
G1 X2.0538 Y0.3002
G1 X2.0355 Y0.3168
G3 X2.0344 Y0.3172 I-0.0011 J-0.0012
G1 X2.0193
G1 X2.0041
G3 X2.003 Y0.3168 I0.0 J-0.0017
G0 Z0.125
G0 X1.6725 Y0.1432
G0 Z0.0749
G1 F20.0 Z-0.0026
G3 F40.0 X1.6721 Y0.1437 I-0.0015 J-0.0008
G1 X1.6538 Y0.1602
G3 X1.62 Y0.1772 I-0.048 J-0.0535
G3 X1.6196 I-0.0003 J-0.0016
G3 X1.5918 Y0.1647 I0.0042 J-0.0465
G1 X1.581 Y0.1539
G1 X1.5702 Y0.1647
G1 X1.5701 Y0.1648
G3 X1.5407 Y0.1772 I-0.033 J-0.0372
G3 X1.5405 I-0.0001 J-0.0017
G1 X1.5241
G3 X1.5228 Y0.1767 I0.0 J-0.0017
G1 X1.5047 Y0.1567
G1 X1.4871 Y0.1372
G1 X1.3947
G1 X1.3032
G1 X1.3004 Y0.2831
G1 X1.2977 Y0.4306
G3 X1.296 Y0.4322 I-0.0017 J0.0
G1 X1.241
G1 X1.186
G3 X1.1843 Y0.4305 I0.0 J-0.0017
G1 Y0.4055
G1 Y0.3805
G3 X1.1859 Y0.3788 I0.0017 J0.0
G1 X1.2284 Y0.3758
G1 X1.2693 Y0.3728
G1 Y0.2399
G1 Y0.1055
G3 X1.271 Y0.1038 I0.0017 J0.0
G1 X1.3848
G1 X1.4978
G1 X1.5097 Y0.0894
G1 X1.5221 Y0.0744
G3 X1.5234 Y0.0738 I0.0013 J0.0011
G1 X1.5402
G3 X1.5404 I0.0 J0.0017
G3 X1.5701 Y0.0862 I-0.0048 J0.0534
G3 X1.5702 Y0.0863 I-0.0011 J0.0013
G1 X1.581 Y0.0971
G1 X1.5918 Y0.0863
G1 X1.5919
G3 X1.6213 Y0.0738 I0.033 J0.0372
G3 X1.6214 I0.0001 J0.0017
G1 X1.6379
G3 X1.6391 Y0.0744 I0.0 J0.0017
G1 X1.6557 Y0.0927
G1 X1.6722 Y0.111
G3 X1.6727 Y0.1121 I-0.0012 J0.0011
G1 Y0.1273
G1 Y0.1424
G3 X1.6725 Y0.1432 I-0.0017 J0.0
G0 Z0.125
G0 X1.3821 Y0.4864
G0 Z0.0749
G1 F20.0 Z-0.0026
G3 F40.0 X1.3827 Y0.4876 I-0.0011 J0.0013
G1 Y0.5376
G1 Y0.5868
G1 X1.407 Y0.606
G1 X1.432 Y0.6257
G3 X1.4327 Y0.627 I-0.001 J0.0013
G1 Y0.6442
G1 Y0.6615
G3 X1.4322 Y0.6627 I-0.0017 J0.0
G1 X1.4202 Y0.6747
G1 X1.4094 Y0.6855
G1 X1.4202 Y0.6963
G1 X1.4203 Y0.6964
G3 X1.4327 Y0.7259 I-0.0372 J0.033
G3 Y0.726 I-0.0017 J0.0001
G1 Y0.7424
G3 X1.4321 Y0.7437 I-0.0017 J0.0
G1 X1.4138 Y0.7602
G1 X1.3955 Y0.7768
G3 X1.3944 Y0.7772 I-0.0011 J-0.0012
G1 X1.3793
G1 X1.3641
G3 X1.3628 Y0.7767 I0.0 J-0.0017
G1 X1.3463 Y0.7584
G3 X1.3294 Y0.7276 I0.0459 J-0.0453
G3 X1.3293 Y0.7272 I0.0016 J-0.0004
G1 Y0.7172
G1 X1.3181
G2 X1.2956 Y0.7273 I0.0035 J0.0379
G1 X1.285 Y0.7379
G3 X1.2837 Y0.7384 I-0.0012 J-0.0012
G1 X1.2348 Y0.7353
G1 X1.1859 Y0.7322
G3 X1.1843 Y0.7305 I0.0001 J-0.0017
G1 Y0.7055
G1 Y0.6805
G3 X1.186 Y0.6788 I0.0017 J0.0
G1 X1.2684 Y0.681
G1 X1.3477 Y0.6832
G1 X1.3371 Y0.6661
G1 X1.3248 Y0.6464
G3 Y0.6446 I0.0014 J-0.0009
G1 X1.3372 Y0.6248
G1 X1.3493 Y0.6053
G1 Y0.5607
G1 Y0.5172
G1 X1.328
G1 X1.3057
G1 X1.2956 Y0.5273
G1 X1.285 Y0.5379
G3 X1.2837 Y0.5384 I-0.0012 J-0.0012
G1 X1.2349 Y0.5353
G1 X1.1861 Y0.5322
G3 X1.1845 Y0.5308 I0.0001 J-0.0017
G1 X1.181 Y0.5123
G1 X1.1775 Y0.4937
G3 X1.1779 Y0.4922 I0.0017 J-0.0003
G1 X1.188 Y0.4821
G1 X1.1981 Y0.4721
G3 X1.1994 Y0.4716 I0.0012 J0.0012
G1 X1.2903 Y0.4788
G1 X1.3811 Y0.486
G3 X1.3821 Y0.4864 I-0.0001 J0.0017
G0 Z0.125
G0 X1.0826 Y0.5871
G0 Z0.0749
G1 F20.0 Z-0.0026
G3 F40.0 X1.0827 Y0.5876 I-0.0016 J0.0005
G1 Y1.7316
G1 Y2.8755
G3 X1.081 Y2.8772 I-0.0017 J0.0
G1 X1.0575
G1 X1.0348
G1 X1.0172 Y2.8967
G1 X0.9991 Y2.9167
G3 X0.9979 Y2.9172 I-0.0012 J-0.0011
G1 X0.981
G1 X0.9641
G3 X0.9628 Y2.9167 I0.0 J-0.0017
G1 X0.9447 Y2.8967
G1 X0.9271 Y2.8772
G1 X0.871
G1 X0.8148
G1 X0.7972 Y2.8967
G1 X0.7791 Y2.9167
G3 X0.7779 Y2.9172 I-0.0012 J-0.0011
G1 X0.761
G1 X0.7441
G3 X0.7428 Y2.9167 I0.0 J-0.0017
G1 X0.7263 Y2.8984
G1 X0.7097 Y2.8801
G3 X0.7093 Y2.8789 I0.0012 J-0.0011
G1 Y2.8638
G1 Y2.8486
G3 X0.7099 Y2.8474 I0.0017 J0.0
G1 X0.7282 Y2.8308
G1 X0.7464 Y2.8143
G3 X0.7476 Y2.8138 I0.0011 J0.0012
G1 X0.7631
G1 X0.7785
G3 X0.7798 Y2.8144 I0.0 J0.0017
G1 X0.7923 Y2.8294
G1 X0.8042 Y2.8438
G1 X0.871
G1 X0.9378
G1 X0.9497 Y2.8294
G1 X0.9621 Y2.8144
G3 X0.9634 Y2.8138 I0.0013 J0.0011
G1 X0.981
G1 X0.9985
G3 X0.9998 Y2.8144 I0.0 J0.0017
G1 X1.0123 Y2.8294
G1 X1.0242 Y2.8438
G1 X1.0372
G1 X1.0493
G1 Y2.7565
G1 Y2.6696
G1 X1.0314 Y2.6743
G1 X1.0113 Y2.6795
G3 X1.0098 Y2.6792 I-0.0004 J-0.0016
G1 X0.9956 Y2.6674
G1 X0.9824 Y2.6564
G1 X0.9626 Y2.6688
G1 X0.9418 Y2.6818
G3 X0.94 I-0.0009 J-0.0014
G1 X0.9232 Y2.6712
G3 X0.8953 Y2.6433 I0.0641 J-0.0919
G1 X0.8847 Y2.6264
G3 Y2.6246 I0.0014 J-0.0009
G1 X0.8953 Y2.6078
G3 X0.9232 Y2.5799 I0.0844 J0.0565
G1 Y2.5798
G1 X0.94 Y2.5692
G3 X0.9418 I0.0009 J0.0014
G1 X0.9626 Y2.5822
G1 X0.9824 Y2.5946
G1 X0.9956 Y2.5836
G1 X1.0098 Y2.5719
G3 X1.0113 Y2.5715 I0.0011 J0.0013
G1 X1.0314 Y2.5768
G1 X1.0493 Y2.5815
G1 Y2.2996
G1 Y2.0172
G1 X1.028
G1 X1.0057
G1 X0.9956 Y2.0273
G1 X0.985 Y2.0379
G3 X0.9837 Y2.0384 I-0.0012 J-0.0012
G1 X0.9348 Y2.0353
G1 X0.8859 Y2.0322
G3 X0.8843 Y2.0305 I0.0001 J-0.0017
G1 Y2.0055
G1 Y1.9805
G3 X0.886 Y1.9788 I0.0017 J0.0
G1 X0.9685 Y1.981
G1 X1.0493 Y1.9832
G1 Y1.7262
G1 Y1.4696
G1 X1.0314 Y1.4743
G1 X1.0113 Y1.4795
G3 X1.0098 Y1.4792 I-0.0004 J-0.0016
G1 X0.9956 Y1.4674
G1 X0.9824 Y1.4564
G1 X0.9626 Y1.4688
G1 X0.9418 Y1.4818
G3 X0.94 I-0.0009 J-0.0014
G1 X0.9232 Y1.4712
G3 X0.8953 Y1.4433 I0.0641 J-0.0919
G1 X0.8847 Y1.4264
G3 Y1.4246 I0.0014 J-0.0009
G1 X0.8953 Y1.4078
G3 X0.9232 Y1.3799 I0.0844 J0.0565
G1 Y1.3798
G1 X0.94 Y1.3692
G3 X0.9418 I0.0009 J0.0014
G1 X0.9626 Y1.3822
G1 X0.9824 Y1.3946
G1 X0.9956 Y1.3836
G1 X1.0098 Y1.3719
G3 X1.0113 Y1.3715 I0.0011 J0.0013
G1 X1.0314 Y1.3768
G1 X1.0493 Y1.3815
G1 Y1.326
G1 Y1.2703
G1 X1.0282 Y1.2744
G1 X1.0051 Y1.2788
G3 X1.0035 Y1.2782 I-0.0003 J-0.0017
G1 X0.9904 Y1.2624
G1 X0.9778 Y1.2472
G1 X0.891
G1 X0.8042
G1 X0.7923 Y1.2616
G1 X0.7798 Y1.2766
G3 X0.7785 Y1.2772 I-0.0013 J-0.0011
G1 X0.761
G1 X0.7434
G3 X0.7421 Y1.2766 I0.0 J-0.0017
G1 X0.7297 Y1.2616
G1 X0.7178 Y1.2472
G1 X0.5198
G1 X0.3227
G1 Y1.5155
G1 Y1.7838
G1 X0.391
G1 X0.461
G3 X0.4627 Y1.7855 I0.0 J0.0017
G1 Y1.8257
G1 Y1.8653
G1 X0.4748 Y1.8848
G1 X0.4873 Y1.9047
G3 Y1.9065 I-0.0014 J0.0009
G1 X0.4763 Y1.924
G1 X0.4652 Y1.9414
G3 X0.4638 Y1.9422 I-0.0014 J-0.0009
G1 X0.441
G1 X0.4182
G3 X0.4167 Y1.9414 I0.0 J-0.0017
G1 X0.4057 Y1.924
G1 X0.3947 Y1.9065
G3 Y1.9047 I0.0014 J-0.0009
G1 X0.4071 Y1.8848
G2 X0.4193 Y1.8456 I-0.0764 J-0.0452
G1 Y1.8272
G1 X0.351
G1 X0.281
G3 X0.2793 Y1.8255 I0.0 J-0.0017
G1 Y1.5155
G1 Y1.2055
G3 X0.281 Y1.2038 I0.0017 J0.0
G1 X0.4998
G1 X0.7178
G1 X0.7297 Y1.1894
G1 X0.7421 Y1.1744
G3 X0.7434 Y1.1738 I0.0013 J0.0011
G1 X0.761
G1 X0.7785
G3 X0.7798 Y1.1744 I0.0 J0.0017
G1 X0.7923 Y1.1894
G1 X0.8042 Y1.2038
G1 X0.891
G1 X0.9778
G1 X0.9904 Y1.1886
G1 X1.0035 Y1.1728
G3 X1.0051 Y1.1723 I0.0013 J0.0011
G1 X1.0282 Y1.1767
G1 X1.0493 Y1.1807
G1 Y0.8991
G1 Y0.6172
G1 X1.028
G1 X1.0057
G1 X0.9956 Y0.6273
G1 X0.985 Y0.6379
G3 X0.9837 Y0.6384 I-0.0012 J-0.0012
G1 X0.9349 Y0.6353
G1 X0.8861 Y0.6322
G3 X0.8845 Y0.6308 I0.0001 J-0.0017
G1 X0.881 Y0.6123
G1 X0.8775 Y0.5937
G3 X0.8779 Y0.5922 I0.0017 J-0.0003
G1 X0.888 Y0.5821
G1 X0.8981 Y0.5721
G3 X0.8994 Y0.5716 I0.0012 J0.0012
G1 X0.9903 Y0.5788
G1 X1.0811 Y0.586
G3 X1.0826 Y0.5871 I-0.0001 J0.0017
G0 Z0.125
G0 X0.9972 Y0.5314
G0 Z0.0749
G1 F20.0 Z-0.0026
G3 F40.0 X0.9959 Y0.5322 I-0.0014 J-0.0009
G1 X0.9471 Y0.5353
G1 X0.8983 Y0.5384
G3 X0.897 Y0.5379 I-0.0001 J-0.0017
G1 X0.8864 Y0.5273
G1 X0.8763 Y0.5172
G1 X0.829
G1 X0.7827
G1 Y0.5593
G1 Y0.6023
G1 X0.7971 Y0.6142
G1 X0.8121 Y0.6267
G3 X0.8127 Y0.628 I-0.0011 J0.0013
G1 Y0.6447
G1 Y0.6448
G3 X0.7997 Y0.6754 I-0.0468 J-0.0018
G1 X0.7901 Y0.6851
G1 X0.8909 Y0.682
G1 X0.9959 Y0.6788
G3 X0.9977 Y0.6803 I0.0001 J0.0017
G1 X1.0006 Y0.7007
G1 X1.0035 Y0.7211
G3 X1.003 Y0.7225 I-0.0017 J0.0002
G1 X0.9959 Y0.7296
G1 X0.9889 Y0.7367
G3 X0.9877 Y0.7372 I-0.0012 J-0.0012
G1 X0.9399
G1 X0.8922
G3 X0.8907 Y0.7364 I0.0 J-0.0017
G1 X0.8846 Y0.7264
G1 X0.8789 Y0.7172
G1 X0.8478
G1 X0.8168
G1 X0.8074 Y0.7379
G1 Y0.738
G3 X0.7795 Y0.771 I-0.0824 J-0.0413
G3 X0.7794 Y0.7711 I-0.001 J-0.0014
G1 X0.7619 Y0.7819
G3 X0.7601 Y0.7818 I-0.0009 J-0.0014
G1 X0.7433 Y0.7712
G1 X0.7432
G3 X0.7153 Y0.7433 I0.0565 J-0.0844
G1 X0.7047 Y0.7265
G3 Y0.7247 I0.0014 J-0.0009
G1 X0.718 Y0.7035
G1 X0.7305 Y0.6834
G1 X0.7206 Y0.6735
G3 X0.7205 Y0.6734 I0.0012 J-0.0012
G3 X0.7093 Y0.6451 I0.0354 J-0.0304
G1 Y0.6286
G3 X0.7099 Y0.6274 I0.0017 J0.0
G1 X0.7299 Y0.6093
G1 X0.7493 Y0.5917
G1 Y0.5404
G1 Y0.4885
G3 X0.7509 Y0.4868 I0.0017 J0.0
G1 X0.8674 Y0.4798
G1 X0.9839 Y0.4728
G3 X0.9852 Y0.4733 I0.0001 J0.0017
G1 X0.9946 Y0.4828
G1 X1.0041 Y0.4922
G3 X1.0045 Y0.4937 I-0.0012 J0.0012
G1 X1.001 Y0.5123
G1 X0.9975 Y0.5308
G3 X0.9972 Y0.5314 I-0.0017 J-0.0003
G0 Z0.125
G0 X0.9832 Y0.4338
G0 Z0.0749
G1 F20.0 Z-0.0026
G3 F40.0 X0.9295 Y0.4353 I-0.0338 J-0.2358
G1 X0.8859 Y0.4322
G3 X0.8843 Y0.4305 I0.0001 J-0.0017
G1 Y0.4055
G1 Y0.3805
G3 X0.8858 Y0.3789 I0.0017 J0.0
G1 X0.9083 Y0.3757
G1 X0.9293 Y0.3727
G1 Y0.2548
G1 Y0.1372
G1 X0.8225
G1 X0.7148
G1 X0.6972 Y0.1567
G1 X0.6791 Y0.1767
G3 X0.6779 Y0.1772 I-0.0012 J-0.0011
G1 X0.6614
G3 X0.6331 Y0.166 I0.0016 J-0.0453
G3 X0.633 Y0.1659 I0.0011 J-0.0013
G1 X0.6231 Y0.156
G1 X0.603 Y0.1686
G1 X0.5818 Y0.1818
G3 X0.58 I-0.0009 J-0.0014
G1 X0.5632 Y0.1712
G3 X0.5353 Y0.1433 I0.0641 J-0.0919
G1 X0.5247 Y0.1264
G3 Y0.1246 I0.0014 J-0.0009
G1 X0.5353 Y0.1078
G3 X0.5632 Y0.0799 I0.0844 J0.0565
G1 Y0.0798
G1 X0.58 Y0.0692
G3 X0.5818 I0.0009 J0.0014
G1 X0.603 Y0.0825
G1 X0.6231 Y0.095
G1 X0.633 Y0.0852
G3 X0.6331 Y0.0851 I0.0012 J0.0012
G3 X0.6617 Y0.0738 I0.0308 J0.0366
G1 X0.6618
G1 X0.6785
G3 X0.6798 Y0.0744 I0.0 J0.0017
G1 X0.6923 Y0.0894
G1 X0.7042 Y0.1038
G1 X0.8322
G1 X0.961
G3 X0.9627 Y0.1055 I0.0 J0.0017
G1 Y0.2394
G1 Y0.3719
G1 X0.9814 Y0.3768
G1 X1.0014 Y0.382
G3 X1.0027 Y0.3836 I-0.0004 J0.0016
G1 Y0.4049
G1 Y0.4261
G3 X1.0016 Y0.4277 I-0.0017 J0.0
G1 X0.9877 Y0.433
G3 X0.9874 Y0.4331 I-0.0006 J-0.0016
G3 X0.9832 Y0.4338 I-0.0379 J-0.2351
G0 Z0.125
G0 X0.9865 Y0.8789
G0 Z0.0749
G1 F20.0 Z-0.0026
G1 F40.0 X0.996 Y0.8788
G3 X0.9977 Y0.8803 I0.0 J0.0017
G1 X1.0006 Y0.9007
G1 X1.0035 Y0.9211
G3 X1.003 Y0.9225 I-0.0017 J0.0002
G1 X0.9959 Y0.9296
G1 X0.9889 Y0.9367
G3 X0.9877 Y0.9372 I-0.0012 J-0.0012
G1 X0.9399
G1 X0.8922
G3 X0.8907 Y0.9364 I0.0 J-0.0017
G1 X0.8846 Y0.9264
G1 X0.8789 Y0.9172
G1 X0.7604
G1 X0.6427
G1 Y0.9293
G1 Y0.9423
G1 X0.6571 Y0.9542
G1 X0.6721 Y0.9667
G3 X0.6727 Y0.968 I-0.0011 J0.0013
G1 Y0.9852
G1 Y1.0024
G3 X0.6721 Y1.0037 I-0.0017 J0.0
G1 X0.6538 Y1.0202
G1 X0.6355 Y1.0368
G3 X0.6344 Y1.0372 I-0.0011 J-0.0012
G1 X0.6193
G1 X0.6041
G3 X0.6028 Y1.0367 I0.0 J-0.0017
G1 X0.5847 Y1.0167
G1 X0.5671 Y0.9972
G1 X0.5394
G1 X0.511
G3 X0.5093 Y0.9955 I0.0 J-0.0017
G1 Y0.8455
G1 Y0.6972
G1 X0.4225
G1 X0.3348
G1 X0.3172 Y0.7167
G1 X0.2991 Y0.7367
G3 X0.2979 Y0.7372 I-0.0012 J-0.0011
G1 X0.281
G1 X0.2641
G3 X0.2628 Y0.7367 I0.0 J-0.0017
G1 X0.2463 Y0.7184
G1 X0.2297 Y0.7001
G3 X0.2293 Y0.6989 I0.0012 J-0.0011
G1 Y0.6838
G1 Y0.6686
G3 X0.2299 Y0.6674 I0.0017 J0.0
G1 X0.2482 Y0.6508
G1 X0.2664 Y0.6343
G3 X0.2676 Y0.6338 I0.0011 J0.0012
G1 X0.2831
G1 X0.2985
G3 X0.2998 Y0.6344 I0.0 J0.0017
G1 X0.3123 Y0.6494
G1 X0.3242 Y0.6638
G1 X0.4322
G1 X0.541
G3 X0.5427 Y0.6655 I0.0 J0.0017
G1 Y0.8155
G1 Y0.9638
G1 X0.5594
G1 X0.5771
G1 X0.5932 Y0.9461
G1 X0.6093 Y0.9283
G1 Y0.9072
G1 Y0.8855
G3 X0.611 Y0.8838 I0.0017 J0.0
G1 X0.751 Y0.8817
G1 X0.9435 Y0.8792
G1 X0.9865 Y0.8789
G0 Z0.125
G0 Y0.9788
G0 Z0.0749
G1 F20.0 Z-0.0026
G1 F40.0 X0.996
G3 X0.9977 Y0.9803 I0.0 J0.0017
G1 X1.0009 Y1.0028
G1 X1.0041 Y1.0254
G3 X1.003 Y1.0272 I-0.0017 J0.0002
G1 X0.9884 Y1.0328
G3 X0.9882 I-0.0006 J-0.0016
G3 X0.9295 Y1.0353 I-0.0375 J-0.1921
G1 X0.8859 Y1.0322
G3 X0.8843 Y1.0305 I0.0001 J-0.0017
G1 Y1.0055
G1 Y0.9805
G3 X0.886 Y0.9788 I0.0017 J0.0
G1 X0.941
G1 X0.9865
G0 Z0.125
G0 X0.9876 Y1.0789
G0 Z0.0749
G1 F20.0 Z-0.0026
G1 F40.0 X0.996 Y1.0788
G3 X0.9977 Y1.0803 I0.0 J0.0017
G1 X1.0009 Y1.1028
G1 X1.0041 Y1.1253
G3 X1.0026 Y1.1272 I-0.0017 J0.0002
G1 X0.9944 Y1.1285
G3 X0.9942 I-0.0003 J-0.0017
G1 X0.8249 Y1.1284
G1 X0.8248
G1 X0.6556 Y1.1274
G1 X0.326 Y1.1251
G1 X0.3132 Y1.1405
G1 X0.2998 Y1.1566
G3 X0.2985 Y1.1572 I-0.0013 J-0.0011
G1 X0.2813
G1 X0.2641
G3 X0.2628 Y1.1567 I0.0 J-0.0017
G1 X0.2463 Y1.1384
G1 X0.2297 Y1.1201
G3 X0.2293 Y1.1189 I0.0012 J-0.0011
G1 Y1.1038
G1 Y1.0886
G3 X0.2299 Y1.0874 I0.0017 J0.0
G1 X0.2482 Y1.0708
G1 X0.2664 Y1.0543
G3 X0.2676 Y1.0538 I0.0011 J0.0012
G1 X0.2831
G1 X0.2985
G3 X0.2998 Y1.0544 I0.0 J0.0017
G1 X0.3132 Y1.0705
G1 X0.326 Y1.086
G1 X0.6606 Y1.0824
G1 X0.9876 Y1.0789
G0 Z0.125
G0 X1.1844 Y1.0309
G0 Z0.0749
G1 F20.0 Z-0.0026
G3 F40.0 X1.1843 Y1.0305 I0.0016 J-0.0004
G1 Y1.0055
G1 Y0.9805
G3 X1.186 Y0.9788 I0.0017 J0.0
G1 X1.241
G1 X1.296
G3 X1.2977 Y0.9803 I0.0 J0.0017
G1 X1.3009 Y1.0028
G1 X1.3041 Y1.0254
G3 X1.303 Y1.0272 I-0.0017 J0.0002
G1 X1.2884 Y1.0328
G3 X1.2882 I-0.0006 J-0.0016
G3 X1.2295 Y1.0353 I-0.0375 J-0.1925
G1 X1.1859 Y1.0322
G3 X1.1844 Y1.0309 I0.0001 J-0.0017
G0 Z0.125
G0 X0.8623 Y1.3044
G0 Z0.0749
G1 F20.0 Z-0.0026
G3 F40.0 X0.8627 Y1.3055 I-0.0013 J0.0011
G1 Y1.4255
G1 Y1.5438
G1 X0.8898
G1 X0.9178
G1 X0.9297 Y1.5294
G1 X0.9421 Y1.5144
G3 X0.9434 Y1.5138 I0.0013 J0.0011
G1 X0.9607
G1 X0.9779
G3 X0.9791 Y1.5144 I0.0 J0.0017
G1 X0.9957 Y1.5327
G1 X1.0122 Y1.551
G3 X1.0127 Y1.5521 I-0.0012 J0.0011
G1 Y1.5676
G1 Y1.5831
G3 X1.0121 Y1.5844 I-0.0017 J0.0
G1 X0.9971 Y1.5968
G1 X0.9827 Y1.6088
G1 Y1.6369
G1 Y1.6653
G1 X0.994 Y1.6834
G1 X1.0056 Y1.702
G3 X1.0057 Y1.7035 I-0.0014 J0.0009
G1 X0.9993 Y1.7203
G1 X0.9928 Y1.7372
G3 X0.9911 Y1.7383 I-0.0016 J-0.0006
G1 X0.9385 Y1.7352
G1 X0.8859 Y1.7322
G3 X0.8843 Y1.7305 I0.0001 J-0.0017
G1 Y1.7055
G1 Y1.6805
G3 X0.8858 Y1.6788 I0.0017 J0.0
G1 X0.9183 Y1.6757
G1 X0.9493 Y1.6727
G1 Y1.6466
G1 Y1.6197
G1 X0.9267 Y1.5985
G1 X0.904 Y1.5772
G1 X0.8678
G1 X0.831
G3 X0.8293 Y1.5755 I0.0 J-0.0017
G1 Y1.4555
G1 Y1.3372
G1 X0.6525
G1 X0.4748
G1 X0.4572 Y1.3567
G1 X0.4391 Y1.3767
G3 X0.4379 Y1.3772 I-0.0012 J-0.0011
G1 X0.421
G1 X0.4041
G3 X0.4028 Y1.3767 I0.0 J-0.0017
G1 X0.3863 Y1.3584
G1 X0.3697 Y1.3401
G3 X0.3693 Y1.3389 I0.0012 J-0.0011
G1 Y1.3238
G1 Y1.3086
G3 X0.3699 Y1.3074 I0.0017 J0.0
G1 X0.3882 Y1.2908
G1 X0.4064 Y1.2743
G3 X0.4076 Y1.2738 I0.0011 J0.0012
G1 X0.4231
G1 X0.4385
G3 X0.4398 Y1.2744 I0.0 J0.0017
G1 X0.4523 Y1.2894
G1 X0.4642 Y1.3038
G1 X0.6622
G1 X0.861
G3 X0.8623 Y1.3044 I0.0 J0.0017
G0 Z0.125
G0 X0.7616 Y1.544
G0 Z0.0749
G1 F20.0 Z-0.0026
G3 F40.0 X0.7627 Y1.5455 I-0.0007 J0.0016
G1 Y1.6481
G1 Y1.7498
G1 X0.7844 Y1.7642
G1 X0.8065 Y1.7788
G1 X0.901
G1 X0.996
G3 X0.9977 Y1.7803 I0.0 J0.0017
G1 X1.0007 Y1.8018
G1 X1.0038 Y1.8234
G3 X1.003 Y1.8251 I-0.0017 J0.0002
G1 X0.9918 Y1.832
G1 X0.9805 Y1.839
G3 X0.9795 Y1.8392 I-0.0009 J-0.0014
G1 X0.8922 Y1.8323
G1 X0.8057 Y1.8255
G1 X0.793 Y1.8407
G1 X0.7798 Y1.8566
G3 X0.7785 Y1.8572 I-0.0013 J-0.0011
G1 X0.761
G1 X0.7434
G3 X0.7421 Y1.8566 I0.0 J-0.0017
G1 X0.7284 Y1.84
G1 X0.7147 Y1.8235
G3 X0.7143 Y1.8224 I0.0013 J-0.0011
G1 X0.7179 Y1.7039
G1 X0.7214 Y1.5872
G1 X0.6533
G1 X0.5842
G1 X0.5723 Y1.6016
G1 X0.5598 Y1.6166
G3 X0.5585 Y1.6172 I-0.0013 J-0.0011
G1 X0.5413
G1 X0.5241
G3 X0.5228 Y1.6167 I0.0 J-0.0017
G1 X0.5063 Y1.5984
G1 X0.4897 Y1.5801
G3 X0.4893 Y1.5789 I0.0012 J-0.0011
G1 Y1.5638
G1 Y1.5486
G3 X0.4899 Y1.5474 I0.0017 J0.0
G1 X0.5082 Y1.5308
G1 X0.5264 Y1.5143
G3 X0.5276 Y1.5138 I0.0011 J0.0012
G1 X0.5431
G1 X0.5585
G3 X0.5598 Y1.5144 I0.0 J0.0017
G1 X0.5723 Y1.5294
G1 X0.5842 Y1.5438
G1 X0.6722
G1 X0.761
G3 X0.7616 Y1.544 I0.0 J0.0017
G0 Z0.125
G0 X0.6422 Y1.6643
G0 Z0.0749
G1 F20.0 Z-0.0026
G3 F40.0 X0.6427 Y1.6655 I-0.0012 J0.0012
G1 Y1.7769
G1 Y1.8865
G1 X0.8185 Y1.8827
G1 X0.996 Y1.8788
G3 X0.9977 Y1.8803 I0.0 J0.0017
G1 X1.0006 Y1.9007
G1 X1.0035 Y1.9211
G3 X1.003 Y1.9225 I-0.0017 J0.0002
G1 X0.9959 Y1.9296
G1 X0.9889 Y1.9367
G3 X0.9877 Y1.9372 I-0.0012 J-0.0012
G1 X0.9399
G1 X0.8922
G3 X0.8907 Y1.9364 I0.0 J-0.0017
G1 X0.8846 Y1.9264
G1 X0.8789 Y1.9172
G1 X0.7454
G1 X0.611
G3 X0.6093 Y1.9155 I0.0 J-0.0017
G1 Y1.8055
G1 Y1.6972
G1 X0.5825
G1 X0.5548
G1 X0.5372 Y1.7167
G1 X0.5191 Y1.7367
G3 X0.5179 Y1.7372 I-0.0012 J-0.0011
G1 X0.501
G1 X0.4841
G3 X0.4828 Y1.7367 I0.0 J-0.0017
G1 X0.4647 Y1.7167
G1 X0.4471 Y1.6972
G1 X0.4194
G1 X0.391
G3 X0.3893 Y1.6955 I0.0 J-0.0017
G1 Y1.5505
G1 Y1.4055
G3 X0.391 Y1.4038 I0.0017 J0.0
G1 X0.4448
G1 X0.4978
G1 X0.5097 Y1.3894
G1 X0.5221 Y1.3744
G3 X0.5234 Y1.3738 I0.0013 J0.0011
G1 X0.5407
G1 X0.5579
G3 X0.5591 Y1.3744 I0.0 J0.0017
G1 X0.5757 Y1.3927
G1 X0.5922 Y1.411
G3 X0.5927 Y1.4121 I-0.0012 J0.0011
G1 Y1.4273
G1 Y1.4424
G3 X0.5921 Y1.4437 I-0.0017 J0.0
G1 X0.5738 Y1.4602
G1 X0.5555 Y1.4768
G3 X0.5544 Y1.4772 I-0.0011 J-0.0012
G1 X0.5393
G1 X0.5241
G3 X0.5228 Y1.4767 I0.0 J-0.0017
G1 X0.5047 Y1.4567
G1 X0.4871 Y1.4372
G1 X0.4544
G1 X0.4227
G1 Y1.5505
G1 Y1.6638
G1 X0.4398
G1 X0.4578
G1 X0.4697 Y1.6494
G1 X0.4821 Y1.6344
G3 X0.4834 Y1.6338 I0.0013 J0.0011
G1 X0.501
G1 X0.5185
G3 X0.5198 Y1.6344 I0.0 J0.0017
G1 X0.5323 Y1.6494
G1 X0.5442 Y1.6638
G1 X0.5922
G1 X0.641
G3 X0.6422 Y1.6643 I0.0 J0.0017
G0 Z0.125
G0 X0.3451 Y1.9294
G0 Z0.0749
G1 F20.0 Z-0.0026
G2 F40.0 X0.3438 Y1.9288 I-0.0013 J0.0011
G1 X0.321
G1 X0.2982
G2 X0.2967 Y1.9296 I0.0 J0.0017
G1 X0.2857 Y1.9471
G1 X0.2747 Y1.9646
G2 Y1.9663 I0.0014 J0.0009
G1 X0.2871 Y1.9862
G1 X0.2993 Y2.0057
G1 Y2.3754
G1 Y2.7455
G2 X0.301 Y2.7472 I0.0017 J0.0
G1 X0.581
G1 X0.861
G2 X0.8627 Y2.7455 I0.0 J-0.0017
G1 Y2.6255
G1 Y2.5072
G1 X0.8798
G1 X0.8978
G1 X0.9097 Y2.5216
G1 X0.9221 Y2.5366
G2 X0.9234 Y2.5372 I0.0013 J-0.0011
G1 X0.9389
G1 X0.9544
G2 X0.9555 Y2.5368 I0.0 J-0.0017
G1 X0.9738 Y2.5202
G1 X0.9921 Y2.5037
G2 X0.9927 Y2.5024 I-0.0011 J-0.0012
G1 Y2.4852
G1 Y2.468
G2 X0.9921 Y2.4667 I-0.0017 J0.0
G1 X0.9771 Y2.4542
G1 X0.9627 Y2.4423
G1 Y2.3905
G1 Y2.3392
G1 X0.9822 Y2.3341
G1 Y2.334
G1 X1.003 Y2.3286
G2 X1.0042 Y2.3267 I-0.0004 J-0.0016
G1 X1.001 Y2.3035
G1 X0.9977 Y2.2803
G2 X0.9959 Y2.2788 I-0.0017 J0.0002
G1 X0.9 Y2.2817
G1 X0.8049 Y2.2846
G1 X0.7926 Y2.2698
G1 X0.7798 Y2.2544
G2 X0.7785 Y2.2538 I-0.0013 J0.0011
G1 X0.7631
G1 X0.7476
G2 X0.7464 Y2.2543 I0.0 J0.0017
G1 X0.7282 Y2.2708
G1 X0.7099 Y2.2874
G2 X0.7093 Y2.2886 I0.0011 J0.0012
G1 Y2.3038
G1 Y2.3189
G2 X0.7097 Y2.3201 I0.0017 J0.0
G1 X0.7263 Y2.3384
G1 X0.7428 Y2.3567
G2 X0.7441 Y2.3572 I0.0012 J-0.0011
G1 X0.7613
G1 X0.7785
G2 X0.7798 Y2.3566 I0.0 J-0.0017
G1 X0.7923 Y2.3416
G1 X0.8042 Y2.3272
G1 X0.8397 Y2.3273
G3 X0.8981 Y2.3335 I0.0042 J0.2413
G1 X0.9193 Y2.3391
G1 Y2.3897
G1 Y2.4408
G1 X0.9078 Y2.4523
G1 X0.8963 Y2.4638
G1 X0.859
G1 X0.821
G2 X0.8193 Y2.4655 I0.0 J0.0017
G1 Y2.5855
G1 Y2.7038
G1 X0.581
G1 X0.3427
G1 Y2.3554
G1 Y2.0057
G1 X0.3548 Y1.9862
G1 X0.3673 Y1.9663
G2 Y1.9646 I-0.0014 J-0.0009
G1 X0.3563 Y1.9471
G1 X0.3452 Y1.9296
G2 X0.3451 Y1.9294 I-0.0014 J0.0009
G0 Z0.125
G0 X0.2475 Y1.906
G0 Z0.0749
G1 F20.0 Z-0.0026
G3 F40.0 X0.2473 Y1.9065 I-0.0016 J-0.0004
G1 X0.2363 Y1.924
G1 X0.2254 Y1.9414
G3 X0.2242 Y1.9422 I-0.0014 J-0.0009
G1 X0.2043 Y1.9452
G1 X0.1845 Y1.9482
G3 X0.1829 Y1.9476 I-0.0003 J-0.0017
G1 X0.1701 Y1.9321
G1 Y1.932
G2 X0.1495 Y1.9172 I-0.0352 J0.0271
G1 X0.1427
G1 Y2.2092
G1 Y2.5019
G1 X0.182 Y2.5291
G1 X0.222 Y2.5569
G3 X0.2227 Y2.5582 I-0.001 J0.0014
G1 Y2.6707
G1 Y2.7823
G1 X0.2371 Y2.7942
G1 X0.2521 Y2.8067
G3 X0.2527 Y2.808 I-0.0011 J0.0013
G1 Y2.8252
G1 Y2.8424
G3 X0.2521 Y2.8437 I-0.0017 J0.0
G1 X0.2338 Y2.8602
G1 X0.2155 Y2.8768
G3 X0.2144 Y2.8772 I-0.0011 J-0.0012
G1 X0.1993
G1 X0.1841
G3 X0.1828 Y2.8767 I0.0 J-0.0017
G1 X0.1663 Y2.8584
G1 X0.1497 Y2.8401
G3 X0.1493 Y2.8389 I0.0012 J-0.0011
G1 Y2.8238
G1 Y2.8086
G3 X0.1499 Y2.8074 I0.0017 J0.0
G1 X0.1699 Y2.7893
G1 X0.1893 Y2.7717
G1 Y2.6803
G1 Y2.5891
G1 X0.15 Y2.5619
G1 X0.11 Y2.5342
G3 X0.1093 Y2.5328 I0.001 J-0.0014
G1 Y2.2098
G1 Y1.8868
G3 X0.1108 Y1.8851 I0.0017 J0.0
G1 X0.1433 Y1.882
G1 X0.1743 Y1.879
G1 X0.1771 Y1.6755
G1 X0.1799 Y1.4709
G1 X0.1677 Y1.4482
G1 X0.1554 Y1.425
G3 X0.1555 Y1.4233 I0.0015 J-0.0008
G1 X0.1661 Y1.4065
G1 X0.1768 Y1.3896
G3 X0.1782 Y1.3888 I0.0014 J0.0009
G1 X0.201
G1 X0.2238
G3 X0.2252 Y1.3896 I0.0 J0.0017
G1 X0.2363 Y1.4071
G1 X0.2473 Y1.4246
G3 Y1.4263 I-0.0014 J0.0009
G1 X0.2348 Y1.4462
G1 X0.2227 Y1.4657
G1 Y1.6655
G1 Y1.8653
G1 X0.2348 Y1.8848
G1 X0.2473 Y1.9047
G3 X0.2475 Y1.906 I-0.0014 J0.0009
G0 Z0.125
G0 X0.2212 Y2.089
G0 Z0.0749
G1 F20.0 Z-0.0026
G3 F40.0 X0.2219 Y2.0892 I-0.0002 J0.0017
G1 X0.2387 Y2.0998
G1 X0.2388
G3 X0.2667 Y2.1277 I-0.0565 J0.0844
G1 Y2.1278
G1 X0.2773 Y2.1446
G3 Y2.1463 I-0.0014 J0.0009
G1 X0.264 Y2.1676
G1 X0.2515 Y2.1876
G1 X0.2614 Y2.1975
G3 Y2.1976 I-0.0012 J0.0012
G3 X0.2727 Y2.2259 I-0.0353 J0.0304
G1 Y2.226
G1 Y2.2424
G3 X0.2721 Y2.2437 I-0.0017 J0.0
G1 X0.2538 Y2.2602
G1 X0.2355 Y2.2768
G3 X0.2344 Y2.2772 I-0.0011 J-0.0012
G1 X0.2193
G1 X0.2041
G3 X0.2028 Y2.2767 I0.0 J-0.0017
G1 X0.1863 Y2.2584
G3 X0.1693 Y2.2246 I0.0535 J-0.048
G3 Y2.2241 I0.0016 J-0.0003
G3 X0.1806 Y2.1976 I0.0448 J0.0033
G1 Y2.1975
G1 X0.1905 Y2.1876
G1 X0.178 Y2.1676
G1 X0.1647 Y2.1463
G3 Y2.1446 I0.0014 J-0.0009
G1 X0.1753 Y2.1278
G1 X0.1754 Y2.1277
G3 X0.2032 Y2.0999 I0.0919 J0.0641
G1 X0.2033 Y2.0998
G1 X0.2201 Y2.0892
G3 X0.2212 Y2.089 I0.0009 J0.0014
G0 Z0.125
G0 X0.3993
G0 Z0.0749
G1 F20.0 Z-0.0026
G1 F40.0 Y2.0855
G3 X0.401 Y2.0838 I0.0017 J0.0
G1 X0.646 Y2.0817
G1 X0.7203 Y2.0811
G3 X0.7763 Y2.0806 I0.0323 J0.5046
G1 X0.8598 Y2.0799
G3 X0.9017 Y2.0796 I0.026 J0.6102
G3 X0.9226 Y2.0794 I0.0125 J0.2469
G3 X0.9436 Y2.0792 I0.0114 J0.1176
G1 X0.996 Y2.0788
G3 X0.9977 Y2.0803 I0.0 J0.0017
G1 X1.0009 Y2.1028
G1 X1.0041 Y2.1253
G3 X1.0027 Y2.1272 I-0.0017 J0.0002
G1 X0.9945 Y2.1287
G3 X0.9942 I-0.0003 J-0.0017
G1 X0.8538 Y2.1286
G3 X0.7135 Y2.1275 I0.0333 J-12.488
G1 X0.4427 Y2.1248
G1 Y2.3493
G1 Y2.5738
G1 X0.459
G3 X0.4889 Y2.5851 I-0.0007 J0.0472
G3 X0.489 Y2.5852 I-0.0011 J0.0013
G1 X0.4989 Y2.595
G1 X0.519 Y2.5825
G1 X0.5402 Y2.5692
G3 X0.542 I0.0009 J0.0014
G1 X0.5588 Y2.5798
G1 Y2.5799
G3 X0.5867 Y2.6077 I-0.0641 J0.0919
G1 Y2.6078
G1 X0.5973 Y2.6246
G3 Y2.6264 I-0.0014 J0.0009
G1 X0.5867 Y2.6433
G3 X0.5588 Y2.6712 I-0.0844 J-0.0565
G1 X0.542 Y2.6818
G3 X0.5402 I-0.0009 J-0.0014
G1 X0.519 Y2.6686
G1 X0.4989 Y2.656
G1 X0.489 Y2.6659
G3 X0.4889 Y2.666 I-0.0012 J-0.0012
G3 X0.4616 Y2.6769 I-0.0305 J-0.0369
G3 X0.4612 Y2.6768 I-0.0001 J-0.0017
G3 X0.4224 Y2.6574 I0.0154 J-0.079
G1 X0.3999 Y2.6386
G3 X0.3993 Y2.6373 I0.0011 J-0.0013
G1 Y2.3614
G1 Y2.089
G0 Z0.125
G0 X0.5696 Y2.207
G0 Z0.0749
G1 F20.0 Z-0.0026
G3 F40.0 X0.5699 Y2.2067 I0.0014 J0.001
G1 X0.5843 Y2.1948
G1 X0.5986 Y2.1828
G3 X0.5997 Y2.1825 I0.0011 J0.0013
G1 X0.7978 Y2.1806
G1 X0.996 Y2.1788
G3 X0.9977 Y2.1803 I0.0 J0.0017
G1 X1.0006 Y2.2007
G1 X1.0035 Y2.2211
G3 X1.003 Y2.2225 I-0.0017 J0.0002
G1 X0.9959 Y2.2296
G1 X0.9889 Y2.2367
G3 X0.9877 Y2.2372 I-0.0012 J-0.0012
G1 X0.9399
G1 X0.8922
G3 X0.8907 Y2.2364 I0.0 J-0.0017
G1 X0.8846 Y2.2264
G1 X0.8789 Y2.2172
G1 X0.7754
G1 X0.6727
G1 Y2.2293
G1 Y2.2431
G3 X0.6721 Y2.2444 I-0.0017 J0.0
G1 X0.6571 Y2.2568
G1 X0.6427 Y2.2688
G1 Y2.2955
G1 Y2.3223
G1 X0.6571 Y2.3342
G1 X0.6721 Y2.3467
G3 X0.6727 Y2.348 I-0.0011 J0.0013
G1 Y2.3655
G1 Y2.3831
G3 X0.6721 Y2.3844 I-0.0017 J0.0
G1 X0.6571 Y2.3968
G1 X0.6427 Y2.4088
G1 Y2.4567
G1 Y2.5055
G3 X0.641 Y2.5072 I-0.0017 J0.0
G1 X0.6122
G1 X0.5842
G1 X0.5723 Y2.5216
G1 X0.5598 Y2.5366
G3 X0.5585 Y2.5372 I-0.0013 J-0.0011
G1 X0.5413
G1 X0.5241
G3 X0.5228 Y2.5367 I0.0 J-0.0017
G1 X0.5063 Y2.5184
G1 X0.4897 Y2.5001
G3 X0.4893 Y2.4989 I0.0012 J-0.0011
G1 Y2.4838
G1 Y2.4686
G3 X0.4899 Y2.4674 I0.0017 J0.0
G1 X0.5082 Y2.4508
G1 X0.5264 Y2.4343
G3 X0.5276 Y2.4338 I0.0011 J0.0012
G1 X0.5431
G1 X0.5585
G3 X0.5598 Y2.4344 I0.0 J0.0017
G1 X0.5723 Y2.4494
G3 X0.5724 Y2.4495 I-0.0013 J0.0011
G2 X0.5925 Y2.4638 I0.0308 J-0.0221
G1 X0.5993
G1 Y2.4367
G1 Y2.4088
G1 X0.5849 Y2.3968
G1 X0.5699 Y2.3844
G3 X0.5693 Y2.3831 I0.0011 J-0.0013
G1 Y2.3655
G1 Y2.348
G3 X0.5699 Y2.3467 I0.0017 J0.0
G1 X0.5849 Y2.3342
G1 X0.5993 Y2.3223
G1 Y2.2955
G1 Y2.2688
G1 X0.5849 Y2.2568
G1 X0.5699 Y2.2444
G3 X0.5693 Y2.2431 I0.0011 J-0.0013
G1 Y2.2255
G1 Y2.208
G3 X0.5696 Y2.207 I0.0017 J0.0
G0 Z0.125
G0 X0.2773 Y2.3647
G0 Z0.0749
G1 F20.0 Z-0.0026
G3 F40.0 Y2.3663 I-0.0015 J0.0008
G1 X0.264 Y2.3876
G1 X0.2515 Y2.4076
G1 X0.2614 Y2.4175
G3 Y2.4176 I-0.0012 J0.0012
G3 X0.2727 Y2.4459 I-0.0353 J0.0304
G1 Y2.446
G1 Y2.4624
G3 X0.2721 Y2.4637 I-0.0017 J0.0
G1 X0.2538 Y2.4802
G1 X0.2355 Y2.4968
G3 X0.2344 Y2.4972 I-0.0011 J-0.0012
G1 X0.2193
G1 X0.2041
G3 X0.2028 Y2.4967 I0.0 J-0.0017
G1 X0.1863 Y2.4784
G3 X0.1693 Y2.4446 I0.0535 J-0.048
G3 Y2.4441 I0.0016 J-0.0003
G3 X0.1806 Y2.4176 I0.0448 J0.0033
G1 Y2.4175
G1 X0.1905 Y2.4076
G1 X0.178 Y2.3876
G1 X0.1647 Y2.3663
G3 Y2.3646 I0.0014 J-0.0009
G1 X0.1753 Y2.3478
G1 X0.1754 Y2.3477
G3 X0.2032 Y2.3199 I0.0919 J0.0641
G1 X0.2033 Y2.3198
G1 X0.2201 Y2.3092
G3 X0.2219 I0.0009 J0.0014
G1 X0.2387 Y2.3198
G1 X0.2388
G3 X0.2667 Y2.3477 I-0.0565 J0.0844
G1 Y2.3478
G1 X0.2773 Y2.3646
G3 Y2.3647 I-0.0014 J0.0009
G0 Z0.125
G0 X0.1322 Y1.3288
G0 Z0.0749
G1 F20.0 Z-0.0026
G3 F40.0 X0.1316 I-0.0002 J-0.0017
G1 X0.1147 Y1.3255
G1 X0.0978 Y1.3222
G3 X0.0967 Y1.3214 I0.0003 J-0.0017
G1 X0.0865 Y1.3053
G1 X0.0764 Y1.2891
G3 X0.0763 Y1.2876 I0.0014 J-0.0009
G1 X0.0844 Y1.2687
G2 X0.0901 Y1.2324 I-0.0674 J-0.0292
G1 X0.0878 Y1.214
G3 X0.0882 Y1.2127 I0.0017 J-0.0002
G1 X0.1055 Y1.1935
G1 X0.1228 Y1.1744
G3 X0.1241 Y1.1738 I0.0012 J0.0011
G1 X0.141
G1 X0.1579
G3 X0.1591 Y1.1744 I0.0 J0.0017
G1 X0.1757 Y1.1927
G1 X0.1922 Y1.211
G3 X0.1927 Y1.2121 I-0.0012 J0.0011
G1 Y1.2276
G1 Y1.2431
G3 X0.1921 Y1.2444 I-0.0017 J0.0
G1 X0.1771 Y1.2568
G1 X0.1627 Y1.2688
G1 Y1.2855
G1 Y1.3031
G3 X0.1621 Y1.3044 I-0.0017 J0.0
G1 X0.1475 Y1.3164
G1 X0.133 Y1.3285
G3 X0.1322 Y1.3288 I-0.0011 J-0.0013
G0 Z0.125
G0 X0.2634 Y1.0171
G0 Z0.0749
G1 F20.0 Z-0.0026
G3 F40.0 X0.2628 Y1.0167 I0.0007 J-0.0016
G1 X0.2463 Y0.9984
G1 X0.2297 Y0.9801
G3 X0.2293 Y0.9789 I0.0012 J-0.0011
G1 Y0.9638
G1 Y0.9486
G3 X0.2299 Y0.9474 I0.0017 J0.0
G1 X0.2482 Y0.9308
G1 X0.2664 Y0.9143
G3 X0.2676 Y0.9138 I0.0011 J0.0012
G1 X0.2831
G1 X0.2985
G3 X0.2998 Y0.9144 I0.0 J0.0017
G1 X0.3123 Y0.9294
G1 X0.3242 Y0.9438
G1 X0.3472
G1 X0.3693
G1 Y0.8827
G1 Y0.82
G3 X0.3696 Y0.819 I0.0017 J0.0
G1 X0.3852 Y0.7968
G1 X0.4007 Y0.7746
G3 X0.4021 Y0.7738 I0.0014 J0.001
G1 X0.4246
G1 X0.447
G3 X0.4482 Y0.7743 I0.0 J0.0017
G1 X0.4602 Y0.7863
G1 X0.4722 Y0.7983
G3 X0.4727 Y0.7995 I-0.0012 J0.0012
G1 Y0.8977
G1 Y0.996
G3 X0.4717 Y0.9975 I-0.0017 J0.0
G1 X0.4471 Y1.0087
G1 X0.4225 Y1.0199
G3 X0.4209 Y1.0198 I-0.0007 J-0.0015
G1 X0.3958 Y1.0033
G1 X0.3712 Y0.9872
G1 X0.3476
G1 X0.3242
G1 X0.3123 Y1.0016
G1 X0.2998 Y1.0166
G3 X0.2985 Y1.0172 I-0.0013 J-0.0011
G1 X0.2813
G1 X0.2641
G3 X0.2634 Y1.0171 I0.0 J-0.0017
G0 Z0.125
G0 Y0.8772
G0 Z0.0749
G1 F20.0 Z-0.0026
G3 F40.0 X0.2621 Y0.8766 I0.0 J-0.0017
G1 X0.2497 Y0.8616
G1 X0.2378 Y0.8472
G1 X0.211
G1 X0.1842
G1 X0.1723 Y0.8616
G1 X0.1598 Y0.8766
G3 X0.1585 Y0.8772 I-0.0013 J-0.0011
G1 X0.1413
G1 X0.1241
G3 X0.1228 Y0.8767 I0.0 J-0.0017
G1 X0.1063 Y0.8584
G1 X0.0897 Y0.8401
G3 X0.0893 Y0.8389 I0.0012 J-0.0011
G1 Y0.8238
G1 Y0.8086
G3 X0.0899 Y0.8074 I0.0017 J0.0
G1 X0.1082 Y0.7908
G1 X0.1264 Y0.7743
G3 X0.1276 Y0.7738 I0.0011 J0.0012
G1 X0.1431
G1 X0.1585
G3 X0.1598 Y0.7744 I0.0 J0.0017
G1 X0.1723 Y0.7894
G1 X0.1842 Y0.8038
G1 X0.211
G1 X0.2378
G1 X0.2497 Y0.7894
G1 X0.2621 Y0.7744
G3 X0.2634 Y0.7738 I0.0013 J0.0011
G1 X0.2807
G1 X0.2979
G3 X0.2991 Y0.7744 I0.0 J0.0017
G1 X0.3157 Y0.7927
G1 X0.3322 Y0.811
G3 X0.3327 Y0.8121 I-0.0012 J0.0011
G1 Y0.8273
G1 Y0.8424
G3 X0.3321 Y0.8437 I-0.0017 J0.0
G1 X0.3138 Y0.8602
G1 X0.2955 Y0.8768
G3 X0.2944 Y0.8772 I-0.0011 J-0.0012
G1 X0.2789
G1 X0.2634
G0 Z0.125
G0 Y0.4872
G0 Z0.0749
G1 F20.0 Z-0.0026
G1 F40.0 X0.2122
G1 X0.1242
G1 X0.1123 Y0.5016
G1 X0.0998 Y0.5166
G3 X0.0985 Y0.5172 I-0.0013 J-0.0011
G1 X0.0813
G1 X0.0641
G3 X0.0628 Y0.5167 I0.0 J-0.0017
G1 X0.0463 Y0.4984
G1 X0.0297 Y0.4801
G3 X0.0293 Y0.4789 I0.0012 J-0.0011
G1 Y0.4638
G1 Y0.4486
G3 X0.0299 Y0.4474 I0.0017 J0.0
G1 X0.0482 Y0.4308
G1 X0.0664 Y0.4143
G3 X0.0676 Y0.4138 I0.0011 J0.0012
G1 X0.0831
G1 X0.0985
G3 X0.0998 Y0.4144 I0.0 J0.0017
G1 X0.1123 Y0.4294
G1 X0.1242 Y0.4438
G1 X0.1922
G1 X0.2593
G1 Y0.3867
G1 Y0.3288
G1 X0.2449 Y0.3168
G1 X0.2299 Y0.3044
G3 X0.2293 Y0.3031 I0.0011 J-0.0013
G1 Y0.2858
G1 Y0.2686
G3 X0.2299 Y0.2674 I0.0017 J0.0
G1 X0.2482 Y0.2508
G1 X0.2664 Y0.2343
G3 X0.2676 Y0.2338 I0.0011 J0.0012
G1 X0.2827
G1 X0.2979
G3 X0.2991 Y0.2344 I0.0 J0.0017
G1 X0.3157 Y0.2527
G1 X0.3322 Y0.271
G3 X0.3327 Y0.2721 I-0.0012 J0.0011
G1 Y0.2876
G1 Y0.3031
G3 X0.3321 Y0.3044 I-0.0017 J0.0
G1 X0.3171 Y0.3168
G1 X0.3027 Y0.3288
G1 Y0.4067
G1 Y0.4855
G3 X0.301 Y0.4872 I-0.0017 J0.0
G1 X0.2634
G0 Z0.125
G0 X0.1845 Y0.1764
G0 Z0.0749
G1 F20.0 Z-0.0026
G3 F40.0 X0.1813 Y0.1772 I-0.0163 J-0.0641
G3 X0.1807 I-0.0003 J-0.0016
G3 X0.1481 Y0.1602 I0.0134 J-0.0653
G1 X0.131 Y0.1447
G1 X0.1138 Y0.1602
G1 X0.0955 Y0.1768
G3 X0.0944 Y0.1772 I-0.0011 J-0.0012
G1 X0.0793
G1 X0.0641
G3 X0.0628 Y0.1767 I0.0 J-0.0017
G1 X0.0463 Y0.1584
G1 X0.0297 Y0.1401
G3 X0.0293 Y0.1389 I0.0012 J-0.0011
G1 Y0.1238
G1 Y0.1086
G3 X0.0299 Y0.1074 I0.0017 J0.0
G1 X0.0481 Y0.0908
G3 X0.0807 Y0.0739 I0.0456 J0.0478
G3 X0.0813 I0.0003 J0.0016
G3 X0.1139 Y0.0908 I-0.0133 J0.0652
G1 X0.131 Y0.1064
G1 X0.1482 Y0.0908
G1 X0.1664 Y0.0743
G3 X0.1676 Y0.0738 I0.0011 J0.0012
G1 X0.1827
G1 X0.1979
G3 X0.1991 Y0.0744 I0.0 J0.0017
G1 X0.2157 Y0.0927
G1 X0.2322 Y0.111
G3 X0.2327 Y0.1121 I-0.0012 J0.0011
G1 Y0.1273
G1 Y0.1424
G3 X0.2321 Y0.1437 I-0.0017 J0.0
G1 X0.2139 Y0.1602
G3 X0.1845 Y0.1764 I-0.0456 J-0.0478
G0 Z0.125
G0 X1.9495 Y1.1878
G0 Z0.0749
G1 F20.0 Z-0.0026
G3 F40.0 X1.9499 Y1.1874 I0.0015 J0.0008
G1 X1.9682 Y1.1708
G1 X1.9864 Y1.1543
G3 X1.9876 Y1.1538 I0.0011 J0.0012
G1 X2.0027
G1 X2.0179
G3 X2.0191 Y1.1544 I0.0 J0.0017
G1 X2.0366 Y1.1737
G1 X2.0541 Y1.193
G3 X2.0545 Y1.1945 I-0.0012 J0.0011
G1 X2.048 Y1.2243
G1 X2.0417 Y1.2528
G1 X2.0513 Y1.2587
G1 X2.0619 Y1.2653
G3 X2.0627 Y1.2667 I-0.0009 J0.0014
G1 Y1.2841
G1 Y1.3015
G3 X2.0622 Y1.3027 I-0.0017 J0.0
G1 X2.0502 Y1.3147
G3 X2.0203 Y1.3272 I-0.0311 J-0.0324
G1 X2.0202
G1 X2.0034
G3 X2.0021 Y1.3266 I0.0 J-0.0017
G1 X1.9897 Y1.3116
G1 X1.9773 Y1.2967
G3 X1.977 Y1.2952 I0.0013 J-0.0011
G1 X1.9821 Y1.2757
G1 X1.9869 Y1.2572
G1 X1.9688 Y1.2408
G1 X1.9499 Y1.2237
G3 X1.9493 Y1.2224 I0.0011 J-0.0012
G1 Y1.2055
G1 Y1.1886
G3 X1.9495 Y1.1878 I0.0017 J0.0
G0 Z0.125
M5
M30
