( Made using CamBam - http://www.cambam.co.uk )
( mfos_dual_vca_panel 11/30/2015 8:31:30 PM )
( T3 : 3.175 )
G21 G90 G64 G40
G0 Z3.0
( T3 : 3.175 )
T3 M6
( holes )
G17
M3 S1000
G0 X9.7545 Y3.6011
G0 Z3.0
G0 X9.767 Y3.6011
G1 F1000.0 Z0.0
G2 F2000.0 X9.7482 Y3.5903 Z-0.0333 I-0.0125 J0.0
G2 Y3.612 Z-0.0667 I0.0062 J0.0108
G2 X9.767 Y3.6011 Z-0.1 I0.0062 J-0.0108
G2 X9.7482 Y3.5903 Z-0.1333 I-0.0125 J0.0
G2 Y3.612 Z-0.1667 I0.0062 J0.0108
G2 X9.767 Y3.6011 Z-0.2 I0.0062 J-0.0108
G2 X9.7482 Y3.5903 Z-0.2333 I-0.0125 J0.0
G2 Y3.612 Z-0.2667 I0.0062 J0.0108
G2 X9.767 Y3.6011 Z-0.3 I0.0062 J-0.0108
G2 X9.7482 Y3.5903 Z-0.3333 I-0.0125 J0.0
G2 Y3.612 Z-0.3667 I0.0062 J0.0108
G2 X9.767 Y3.6011 Z-0.4 I0.0062 J-0.0108
G2 X9.7482 Y3.5903 Z-0.4333 I-0.0125 J0.0
G2 Y3.612 Z-0.4667 I0.0062 J0.0108
G2 X9.767 Y3.6011 Z-0.5 I0.0062 J-0.0108
G2 X9.7482 Y3.5903 Z-0.5333 I-0.0125 J0.0
G2 Y3.612 Z-0.5667 I0.0062 J0.0108
G2 X9.767 Y3.6011 Z-0.6 I0.0062 J-0.0108
G2 X9.7482 Y3.5903 Z-0.6333 I-0.0125 J0.0
G2 Y3.612 Z-0.6667 I0.0062 J0.0108
G2 X9.767 Y3.6011 Z-0.7 I0.0062 J-0.0108
G2 X9.7482 Y3.5903 Z-0.7333 I-0.0125 J0.0
G2 Y3.612 Z-0.7667 I0.0062 J0.0108
G2 X9.767 Y3.6011 Z-0.8 I0.0062 J-0.0108
G2 X9.7482 Y3.5903 Z-0.8333 I-0.0125 J0.0
G2 Y3.612 Z-0.8667 I0.0062 J0.0108
G2 X9.767 Y3.6011 Z-0.9 I0.0062 J-0.0108
G2 X9.7482 Y3.5903 Z-0.9333 I-0.0125 J0.0
G2 Y3.612 Z-0.9667 I0.0062 J0.0108
G2 X9.767 Y3.6011 Z-1.0 I0.0062 J-0.0108
G2 X9.7482 Y3.5903 Z-1.0333 I-0.0125 J0.0
G2 Y3.612 Z-1.0667 I0.0062 J0.0108
G2 X9.767 Y3.6011 Z-1.1 I0.0062 J-0.0108
G2 X9.7482 Y3.5903 Z-1.1333 I-0.0125 J0.0
G2 Y3.612 Z-1.1667 I0.0062 J0.0108
G2 X9.767 Y3.6011 Z-1.2 I0.0063 J-0.0108
G2 X9.7482 Y3.5903 Z-1.2333 I-0.0125 J0.0
G2 Y3.612 Z-1.2667 I0.0062 J0.0108
G2 X9.767 Y3.6011 Z-1.3 I0.0063 J-0.0108
G2 X9.7482 Y3.5903 Z-1.3333 I-0.0125 J0.0
G2 Y3.612 Z-1.3667 I0.0062 J0.0108
G2 X9.767 Y3.6011 Z-1.4 I0.0063 J-0.0108
G2 X9.7482 Y3.5903 Z-1.4333 I-0.0125 J0.0
G2 Y3.612 Z-1.4667 I0.0062 J0.0108
G2 X9.767 Y3.6011 Z-1.5 I0.0063 J-0.0108
G2 X9.7482 Y3.5903 Z-1.5333 I-0.0125 J0.0
G2 Y3.612 Z-1.5667 I0.0062 J0.0108
G2 X9.767 Y3.6011 Z-1.6 I0.0063 J-0.0108
G2 X9.7482 Y3.5903 Z-1.6333 I-0.0125 J0.0
G2 Y3.612 Z-1.6667 I0.0062 J0.0108
G2 X9.767 Y3.6011 Z-1.7 I0.0063 J-0.0108
G2 X9.7482 Y3.5903 Z-1.7333 I-0.0125 J0.0
G2 Y3.612 Z-1.7667 I0.0062 J0.0108
G2 X9.767 Y3.6011 Z-1.8 I0.0063 J-0.0108
G2 X9.7482 Y3.5903 Z-1.8333 I-0.0125 J0.0
G2 Y3.612 Z-1.8667 I0.0062 J0.0108
G2 X9.767 Y3.6011 Z-1.9 I0.0063 J-0.0108
G2 X9.7482 Y3.5903 Z-1.9333 I-0.0125 J0.0
G2 Y3.612 Z-1.9667 I0.0062 J0.0108
G2 X9.767 Y3.6011 Z-2.0 I0.0063 J-0.0108
G2 X9.7482 Y3.5903 Z-2.0333 I-0.0125 J0.0
G2 Y3.612 Z-2.0667 I0.0062 J0.0108
G2 X9.767 Y3.6011 Z-2.1 I0.0063 J-0.0108
G2 X9.7482 Y3.5903 Z-2.1333 I-0.0125 J0.0
G2 Y3.612 Z-2.1667 I0.0062 J0.0108
G2 X9.767 Y3.6011 Z-2.2 I0.0063 J-0.0108
G2 X9.7482 Y3.5903 Z-2.2333 I-0.0125 J0.0
G2 Y3.612 Z-2.2667 I0.0062 J0.0108
G2 X9.767 Y3.6011 Z-2.3 I0.0062 J-0.0108
G2 X9.7482 Y3.5903 Z-2.3333 I-0.0125 J0.0
G2 Y3.612 Z-2.3667 I0.0062 J0.0108
G2 X9.767 Y3.6011 Z-2.4 I0.0062 J-0.0108
G2 X9.7482 Y3.5903 Z-2.4333 I-0.0125 J0.0
G2 Y3.612 Z-2.4667 I0.0062 J0.0108
G2 X9.767 Y3.6011 Z-2.5 I0.0062 J-0.0108
G2 X9.7482 Y3.5903 Z-2.5333 I-0.0125 J0.0
G2 Y3.612 Z-2.5667 I0.0063 J0.0108
G2 X9.767 Y3.6011 Z-2.6 I0.0062 J-0.0108
G2 X9.7482 Y3.5903 Z-2.6333 I-0.0125 J0.0
G2 Y3.612 Z-2.6667 I0.0063 J0.0108
G2 X9.767 Y3.6011 Z-2.7 I0.0062 J-0.0108
G2 X9.7482 Y3.5903 Z-2.7333 I-0.0125 J0.0
G2 Y3.612 Z-2.7667 I0.0063 J0.0108
G2 X9.767 Y3.6011 Z-2.8 I0.0062 J-0.0108
G2 X9.7482 Y3.5903 Z-2.8333 I-0.0125 J0.0
G2 Y3.612 Z-2.8667 I0.0063 J0.0108
G2 X9.767 Y3.6011 Z-2.9 I0.0062 J-0.0108
G2 X9.7482 Y3.5903 Z-2.9333 I-0.0125 J0.0
G2 Y3.612 Z-2.9667 I0.0063 J0.0108
G2 X9.767 Y3.6011 Z-3.0 I0.0062 J-0.0108
G2 X9.7482 Y3.5903 Z-3.0333 I-0.0125 J0.0
G2 Y3.612 Z-3.0667 I0.0063 J0.0108
G2 X9.767 Y3.6011 Z-3.1 I0.0062 J-0.0108
G2 X9.7482 Y3.5903 Z-3.1333 I-0.0125 J0.0
G2 Y3.612 Z-3.1667 I0.0063 J0.0108
G2 X9.767 Y3.6011 Z-3.2 I0.0062 J-0.0108
G2 X9.7482 Y3.5903 I-0.0125 J0.0
G2 Y3.612 I0.0063 J0.0108
G2 X9.767 Y3.6011 I0.0062 J-0.0108
G0 Z3.0
G0 X13.3239 Y18.9384
G1 F1000.0 Z0.0
G2 F2000.0 X13.3051 Y18.9276 Z-0.0333 I-0.0125 J0.0
G2 Y18.9492 Z-0.0667 I0.0062 J0.0108
G2 X13.3239 Y18.9384 Z-0.1 I0.0063 J-0.0108
G2 X13.3051 Y18.9276 Z-0.1333 I-0.0125 J0.0
G2 Y18.9492 Z-0.1667 I0.0062 J0.0108
G2 X13.3239 Y18.9384 Z-0.2 I0.0063 J-0.0108
G2 X13.3051 Y18.9276 Z-0.2333 I-0.0125 J0.0
G2 Y18.9492 Z-0.2667 I0.0062 J0.0108
G2 X13.3239 Y18.9384 Z-0.3 I0.0063 J-0.0108
G2 X13.3051 Y18.9276 Z-0.3333 I-0.0125 J0.0
G2 Y18.9492 Z-0.3667 I0.0062 J0.0108
G2 X13.3239 Y18.9384 Z-0.4 I0.0063 J-0.0108
G2 X13.3051 Y18.9276 Z-0.4333 I-0.0125 J0.0
G2 Y18.9492 Z-0.4667 I0.0062 J0.0108
G2 X13.3239 Y18.9384 Z-0.5 I0.0063 J-0.0108
G2 X13.3051 Y18.9276 Z-0.5333 I-0.0125 J0.0
G2 Y18.9492 Z-0.5667 I0.0062 J0.0108
G2 X13.3239 Y18.9384 Z-0.6 I0.0063 J-0.0108
G2 X13.3051 Y18.9276 Z-0.6333 I-0.0125 J0.0
G2 Y18.9492 Z-0.6667 I0.0062 J0.0108
G2 X13.3239 Y18.9384 Z-0.7 I0.0063 J-0.0108
G2 X13.3051 Y18.9276 Z-0.7333 I-0.0125 J0.0
G2 Y18.9492 Z-0.7667 I0.0062 J0.0108
G2 X13.3239 Y18.9384 Z-0.8 I0.0063 J-0.0108
G2 X13.3051 Y18.9276 Z-0.8333 I-0.0125 J0.0
G2 Y18.9492 Z-0.8667 I0.0062 J0.0108
G2 X13.3239 Y18.9384 Z-0.9 I0.0063 J-0.0108
G2 X13.3051 Y18.9276 Z-0.9333 I-0.0125 J0.0
G2 Y18.9492 Z-0.9667 I0.0062 J0.0108
G2 X13.3239 Y18.9384 Z-1.0 I0.0063 J-0.0108
G2 X13.3051 Y18.9276 Z-1.0333 I-0.0125 J0.0
G2 Y18.9492 Z-1.0667 I0.0062 J0.0108
G2 X13.3239 Y18.9384 Z-1.1 I0.0063 J-0.0108
G2 X13.3051 Y18.9276 Z-1.1333 I-0.0125 J0.0
G2 Y18.9492 Z-1.1667 I0.0062 J0.0108
G2 X13.3239 Y18.9384 Z-1.2 I0.0063 J-0.0108
G2 X13.3051 Y18.9276 Z-1.2333 I-0.0125 J0.0
G2 Y18.9492 Z-1.2667 I0.0062 J0.0108
G2 X13.3239 Y18.9384 Z-1.3 I0.0063 J-0.0108
G2 X13.3051 Y18.9276 Z-1.3333 I-0.0125 J0.0
G2 Y18.9492 Z-1.3667 I0.0062 J0.0108
G2 X13.3239 Y18.9384 Z-1.4 I0.0063 J-0.0108
G2 X13.3051 Y18.9276 Z-1.4333 I-0.0125 J0.0
G2 Y18.9492 Z-1.4667 I0.0062 J0.0108
G2 X13.3239 Y18.9384 Z-1.5 I0.0063 J-0.0108
G2 X13.3051 Y18.9276 Z-1.5333 I-0.0125 J0.0
G2 Y18.9492 Z-1.5667 I0.0062 J0.0108
G2 X13.3239 Y18.9384 Z-1.6 I0.0063 J-0.0108
G2 X13.3051 Y18.9276 Z-1.6333 I-0.0125 J0.0
G2 Y18.9492 Z-1.6667 I0.0062 J0.0108
G2 X13.3239 Y18.9384 Z-1.7 I0.0063 J-0.0108
G2 X13.3051 Y18.9276 Z-1.7333 I-0.0125 J0.0
G2 Y18.9492 Z-1.7667 I0.0062 J0.0108
G2 X13.3239 Y18.9384 Z-1.8 I0.0063 J-0.0108
G2 X13.3051 Y18.9276 Z-1.8333 I-0.0125 J0.0
G2 Y18.9492 Z-1.8667 I0.0062 J0.0108
G2 X13.3239 Y18.9384 Z-1.9 I0.0063 J-0.0108
G2 X13.3051 Y18.9276 Z-1.9333 I-0.0125 J0.0
G2 Y18.9492 Z-1.9667 I0.0062 J0.0108
G2 X13.3239 Y18.9384 Z-2.0 I0.0063 J-0.0108
G2 X13.3051 Y18.9276 Z-2.0333 I-0.0125 J0.0
G2 Y18.9492 Z-2.0667 I0.0062 J0.0108
G2 X13.3239 Y18.9384 Z-2.1 I0.0063 J-0.0108
G2 X13.3051 Y18.9276 Z-2.1333 I-0.0125 J0.0
G2 Y18.9492 Z-2.1667 I0.0062 J0.0108
G2 X13.3239 Y18.9384 Z-2.2 I0.0063 J-0.0108
G2 X13.3051 Y18.9276 Z-2.2333 I-0.0125 J0.0
G2 Y18.9492 Z-2.2667 I0.0062 J0.0108
G2 X13.3239 Y18.9384 Z-2.3 I0.0063 J-0.0108
G2 X13.3051 Y18.9276 Z-2.3333 I-0.0125 J0.0
G2 Y18.9492 Z-2.3667 I0.0062 J0.0108
G2 X13.3239 Y18.9384 Z-2.4 I0.0063 J-0.0108
G2 X13.3051 Y18.9276 Z-2.4333 I-0.0125 J0.0
G2 Y18.9492 Z-2.4667 I0.0062 J0.0108
G2 X13.3239 Y18.9384 Z-2.5 I0.0063 J-0.0108
G2 X13.3051 Y18.9276 Z-2.5333 I-0.0125 J0.0
G2 Y18.9492 Z-2.5667 I0.0062 J0.0108
G2 X13.3239 Y18.9384 Z-2.6 I0.0063 J-0.0108
G2 X13.3051 Y18.9276 Z-2.6333 I-0.0125 J0.0
G2 Y18.9492 Z-2.6667 I0.0063 J0.0108
G2 X13.3239 Y18.9384 Z-2.7 I0.0062 J-0.0108
G2 X13.3051 Y18.9276 Z-2.7333 I-0.0125 J0.0
G2 Y18.9492 Z-2.7667 I0.0063 J0.0108
G2 X13.3239 Y18.9384 Z-2.8 I0.0062 J-0.0108
G2 X13.3051 Y18.9276 Z-2.8333 I-0.0125 J0.0
G2 Y18.9492 Z-2.8667 I0.0063 J0.0108
G2 X13.3239 Y18.9384 Z-2.9 I0.0062 J-0.0108
G2 X13.3051 Y18.9276 Z-2.9333 I-0.0125 J0.0
G2 Y18.9492 Z-2.9667 I0.0063 J0.0108
G2 X13.3239 Y18.9384 Z-3.0 I0.0062 J-0.0108
G2 X13.3051 Y18.9276 Z-3.0333 I-0.0125 J0.0
G2 Y18.9492 Z-3.0667 I0.0063 J0.0108
G2 X13.3239 Y18.9384 Z-3.1 I0.0062 J-0.0108
G2 X13.3051 Y18.9276 Z-3.1333 I-0.0125 J0.0
G2 Y18.9492 Z-3.1667 I0.0063 J0.0108
G2 X13.3239 Y18.9384 Z-3.2 I0.0062 J-0.0108
G2 X13.3051 Y18.9276 I-0.0125 J0.0
G2 Y18.9492 I0.0063 J0.0108
G2 X13.3239 Y18.9384 I0.0062 J-0.0108
G0 Z3.0
G0 X13.3371 Y41.5011
G1 F1000.0 Z0.0
G2 F2000.0 X13.3183 Y41.4902 Z-0.0333 I-0.0125 J0.0
G2 Y41.5119 Z-0.0667 I0.0063 J0.0108
G2 X13.3371 Y41.5011 Z-0.1 I0.0062 J-0.0108
G2 X13.3183 Y41.4902 Z-0.1333 I-0.0125 J0.0
G2 Y41.5119 Z-0.1667 I0.0063 J0.0108
G2 X13.3371 Y41.5011 Z-0.2 I0.0062 J-0.0108
G2 X13.3183 Y41.4902 Z-0.2333 I-0.0125 J0.0
G2 Y41.5119 Z-0.2667 I0.0063 J0.0108
G2 X13.3371 Y41.5011 Z-0.3 I0.0062 J-0.0108
G2 X13.3183 Y41.4902 Z-0.3333 I-0.0125 J0.0
G2 Y41.5119 Z-0.3667 I0.0063 J0.0108
G2 X13.3371 Y41.5011 Z-0.4 I0.0062 J-0.0108
G2 X13.3183 Y41.4902 Z-0.4333 I-0.0125 J0.0
G2 Y41.5119 Z-0.4667 I0.0063 J0.0108
G2 X13.3371 Y41.5011 Z-0.5 I0.0062 J-0.0108
G2 X13.3183 Y41.4902 Z-0.5333 I-0.0125 J0.0
G2 Y41.5119 Z-0.5667 I0.0063 J0.0108
G2 X13.3371 Y41.5011 Z-0.6 I0.0062 J-0.0108
G2 X13.3183 Y41.4902 Z-0.6333 I-0.0125 J0.0
G2 Y41.5119 Z-0.6667 I0.0063 J0.0108
G2 X13.3371 Y41.5011 Z-0.7 I0.0062 J-0.0108
G2 X13.3183 Y41.4902 Z-0.7333 I-0.0125 J0.0
G2 Y41.5119 Z-0.7667 I0.0063 J0.0108
G2 X13.3371 Y41.5011 Z-0.8 I0.0062 J-0.0108
G2 X13.3183 Y41.4902 Z-0.8333 I-0.0125 J0.0
G2 Y41.5119 Z-0.8667 I0.0063 J0.0108
G2 X13.3371 Y41.5011 Z-0.9 I0.0062 J-0.0108
G2 X13.3183 Y41.4902 Z-0.9333 I-0.0125 J0.0
G2 Y41.5119 Z-0.9667 I0.0063 J0.0108
G2 X13.3371 Y41.5011 Z-1.0 I0.0062 J-0.0108
G2 X13.3183 Y41.4902 Z-1.0333 I-0.0125 J0.0
G2 Y41.5119 Z-1.0667 I0.0063 J0.0108
G2 X13.3371 Y41.5011 Z-1.1 I0.0062 J-0.0108
G2 X13.3183 Y41.4902 Z-1.1333 I-0.0125 J0.0
G2 Y41.5119 Z-1.1667 I0.0063 J0.0108
G2 X13.3371 Y41.5011 Z-1.2 I0.0062 J-0.0108
G2 X13.3183 Y41.4902 Z-1.2333 I-0.0125 J0.0
G2 Y41.5119 Z-1.2667 I0.0063 J0.0108
G2 X13.3371 Y41.5011 Z-1.3 I0.0062 J-0.0108
G2 X13.3183 Y41.4902 Z-1.3333 I-0.0125 J0.0
G2 Y41.5119 Z-1.3667 I0.0063 J0.0108
G2 X13.3371 Y41.5011 Z-1.4 I0.0062 J-0.0108
G2 X13.3183 Y41.4902 Z-1.4333 I-0.0125 J0.0
G2 Y41.5119 Z-1.4667 I0.0063 J0.0108
G2 X13.3371 Y41.5011 Z-1.5 I0.0062 J-0.0108
G2 X13.3183 Y41.4902 Z-1.5333 I-0.0125 J0.0
G2 Y41.5119 Z-1.5667 I0.0063 J0.0108
G2 X13.3371 Y41.5011 Z-1.6 I0.0062 J-0.0108
G2 X13.3183 Y41.4902 Z-1.6333 I-0.0125 J0.0
G2 Y41.5119 Z-1.6667 I0.0063 J0.0108
G2 X13.3371 Y41.5011 Z-1.7 I0.0062 J-0.0108
G2 X13.3183 Y41.4902 Z-1.7333 I-0.0125 J0.0
G2 Y41.5119 Z-1.7667 I0.0063 J0.0108
G2 X13.3371 Y41.5011 Z-1.8 I0.0062 J-0.0108
G2 X13.3183 Y41.4902 Z-1.8333 I-0.0125 J0.0
G2 Y41.5119 Z-1.8667 I0.0063 J0.0108
G2 X13.3371 Y41.5011 Z-1.9 I0.0062 J-0.0108
G2 X13.3183 Y41.4902 Z-1.9333 I-0.0125 J0.0
G2 Y41.5119 Z-1.9667 I0.0063 J0.0108
G2 X13.3371 Y41.5011 Z-2.0 I0.0062 J-0.0108
G2 X13.3183 Y41.4902 Z-2.0333 I-0.0125 J0.0
G2 Y41.5119 Z-2.0667 I0.0063 J0.0108
G2 X13.3371 Y41.5011 Z-2.1 I0.0062 J-0.0108
G2 X13.3183 Y41.4902 Z-2.1333 I-0.0125 J0.0
G2 Y41.5119 Z-2.1667 I0.0063 J0.0108
G2 X13.3371 Y41.5011 Z-2.2 I0.0062 J-0.0108
G2 X13.3183 Y41.4902 Z-2.2333 I-0.0125 J0.0
G2 Y41.5119 Z-2.2667 I0.0063 J0.0108
G2 X13.3371 Y41.5011 Z-2.3 I0.0062 J-0.0108
G2 X13.3183 Y41.4902 Z-2.3333 I-0.0125 J0.0
G2 Y41.5119 Z-2.3667 I0.0063 J0.0108
G2 X13.3371 Y41.5011 Z-2.4 I0.0062 J-0.0108
G2 X13.3183 Y41.4902 Z-2.4333 I-0.0125 J0.0
G2 Y41.5119 Z-2.4667 I0.0063 J0.0108
G2 X13.3371 Y41.5011 Z-2.5 I0.0062 J-0.0108
G2 X13.3183 Y41.4902 Z-2.5333 I-0.0125 J0.0
G2 Y41.5119 Z-2.5667 I0.0063 J0.0108
G2 X13.3371 Y41.5011 Z-2.6 I0.0062 J-0.0108
G2 X13.3183 Y41.4902 Z-2.6333 I-0.0125 J0.0
G2 Y41.5119 Z-2.6667 I0.0063 J0.0108
G2 X13.3371 Y41.5011 Z-2.7 I0.0062 J-0.0108
G2 X13.3183 Y41.4902 Z-2.7333 I-0.0125 J0.0
G2 Y41.5119 Z-2.7667 I0.0063 J0.0108
G2 X13.3371 Y41.5011 Z-2.8 I0.0062 J-0.0108
G2 X13.3183 Y41.4902 Z-2.8333 I-0.0125 J0.0
G2 Y41.5119 Z-2.8667 I0.0063 J0.0108
G2 X13.3371 Y41.5011 Z-2.9 I0.0062 J-0.0108
G2 X13.3183 Y41.4902 Z-2.9333 I-0.0125 J0.0
G2 Y41.5119 Z-2.9667 I0.0063 J0.0108
G2 X13.3371 Y41.5011 Z-3.0 I0.0062 J-0.0108
G2 X13.3183 Y41.4902 Z-3.0333 I-0.0125 J0.0
G2 Y41.5119 Z-3.0667 I0.0063 J0.0108
G2 X13.3371 Y41.5011 Z-3.1 I0.0062 J-0.0108
G2 X13.3183 Y41.4902 Z-3.1333 I-0.0125 J0.0
G2 Y41.5119 Z-3.1667 I0.0063 J0.0108
G2 X13.3371 Y41.5011 Z-3.2 I0.0062 J-0.0108
G2 X13.3183 Y41.4902 I-0.0125 J0.0
G2 Y41.5119 I0.0063 J0.0108
G2 X13.3371 Y41.5011 I0.0062 J-0.0108
G0 Z3.0
G0 X13.5669 Y68.0388
G1 F1000.0 Z0.0
G2 F2000.0 X13.5482 Y68.028 Z-0.0333 I-0.0125 J0.0
G2 Y68.0496 Z-0.0667 I0.0062 J0.0108
G2 X13.5669 Y68.0388 Z-0.1 I0.0063 J-0.0108
G2 X13.5482 Y68.028 Z-0.1333 I-0.0125 J0.0
G2 Y68.0496 Z-0.1667 I0.0062 J0.0108
G2 X13.5669 Y68.0388 Z-0.2 I0.0063 J-0.0108
G2 X13.5482 Y68.028 Z-0.2333 I-0.0125 J0.0
G2 Y68.0496 Z-0.2667 I0.0062 J0.0108
G2 X13.5669 Y68.0388 Z-0.3 I0.0063 J-0.0108
G2 X13.5482 Y68.028 Z-0.3333 I-0.0125 J0.0
G2 Y68.0496 Z-0.3667 I0.0062 J0.0108
G2 X13.5669 Y68.0388 Z-0.4 I0.0063 J-0.0108
G2 X13.5482 Y68.028 Z-0.4333 I-0.0125 J0.0
G2 Y68.0496 Z-0.4667 I0.0062 J0.0108
G2 X13.5669 Y68.0388 Z-0.5 I0.0063 J-0.0108
G2 X13.5482 Y68.028 Z-0.5333 I-0.0125 J0.0
G2 Y68.0496 Z-0.5667 I0.0062 J0.0108
G2 X13.5669 Y68.0388 Z-0.6 I0.0063 J-0.0108
G2 X13.5482 Y68.028 Z-0.6333 I-0.0125 J0.0
G2 Y68.0496 Z-0.6667 I0.0062 J0.0108
G2 X13.5669 Y68.0388 Z-0.7 I0.0063 J-0.0108
G2 X13.5482 Y68.028 Z-0.7333 I-0.0125 J0.0
G2 Y68.0496 Z-0.7667 I0.0062 J0.0108
G2 X13.5669 Y68.0388 Z-0.8 I0.0063 J-0.0108
G2 X13.5482 Y68.028 Z-0.8333 I-0.0125 J0.0
G2 Y68.0496 Z-0.8667 I0.0062 J0.0108
G2 X13.5669 Y68.0388 Z-0.9 I0.0063 J-0.0108
G2 X13.5482 Y68.028 Z-0.9333 I-0.0125 J0.0
G2 Y68.0496 Z-0.9667 I0.0062 J0.0108
G2 X13.5669 Y68.0388 Z-1.0 I0.0063 J-0.0108
G2 X13.5482 Y68.028 Z-1.0333 I-0.0125 J0.0
G2 Y68.0496 Z-1.0667 I0.0062 J0.0108
G2 X13.5669 Y68.0388 Z-1.1 I0.0063 J-0.0108
G2 X13.5482 Y68.028 Z-1.1333 I-0.0125 J0.0
G2 Y68.0496 Z-1.1667 I0.0062 J0.0108
G2 X13.5669 Y68.0388 Z-1.2 I0.0063 J-0.0108
G2 X13.5482 Y68.028 Z-1.2333 I-0.0125 J0.0
G2 Y68.0496 Z-1.2667 I0.0062 J0.0108
G2 X13.5669 Y68.0388 Z-1.3 I0.0063 J-0.0108
G2 X13.5482 Y68.028 Z-1.3333 I-0.0125 J0.0
G2 Y68.0496 Z-1.3667 I0.0062 J0.0108
G2 X13.5669 Y68.0388 Z-1.4 I0.0063 J-0.0108
G2 X13.5482 Y68.028 Z-1.4333 I-0.0125 J0.0
G2 Y68.0496 Z-1.4667 I0.0062 J0.0108
G2 X13.5669 Y68.0388 Z-1.5 I0.0063 J-0.0108
G2 X13.5482 Y68.028 Z-1.5333 I-0.0125 J0.0
G2 Y68.0496 Z-1.5667 I0.0062 J0.0108
G2 X13.5669 Y68.0388 Z-1.6 I0.0063 J-0.0108
G2 X13.5482 Y68.028 Z-1.6333 I-0.0125 J0.0
G2 Y68.0496 Z-1.6667 I0.0062 J0.0108
G2 X13.5669 Y68.0388 Z-1.7 I0.0063 J-0.0108
G2 X13.5482 Y68.028 Z-1.7333 I-0.0125 J0.0
G2 Y68.0496 Z-1.7667 I0.0062 J0.0108
G2 X13.5669 Y68.0388 Z-1.8 I0.0063 J-0.0108
G2 X13.5482 Y68.028 Z-1.8333 I-0.0125 J0.0
G2 Y68.0496 Z-1.8667 I0.0062 J0.0108
G2 X13.5669 Y68.0388 Z-1.9 I0.0063 J-0.0108
G2 X13.5482 Y68.028 Z-1.9333 I-0.0125 J0.0
G2 Y68.0496 Z-1.9667 I0.0062 J0.0108
G2 X13.5669 Y68.0388 Z-2.0 I0.0063 J-0.0108
G2 X13.5482 Y68.028 Z-2.0333 I-0.0125 J0.0
G2 Y68.0496 Z-2.0667 I0.0062 J0.0108
G2 X13.5669 Y68.0388 Z-2.1 I0.0063 J-0.0108
G2 X13.5482 Y68.028 Z-2.1333 I-0.0125 J0.0
G2 Y68.0496 Z-2.1667 I0.0062 J0.0108
G2 X13.5669 Y68.0388 Z-2.2 I0.0063 J-0.0108
G2 X13.5482 Y68.028 Z-2.2333 I-0.0125 J0.0
G2 Y68.0496 Z-2.2667 I0.0062 J0.0108
G2 X13.5669 Y68.0388 Z-2.3 I0.0063 J-0.0108
G2 X13.5482 Y68.028 Z-2.3333 I-0.0125 J0.0
G2 Y68.0496 Z-2.3667 I0.0062 J0.0108
G2 X13.5669 Y68.0388 Z-2.4 I0.0063 J-0.0108
G2 X13.5482 Y68.028 Z-2.4333 I-0.0125 J0.0
G2 Y68.0496 Z-2.4667 I0.0062 J0.0108
G2 X13.5669 Y68.0388 Z-2.5 I0.0063 J-0.0108
G2 X13.5482 Y68.028 Z-2.5333 I-0.0125 J0.0
G2 Y68.0496 Z-2.5667 I0.0062 J0.0108
G2 X13.5669 Y68.0388 Z-2.6 I0.0063 J-0.0108
G2 X13.5482 Y68.028 Z-2.6333 I-0.0125 J0.0
G2 Y68.0496 Z-2.6667 I0.0062 J0.0108
G2 X13.5669 Y68.0388 Z-2.7 I0.0063 J-0.0108
G2 X13.5482 Y68.028 Z-2.7333 I-0.0125 J0.0
G2 Y68.0496 Z-2.7667 I0.0062 J0.0108
G2 X13.5669 Y68.0388 Z-2.8 I0.0062 J-0.0108
G2 X13.5482 Y68.028 Z-2.8333 I-0.0125 J0.0
G2 Y68.0496 Z-2.8667 I0.0062 J0.0108
G2 X13.5669 Y68.0388 Z-2.9 I0.0062 J-0.0108
G2 X13.5482 Y68.028 Z-2.9333 I-0.0125 J0.0
G2 Y68.0496 Z-2.9667 I0.0062 J0.0108
G2 X13.5669 Y68.0388 Z-3.0 I0.0062 J-0.0108
G2 X13.5482 Y68.028 Z-3.0333 I-0.0125 J0.0
G2 Y68.0496 Z-3.0667 I0.0062 J0.0108
G2 X13.5669 Y68.0388 Z-3.1 I0.0062 J-0.0108
G2 X13.5482 Y68.028 Z-3.1333 I-0.0125 J0.0
G2 Y68.0496 Z-3.1667 I0.0063 J0.0108
G2 X13.5669 Y68.0388 Z-3.2 I0.0062 J-0.0108
G2 X13.5482 Y68.028 I-0.0125 J0.0
G2 Y68.0496 I0.0063 J0.0108
G2 X13.5669 Y68.0388 I0.0062 J-0.0108
G0 Z3.0
G0 X13.3328 Y95.0014
G1 F1000.0 Z0.0
G2 F2000.0 X13.3141 Y94.9905 Z-0.0333 I-0.0125 J0.0
G2 Y95.0122 Z-0.0667 I0.0062 J0.0108
G2 X13.3328 Y95.0014 Z-0.1 I0.0063 J-0.0108
G2 X13.3141 Y94.9905 Z-0.1333 I-0.0125 J0.0
G2 Y95.0122 Z-0.1667 I0.0062 J0.0108
G2 X13.3328 Y95.0014 Z-0.2 I0.0063 J-0.0108
G2 X13.3141 Y94.9905 Z-0.2333 I-0.0125 J0.0
G2 Y95.0122 Z-0.2667 I0.0062 J0.0108
G2 X13.3328 Y95.0014 Z-0.3 I0.0063 J-0.0108
G2 X13.3141 Y94.9905 Z-0.3333 I-0.0125 J0.0
G2 Y95.0122 Z-0.3667 I0.0062 J0.0108
G2 X13.3328 Y95.0014 Z-0.4 I0.0063 J-0.0108
G2 X13.3141 Y94.9905 Z-0.4333 I-0.0125 J0.0
G2 Y95.0122 Z-0.4667 I0.0062 J0.0108
G2 X13.3328 Y95.0014 Z-0.5 I0.0063 J-0.0108
G2 X13.3141 Y94.9905 Z-0.5333 I-0.0125 J0.0
G2 Y95.0122 Z-0.5667 I0.0062 J0.0108
G2 X13.3328 Y95.0014 Z-0.6 I0.0063 J-0.0108
G2 X13.3141 Y94.9905 Z-0.6333 I-0.0125 J0.0
G2 Y95.0122 Z-0.6667 I0.0062 J0.0108
G2 X13.3328 Y95.0014 Z-0.7 I0.0063 J-0.0108
G2 X13.3141 Y94.9905 Z-0.7333 I-0.0125 J0.0
G2 Y95.0122 Z-0.7667 I0.0062 J0.0108
G2 X13.3328 Y95.0014 Z-0.8 I0.0063 J-0.0108
G2 X13.3141 Y94.9905 Z-0.8333 I-0.0125 J0.0
G2 Y95.0122 Z-0.8667 I0.0062 J0.0108
G2 X13.3328 Y95.0014 Z-0.9 I0.0063 J-0.0108
G2 X13.3141 Y94.9905 Z-0.9333 I-0.0125 J0.0
G2 Y95.0122 Z-0.9667 I0.0062 J0.0108
G2 X13.3328 Y95.0014 Z-1.0 I0.0063 J-0.0108
G2 X13.3141 Y94.9905 Z-1.0333 I-0.0125 J0.0
G2 Y95.0122 Z-1.0667 I0.0062 J0.0108
G2 X13.3328 Y95.0014 Z-1.1 I0.0063 J-0.0108
G2 X13.3141 Y94.9905 Z-1.1333 I-0.0125 J0.0
G2 Y95.0122 Z-1.1667 I0.0062 J0.0108
G2 X13.3328 Y95.0014 Z-1.2 I0.0063 J-0.0108
G2 X13.3141 Y94.9905 Z-1.2333 I-0.0125 J0.0
G2 Y95.0122 Z-1.2667 I0.0062 J0.0108
G2 X13.3328 Y95.0014 Z-1.3 I0.0063 J-0.0108
G2 X13.3141 Y94.9905 Z-1.3333 I-0.0125 J0.0
G2 Y95.0122 Z-1.3667 I0.0062 J0.0108
G2 X13.3328 Y95.0014 Z-1.4 I0.0063 J-0.0108
G2 X13.3141 Y94.9905 Z-1.4333 I-0.0125 J0.0
G2 Y95.0122 Z-1.4667 I0.0062 J0.0108
G2 X13.3328 Y95.0014 Z-1.5 I0.0063 J-0.0108
G2 X13.3141 Y94.9905 Z-1.5333 I-0.0125 J0.0
G2 Y95.0122 Z-1.5667 I0.0062 J0.0108
G2 X13.3328 Y95.0014 Z-1.6 I0.0063 J-0.0108
G2 X13.3141 Y94.9905 Z-1.6333 I-0.0125 J0.0
G2 Y95.0122 Z-1.6667 I0.0062 J0.0108
G2 X13.3328 Y95.0014 Z-1.7 I0.0063 J-0.0108
G2 X13.3141 Y94.9905 Z-1.7333 I-0.0125 J0.0
G2 Y95.0122 Z-1.7667 I0.0062 J0.0108
G2 X13.3328 Y95.0014 Z-1.8 I0.0063 J-0.0108
G2 X13.3141 Y94.9905 Z-1.8333 I-0.0125 J0.0
G2 Y95.0122 Z-1.8667 I0.0062 J0.0108
G2 X13.3328 Y95.0014 Z-1.9 I0.0063 J-0.0108
G2 X13.3141 Y94.9905 Z-1.9333 I-0.0125 J0.0
G2 Y95.0122 Z-1.9667 I0.0062 J0.0108
G2 X13.3328 Y95.0014 Z-2.0 I0.0063 J-0.0108
G2 X13.3141 Y94.9905 Z-2.0333 I-0.0125 J0.0
G2 Y95.0122 Z-2.0667 I0.0062 J0.0108
G2 X13.3328 Y95.0014 Z-2.1 I0.0063 J-0.0108
G2 X13.3141 Y94.9905 Z-2.1333 I-0.0125 J0.0
G2 Y95.0122 Z-2.1667 I0.0062 J0.0108
G2 X13.3328 Y95.0014 Z-2.2 I0.0063 J-0.0108
G2 X13.3141 Y94.9905 Z-2.2333 I-0.0125 J0.0
G2 Y95.0122 Z-2.2667 I0.0062 J0.0108
G2 X13.3328 Y95.0014 Z-2.3 I0.0063 J-0.0108
G2 X13.3141 Y94.9905 Z-2.3333 I-0.0125 J0.0
G2 Y95.0122 Z-2.3667 I0.0062 J0.0108
G2 X13.3328 Y95.0014 Z-2.4 I0.0063 J-0.0108
G2 X13.3141 Y94.9905 Z-2.4333 I-0.0125 J0.0
G2 Y95.0122 Z-2.4667 I0.0062 J0.0108
G2 X13.3328 Y95.0014 Z-2.5 I0.0063 J-0.0108
G2 X13.3141 Y94.9905 Z-2.5333 I-0.0125 J0.0
G2 Y95.0122 Z-2.5667 I0.0062 J0.0108
G2 X13.3328 Y95.0014 Z-2.6 I0.0063 J-0.0108
G2 X13.3141 Y94.9905 Z-2.6333 I-0.0125 J0.0
G2 Y95.0122 Z-2.6667 I0.0062 J0.0108
G2 X13.3328 Y95.0014 Z-2.7 I0.0063 J-0.0108
G2 X13.3141 Y94.9905 Z-2.7333 I-0.0125 J0.0
G2 Y95.0122 Z-2.7667 I0.0062 J0.0108
G2 X13.3328 Y95.0014 Z-2.8 I0.0063 J-0.0108
G2 X13.3141 Y94.9905 Z-2.8333 I-0.0125 J0.0
G2 Y95.0122 Z-2.8667 I0.0062 J0.0108
G2 X13.3328 Y95.0014 Z-2.9 I0.0063 J-0.0108
G2 X13.3141 Y94.9905 Z-2.9333 I-0.0125 J0.0
G2 Y95.0122 Z-2.9667 I0.0062 J0.0108
G2 X13.3328 Y95.0014 Z-3.0 I0.0063 J-0.0108
G2 X13.3141 Y94.9905 Z-3.0333 I-0.0125 J0.0
G2 Y95.0122 Z-3.0667 I0.0062 J0.0108
G2 X13.3328 Y95.0014 Z-3.1 I0.0063 J-0.0108
G2 X13.3141 Y94.9905 Z-3.1333 I-0.0125 J0.0
G2 Y95.0122 Z-3.1667 I0.0063 J0.0108
G2 X13.3328 Y95.0014 Z-3.2 I0.0062 J-0.0108
G2 X13.3141 Y94.9905 I-0.0125 J0.0
G2 Y95.0122 I0.0063 J0.0108
G2 X13.3328 Y95.0014 I0.0062 J-0.0108
G0 Z3.0
G0 X13.21 Y108.8691
G1 F1000.0 Z0.0
G2 F2000.0 X13.1912 Y108.8582 Z-0.0333 I-0.0125 J0.0
G2 Y108.8799 Z-0.0667 I0.0062 J0.0108
G2 X13.21 Y108.8691 Z-0.1 I0.0063 J-0.0108
G2 X13.1912 Y108.8582 Z-0.1333 I-0.0125 J0.0
G2 Y108.8799 Z-0.1667 I0.0062 J0.0108
G2 X13.21 Y108.8691 Z-0.2 I0.0063 J-0.0108
G2 X13.1912 Y108.8582 Z-0.2333 I-0.0125 J0.0
G2 Y108.8799 Z-0.2667 I0.0062 J0.0108
G2 X13.21 Y108.8691 Z-0.3 I0.0063 J-0.0108
G2 X13.1912 Y108.8582 Z-0.3333 I-0.0125 J0.0
G2 Y108.8799 Z-0.3667 I0.0062 J0.0108
G2 X13.21 Y108.8691 Z-0.4 I0.0063 J-0.0108
G2 X13.1912 Y108.8582 Z-0.4333 I-0.0125 J0.0
G2 Y108.8799 Z-0.4667 I0.0062 J0.0108
G2 X13.21 Y108.8691 Z-0.5 I0.0063 J-0.0108
G2 X13.1912 Y108.8582 Z-0.5333 I-0.0125 J0.0
G2 Y108.8799 Z-0.5667 I0.0062 J0.0108
G2 X13.21 Y108.8691 Z-0.6 I0.0063 J-0.0108
G2 X13.1912 Y108.8582 Z-0.6333 I-0.0125 J0.0
G2 Y108.8799 Z-0.6667 I0.0062 J0.0108
G2 X13.21 Y108.8691 Z-0.7 I0.0063 J-0.0108
G2 X13.1912 Y108.8582 Z-0.7333 I-0.0125 J0.0
G2 Y108.8799 Z-0.7667 I0.0062 J0.0108
G2 X13.21 Y108.8691 Z-0.8 I0.0063 J-0.0108
G2 X13.1912 Y108.8582 Z-0.8333 I-0.0125 J0.0
G2 Y108.8799 Z-0.8667 I0.0062 J0.0108
G2 X13.21 Y108.8691 Z-0.9 I0.0063 J-0.0108
G2 X13.1912 Y108.8582 Z-0.9333 I-0.0125 J0.0
G2 Y108.8799 Z-0.9667 I0.0062 J0.0108
G2 X13.21 Y108.8691 Z-1.0 I0.0063 J-0.0108
G2 X13.1912 Y108.8582 Z-1.0333 I-0.0125 J0.0
G2 Y108.8799 Z-1.0667 I0.0062 J0.0108
G2 X13.21 Y108.8691 Z-1.1 I0.0063 J-0.0108
G2 X13.1912 Y108.8582 Z-1.1333 I-0.0125 J0.0
G2 Y108.8799 Z-1.1667 I0.0062 J0.0108
G2 X13.21 Y108.8691 Z-1.2 I0.0063 J-0.0108
G2 X13.1912 Y108.8582 Z-1.2333 I-0.0125 J0.0
G2 Y108.8799 Z-1.2667 I0.0062 J0.0108
G2 X13.21 Y108.8691 Z-1.3 I0.0063 J-0.0108
G2 X13.1912 Y108.8582 Z-1.3333 I-0.0125 J0.0
G2 Y108.8799 Z-1.3667 I0.0062 J0.0108
G2 X13.21 Y108.8691 Z-1.4 I0.0063 J-0.0108
G2 X13.1912 Y108.8582 Z-1.4333 I-0.0125 J0.0
G2 Y108.8799 Z-1.4667 I0.0062 J0.0108
G2 X13.21 Y108.8691 Z-1.5 I0.0063 J-0.0108
G2 X13.1912 Y108.8582 Z-1.5333 I-0.0125 J0.0
G2 Y108.8799 Z-1.5667 I0.0062 J0.0108
G2 X13.21 Y108.8691 Z-1.6 I0.0063 J-0.0108
G2 X13.1912 Y108.8582 Z-1.6333 I-0.0125 J0.0
G2 Y108.8799 Z-1.6667 I0.0062 J0.0108
G2 X13.21 Y108.8691 Z-1.7 I0.0063 J-0.0108
G2 X13.1912 Y108.8582 Z-1.7333 I-0.0125 J0.0
G2 Y108.8799 Z-1.7667 I0.0062 J0.0108
G2 X13.21 Y108.8691 Z-1.8 I0.0063 J-0.0108
G2 X13.1912 Y108.8582 Z-1.8333 I-0.0125 J0.0
G2 Y108.8799 Z-1.8667 I0.0062 J0.0108
G2 X13.21 Y108.8691 Z-1.9 I0.0063 J-0.0108
G2 X13.1912 Y108.8582 Z-1.9333 I-0.0125 J0.0
G2 Y108.8799 Z-1.9667 I0.0062 J0.0108
G2 X13.21 Y108.8691 Z-2.0 I0.0063 J-0.0108
G2 X13.1912 Y108.8582 Z-2.0333 I-0.0125 J0.0
G2 Y108.8799 Z-2.0667 I0.0062 J0.0108
G2 X13.21 Y108.8691 Z-2.1 I0.0063 J-0.0108
G2 X13.1912 Y108.8582 Z-2.1333 I-0.0125 J0.0
G2 Y108.8799 Z-2.1667 I0.0062 J0.0108
G2 X13.21 Y108.8691 Z-2.2 I0.0063 J-0.0108
G2 X13.1912 Y108.8582 Z-2.2333 I-0.0125 J0.0
G2 Y108.8799 Z-2.2667 I0.0062 J0.0108
G2 X13.21 Y108.8691 Z-2.3 I0.0063 J-0.0108
G2 X13.1912 Y108.8582 Z-2.3333 I-0.0125 J0.0
G2 Y108.8799 Z-2.3667 I0.0062 J0.0108
G2 X13.21 Y108.8691 Z-2.4 I0.0063 J-0.0108
G2 X13.1912 Y108.8582 Z-2.4333 I-0.0125 J0.0
G2 Y108.8799 Z-2.4667 I0.0062 J0.0108
G2 X13.21 Y108.8691 Z-2.5 I0.0063 J-0.0108
G2 X13.1912 Y108.8582 Z-2.5333 I-0.0125 J0.0
G2 Y108.8799 Z-2.5667 I0.0062 J0.0108
G2 X13.21 Y108.8691 Z-2.6 I0.0063 J-0.0108
G2 X13.1912 Y108.8582 Z-2.6333 I-0.0125 J0.0
G2 Y108.8799 Z-2.6667 I0.0062 J0.0108
G2 X13.21 Y108.8691 Z-2.7 I0.0063 J-0.0108
G2 X13.1912 Y108.8582 Z-2.7333 I-0.0125 J0.0
G2 Y108.8799 Z-2.7667 I0.0062 J0.0108
G2 X13.21 Y108.8691 Z-2.8 I0.0063 J-0.0108
G2 X13.1912 Y108.8582 Z-2.8333 I-0.0125 J0.0
G2 Y108.8799 Z-2.8667 I0.0062 J0.0108
G2 X13.21 Y108.8691 Z-2.9 I0.0063 J-0.0108
G2 X13.1912 Y108.8582 Z-2.9333 I-0.0125 J0.0
G2 Y108.8799 Z-2.9667 I0.0062 J0.0108
G2 X13.21 Y108.8691 Z-3.0 I0.0063 J-0.0108
G2 X13.1912 Y108.8582 Z-3.0333 I-0.0125 J0.0
G2 Y108.8799 Z-3.0667 I0.0062 J0.0108
G2 X13.21 Y108.8691 Z-3.1 I0.0063 J-0.0108
G2 X13.1912 Y108.8582 Z-3.1333 I-0.0125 J0.0
G2 Y108.8799 Z-3.1667 I0.0063 J0.0108
G2 X13.21 Y108.8691 Z-3.2 I0.0062 J-0.0108
G2 X13.1912 Y108.8582 I-0.0125 J0.0
G2 Y108.8799 I0.0063 J0.0108
G2 X13.21 Y108.8691 I0.0062 J-0.0108
G0 Z3.0
G0 X39.9858 Y108.8688
G1 F1000.0 Z0.0
G2 F2000.0 X39.967 Y108.858 Z-0.0333 I-0.0125 J0.0
G2 Y108.8796 Z-0.0667 I0.0062 J0.0108
G2 X39.9858 Y108.8688 Z-0.1 I0.0063 J-0.0108
G2 X39.967 Y108.858 Z-0.1333 I-0.0125 J0.0
G2 Y108.8796 Z-0.1667 I0.0062 J0.0108
G2 X39.9858 Y108.8688 Z-0.2 I0.0063 J-0.0108
G2 X39.967 Y108.858 Z-0.2333 I-0.0125 J0.0
G2 Y108.8796 Z-0.2667 I0.0062 J0.0108
G2 X39.9858 Y108.8688 Z-0.3 I0.0063 J-0.0108
G2 X39.967 Y108.858 Z-0.3333 I-0.0125 J0.0
G2 Y108.8796 Z-0.3667 I0.0062 J0.0108
G2 X39.9858 Y108.8688 Z-0.4 I0.0063 J-0.0108
G2 X39.967 Y108.858 Z-0.4333 I-0.0125 J0.0
G2 Y108.8796 Z-0.4667 I0.0062 J0.0108
G2 X39.9858 Y108.8688 Z-0.5 I0.0063 J-0.0108
G2 X39.967 Y108.858 Z-0.5333 I-0.0125 J0.0
G2 Y108.8796 Z-0.5667 I0.0062 J0.0108
G2 X39.9858 Y108.8688 Z-0.6 I0.0063 J-0.0108
G2 X39.967 Y108.858 Z-0.6333 I-0.0125 J0.0
G2 Y108.8796 Z-0.6667 I0.0062 J0.0108
G2 X39.9858 Y108.8688 Z-0.7 I0.0063 J-0.0108
G2 X39.967 Y108.858 Z-0.7333 I-0.0125 J0.0
G2 Y108.8796 Z-0.7667 I0.0062 J0.0108
G2 X39.9858 Y108.8688 Z-0.8 I0.0063 J-0.0108
G2 X39.967 Y108.858 Z-0.8333 I-0.0125 J0.0
G2 Y108.8796 Z-0.8667 I0.0062 J0.0108
G2 X39.9858 Y108.8688 Z-0.9 I0.0063 J-0.0108
G2 X39.967 Y108.858 Z-0.9333 I-0.0125 J0.0
G2 Y108.8796 Z-0.9667 I0.0062 J0.0108
G2 X39.9858 Y108.8688 Z-1.0 I0.0063 J-0.0108
G2 X39.967 Y108.858 Z-1.0333 I-0.0125 J0.0
G2 Y108.8796 Z-1.0667 I0.0062 J0.0108
G2 X39.9858 Y108.8688 Z-1.1 I0.0063 J-0.0108
G2 X39.967 Y108.858 Z-1.1333 I-0.0125 J0.0
G2 Y108.8796 Z-1.1667 I0.0062 J0.0108
G2 X39.9858 Y108.8688 Z-1.2 I0.0063 J-0.0108
G2 X39.967 Y108.858 Z-1.2333 I-0.0125 J0.0
G2 Y108.8796 Z-1.2667 I0.0062 J0.0108
G2 X39.9858 Y108.8688 Z-1.3 I0.0063 J-0.0108
G2 X39.967 Y108.858 Z-1.3333 I-0.0125 J0.0
G2 Y108.8796 Z-1.3667 I0.0062 J0.0108
G2 X39.9858 Y108.8688 Z-1.4 I0.0063 J-0.0108
G2 X39.967 Y108.858 Z-1.4333 I-0.0125 J0.0
G2 Y108.8796 Z-1.4667 I0.0062 J0.0108
G2 X39.9858 Y108.8688 Z-1.5 I0.0063 J-0.0108
G2 X39.967 Y108.858 Z-1.5333 I-0.0125 J0.0
G2 Y108.8796 Z-1.5667 I0.0062 J0.0108
G2 X39.9858 Y108.8688 Z-1.6 I0.0063 J-0.0108
G2 X39.967 Y108.858 Z-1.6333 I-0.0125 J0.0
G2 Y108.8796 Z-1.6667 I0.0062 J0.0108
G2 X39.9858 Y108.8688 Z-1.7 I0.0063 J-0.0108
G2 X39.967 Y108.858 Z-1.7333 I-0.0125 J0.0
G2 Y108.8796 Z-1.7667 I0.0062 J0.0108
G2 X39.9858 Y108.8688 Z-1.8 I0.0063 J-0.0108
G2 X39.967 Y108.858 Z-1.8333 I-0.0125 J0.0
G2 Y108.8796 Z-1.8667 I0.0062 J0.0108
G2 X39.9858 Y108.8688 Z-1.9 I0.0063 J-0.0108
G2 X39.967 Y108.858 Z-1.9333 I-0.0125 J0.0
G2 Y108.8796 Z-1.9667 I0.0062 J0.0108
G2 X39.9858 Y108.8688 Z-2.0 I0.0063 J-0.0108
G2 X39.967 Y108.858 Z-2.0333 I-0.0125 J0.0
G2 Y108.8796 Z-2.0667 I0.0062 J0.0108
G2 X39.9858 Y108.8688 Z-2.1 I0.0063 J-0.0108
G2 X39.967 Y108.858 Z-2.1333 I-0.0125 J0.0
G2 Y108.8796 Z-2.1667 I0.0062 J0.0108
G2 X39.9858 Y108.8688 Z-2.2 I0.0063 J-0.0108
G2 X39.967 Y108.858 Z-2.2333 I-0.0125 J0.0
G2 Y108.8796 Z-2.2667 I0.0062 J0.0108
G2 X39.9858 Y108.8688 Z-2.3 I0.0063 J-0.0108
G2 X39.967 Y108.858 Z-2.3333 I-0.0125 J0.0
G2 Y108.8796 Z-2.3667 I0.0062 J0.0108
G2 X39.9858 Y108.8688 Z-2.4 I0.0063 J-0.0108
G2 X39.967 Y108.858 Z-2.4333 I-0.0125 J0.0
G2 Y108.8796 Z-2.4667 I0.0062 J0.0108
G2 X39.9858 Y108.8688 Z-2.5 I0.0063 J-0.0108
G2 X39.967 Y108.858 Z-2.5333 I-0.0125 J0.0
G2 Y108.8796 Z-2.5667 I0.0062 J0.0108
G2 X39.9858 Y108.8688 Z-2.6 I0.0063 J-0.0108
G2 X39.967 Y108.858 Z-2.6333 I-0.0125 J0.0
G2 Y108.8796 Z-2.6667 I0.0062 J0.0108
G2 X39.9858 Y108.8688 Z-2.7 I0.0063 J-0.0108
G2 X39.967 Y108.858 Z-2.7333 I-0.0125 J0.0
G2 Y108.8796 Z-2.7667 I0.0062 J0.0108
G2 X39.9858 Y108.8688 Z-2.8 I0.0063 J-0.0108
G2 X39.967 Y108.858 Z-2.8333 I-0.0125 J0.0
G2 Y108.8796 Z-2.8667 I0.0062 J0.0108
G2 X39.9858 Y108.8688 Z-2.9 I0.0063 J-0.0108
G2 X39.967 Y108.858 Z-2.9333 I-0.0125 J0.0
G2 Y108.8796 Z-2.9667 I0.0063 J0.0108
G2 X39.9858 Y108.8688 Z-3.0 I0.0063 J-0.0108
G2 X39.967 Y108.858 Z-3.0333 I-0.0125 J0.0
G2 Y108.8796 Z-3.0667 I0.0063 J0.0108
G2 X39.9858 Y108.8688 Z-3.1 I0.0063 J-0.0108
G2 X39.967 Y108.858 Z-3.1333 I-0.0125 J0.0
G2 Y108.8796 Z-3.1667 I0.0063 J0.0108
G2 X39.9858 Y108.8688 Z-3.2 I0.0063 J-0.0108
G2 X39.967 Y108.858 I-0.0125 J0.0
G2 Y108.8796 I0.0063 J0.0108
G2 X39.9858 Y108.8688 I0.0062 J-0.0108
G0 Z3.0
G0 X40.1066 Y94.9828
G1 F1000.0 Z0.0
G2 F2000.0 X40.0878 Y94.9719 Z-0.0333 I-0.0125 J0.0
G2 Y94.9936 Z-0.0667 I0.0062 J0.0108
G2 X40.1066 Y94.9828 Z-0.1 I0.0063 J-0.0108
G2 X40.0878 Y94.9719 Z-0.1333 I-0.0125 J0.0
G2 Y94.9936 Z-0.1667 I0.0062 J0.0108
G2 X40.1066 Y94.9828 Z-0.2 I0.0063 J-0.0108
G2 X40.0878 Y94.9719 Z-0.2333 I-0.0125 J0.0
G2 Y94.9936 Z-0.2667 I0.0062 J0.0108
G2 X40.1066 Y94.9828 Z-0.3 I0.0063 J-0.0108
G2 X40.0878 Y94.9719 Z-0.3333 I-0.0125 J0.0
G2 Y94.9936 Z-0.3667 I0.0062 J0.0108
G2 X40.1066 Y94.9828 Z-0.4 I0.0063 J-0.0108
G2 X40.0878 Y94.9719 Z-0.4333 I-0.0125 J0.0
G2 Y94.9936 Z-0.4667 I0.0062 J0.0108
G2 X40.1066 Y94.9828 Z-0.5 I0.0063 J-0.0108
G2 X40.0878 Y94.9719 Z-0.5333 I-0.0125 J0.0
G2 Y94.9936 Z-0.5667 I0.0062 J0.0108
G2 X40.1066 Y94.9828 Z-0.6 I0.0063 J-0.0108
G2 X40.0878 Y94.9719 Z-0.6333 I-0.0125 J0.0
G2 Y94.9936 Z-0.6667 I0.0062 J0.0108
G2 X40.1066 Y94.9828 Z-0.7 I0.0063 J-0.0108
G2 X40.0878 Y94.9719 Z-0.7333 I-0.0125 J0.0
G2 Y94.9936 Z-0.7667 I0.0062 J0.0108
G2 X40.1066 Y94.9828 Z-0.8 I0.0063 J-0.0108
G2 X40.0878 Y94.9719 Z-0.8333 I-0.0125 J0.0
G2 Y94.9936 Z-0.8667 I0.0062 J0.0108
G2 X40.1066 Y94.9828 Z-0.9 I0.0063 J-0.0108
G2 X40.0878 Y94.9719 Z-0.9333 I-0.0125 J0.0
G2 Y94.9936 Z-0.9667 I0.0062 J0.0108
G2 X40.1066 Y94.9828 Z-1.0 I0.0063 J-0.0108
G2 X40.0878 Y94.9719 Z-1.0333 I-0.0125 J0.0
G2 Y94.9936 Z-1.0667 I0.0062 J0.0108
G2 X40.1066 Y94.9828 Z-1.1 I0.0063 J-0.0108
G2 X40.0878 Y94.9719 Z-1.1333 I-0.0125 J0.0
G2 Y94.9936 Z-1.1667 I0.0062 J0.0108
G2 X40.1066 Y94.9828 Z-1.2 I0.0063 J-0.0108
G2 X40.0878 Y94.9719 Z-1.2333 I-0.0125 J0.0
G2 Y94.9936 Z-1.2667 I0.0062 J0.0108
G2 X40.1066 Y94.9828 Z-1.3 I0.0063 J-0.0108
G2 X40.0878 Y94.9719 Z-1.3333 I-0.0125 J0.0
G2 Y94.9936 Z-1.3667 I0.0062 J0.0108
G2 X40.1066 Y94.9828 Z-1.4 I0.0063 J-0.0108
G2 X40.0878 Y94.9719 Z-1.4333 I-0.0125 J0.0
G2 Y94.9936 Z-1.4667 I0.0062 J0.0108
G2 X40.1066 Y94.9828 Z-1.5 I0.0063 J-0.0108
G2 X40.0878 Y94.9719 Z-1.5333 I-0.0125 J0.0
G2 Y94.9936 Z-1.5667 I0.0062 J0.0108
G2 X40.1066 Y94.9828 Z-1.6 I0.0063 J-0.0108
G2 X40.0878 Y94.9719 Z-1.6333 I-0.0125 J0.0
G2 Y94.9936 Z-1.6667 I0.0062 J0.0108
G2 X40.1066 Y94.9828 Z-1.7 I0.0063 J-0.0108
G2 X40.0878 Y94.9719 Z-1.7333 I-0.0125 J0.0
G2 Y94.9936 Z-1.7667 I0.0062 J0.0108
G2 X40.1066 Y94.9828 Z-1.8 I0.0063 J-0.0108
G2 X40.0878 Y94.9719 Z-1.8333 I-0.0125 J0.0
G2 Y94.9936 Z-1.8667 I0.0062 J0.0108
G2 X40.1066 Y94.9828 Z-1.9 I0.0063 J-0.0108
G2 X40.0878 Y94.9719 Z-1.9333 I-0.0125 J0.0
G2 Y94.9936 Z-1.9667 I0.0062 J0.0108
G2 X40.1066 Y94.9828 Z-2.0 I0.0063 J-0.0108
G2 X40.0878 Y94.9719 Z-2.0333 I-0.0125 J0.0
G2 Y94.9936 Z-2.0667 I0.0062 J0.0108
G2 X40.1066 Y94.9828 Z-2.1 I0.0063 J-0.0108
G2 X40.0878 Y94.9719 Z-2.1333 I-0.0125 J0.0
G2 Y94.9936 Z-2.1667 I0.0062 J0.0108
G2 X40.1066 Y94.9828 Z-2.2 I0.0063 J-0.0108
G2 X40.0878 Y94.9719 Z-2.2333 I-0.0125 J0.0
G2 Y94.9936 Z-2.2667 I0.0062 J0.0108
G2 X40.1066 Y94.9828 Z-2.3 I0.0063 J-0.0108
G2 X40.0878 Y94.9719 Z-2.3333 I-0.0125 J0.0
G2 Y94.9936 Z-2.3667 I0.0062 J0.0108
G2 X40.1066 Y94.9828 Z-2.4 I0.0063 J-0.0108
G2 X40.0878 Y94.9719 Z-2.4333 I-0.0125 J0.0
G2 Y94.9936 Z-2.4667 I0.0062 J0.0108
G2 X40.1066 Y94.9828 Z-2.5 I0.0063 J-0.0108
G2 X40.0878 Y94.9719 Z-2.5333 I-0.0125 J0.0
G2 Y94.9936 Z-2.5667 I0.0062 J0.0108
G2 X40.1066 Y94.9828 Z-2.6 I0.0063 J-0.0108
G2 X40.0878 Y94.9719 Z-2.6333 I-0.0125 J0.0
G2 Y94.9936 Z-2.6667 I0.0062 J0.0108
G2 X40.1066 Y94.9828 Z-2.7 I0.0063 J-0.0108
G2 X40.0878 Y94.9719 Z-2.7333 I-0.0125 J0.0
G2 Y94.9936 Z-2.7667 I0.0062 J0.0108
G2 X40.1066 Y94.9828 Z-2.8 I0.0063 J-0.0108
G2 X40.0878 Y94.9719 Z-2.8333 I-0.0125 J0.0
G2 Y94.9936 Z-2.8667 I0.0062 J0.0108
G2 X40.1066 Y94.9828 Z-2.9 I0.0063 J-0.0108
G2 X40.0878 Y94.9719 Z-2.9333 I-0.0125 J0.0
G2 Y94.9936 Z-2.9667 I0.0063 J0.0108
G2 X40.1066 Y94.9828 Z-3.0 I0.0063 J-0.0108
G2 X40.0878 Y94.9719 Z-3.0333 I-0.0125 J0.0
G2 Y94.9936 Z-3.0667 I0.0063 J0.0108
G2 X40.1066 Y94.9828 Z-3.1 I0.0063 J-0.0108
G2 X40.0878 Y94.9719 Z-3.1333 I-0.0125 J0.0
G2 Y94.9936 Z-3.1667 I0.0063 J0.0108
G2 X40.1066 Y94.9828 Z-3.2 I0.0063 J-0.0108
G2 X40.0878 Y94.9719 I-0.0125 J0.0
G2 Y94.9936 I0.0063 J0.0108
G2 X40.1066 Y94.9828 I0.0062 J-0.0108
G0 Z3.0
G0 X46.8691 Y68.0388
G1 F1000.0 Z0.0
G2 F2000.0 X46.8504 Y68.028 Z-0.0333 I-0.0125 J0.0
G2 Y68.0496 Z-0.0667 I0.0062 J0.0108
G2 X46.8691 Y68.0388 Z-0.1 I0.0063 J-0.0108
G2 X46.8504 Y68.028 Z-0.1333 I-0.0125 J0.0
G2 Y68.0496 Z-0.1667 I0.0062 J0.0108
G2 X46.8691 Y68.0388 Z-0.2 I0.0063 J-0.0108
G2 X46.8504 Y68.028 Z-0.2333 I-0.0125 J0.0
G2 Y68.0496 Z-0.2667 I0.0062 J0.0108
G2 X46.8691 Y68.0388 Z-0.3 I0.0063 J-0.0108
G2 X46.8504 Y68.028 Z-0.3333 I-0.0125 J0.0
G2 Y68.0496 Z-0.3667 I0.0062 J0.0108
G2 X46.8691 Y68.0388 Z-0.4 I0.0063 J-0.0108
G2 X46.8504 Y68.028 Z-0.4333 I-0.0125 J0.0
G2 Y68.0496 Z-0.4667 I0.0062 J0.0108
G2 X46.8691 Y68.0388 Z-0.5 I0.0063 J-0.0108
G2 X46.8504 Y68.028 Z-0.5333 I-0.0125 J0.0
G2 Y68.0496 Z-0.5667 I0.0062 J0.0108
G2 X46.8691 Y68.0388 Z-0.6 I0.0063 J-0.0108
G2 X46.8504 Y68.028 Z-0.6333 I-0.0125 J0.0
G2 Y68.0496 Z-0.6667 I0.0062 J0.0108
G2 X46.8691 Y68.0388 Z-0.7 I0.0063 J-0.0108
G2 X46.8504 Y68.028 Z-0.7333 I-0.0125 J0.0
G2 Y68.0496 Z-0.7667 I0.0062 J0.0108
G2 X46.8691 Y68.0388 Z-0.8 I0.0063 J-0.0108
G2 X46.8504 Y68.028 Z-0.8333 I-0.0125 J0.0
G2 Y68.0496 Z-0.8667 I0.0062 J0.0108
G2 X46.8691 Y68.0388 Z-0.9 I0.0063 J-0.0108
G2 X46.8504 Y68.028 Z-0.9333 I-0.0125 J0.0
G2 Y68.0496 Z-0.9667 I0.0062 J0.0108
G2 X46.8691 Y68.0388 Z-1.0 I0.0063 J-0.0108
G2 X46.8504 Y68.028 Z-1.0333 I-0.0125 J0.0
G2 Y68.0496 Z-1.0667 I0.0062 J0.0108
G2 X46.8691 Y68.0388 Z-1.1 I0.0063 J-0.0108
G2 X46.8504 Y68.028 Z-1.1333 I-0.0125 J0.0
G2 Y68.0496 Z-1.1667 I0.0062 J0.0108
G2 X46.8691 Y68.0388 Z-1.2 I0.0063 J-0.0108
G2 X46.8504 Y68.028 Z-1.2333 I-0.0125 J0.0
G2 Y68.0496 Z-1.2667 I0.0062 J0.0108
G2 X46.8691 Y68.0388 Z-1.3 I0.0063 J-0.0108
G2 X46.8504 Y68.028 Z-1.3333 I-0.0125 J0.0
G2 Y68.0496 Z-1.3667 I0.0062 J0.0108
G2 X46.8691 Y68.0388 Z-1.4 I0.0063 J-0.0108
G2 X46.8504 Y68.028 Z-1.4333 I-0.0125 J0.0
G2 Y68.0496 Z-1.4667 I0.0062 J0.0108
G2 X46.8691 Y68.0388 Z-1.5 I0.0063 J-0.0108
G2 X46.8504 Y68.028 Z-1.5333 I-0.0125 J0.0
G2 Y68.0496 Z-1.5667 I0.0062 J0.0108
G2 X46.8691 Y68.0388 Z-1.6 I0.0063 J-0.0108
G2 X46.8504 Y68.028 Z-1.6333 I-0.0125 J0.0
G2 Y68.0496 Z-1.6667 I0.0062 J0.0108
G2 X46.8691 Y68.0388 Z-1.7 I0.0063 J-0.0108
G2 X46.8504 Y68.028 Z-1.7333 I-0.0125 J0.0
G2 Y68.0496 Z-1.7667 I0.0062 J0.0108
G2 X46.8691 Y68.0388 Z-1.8 I0.0063 J-0.0108
G2 X46.8504 Y68.028 Z-1.8333 I-0.0125 J0.0
G2 Y68.0496 Z-1.8667 I0.0062 J0.0108
G2 X46.8691 Y68.0388 Z-1.9 I0.0063 J-0.0108
G2 X46.8504 Y68.028 Z-1.9333 I-0.0125 J0.0
G2 Y68.0496 Z-1.9667 I0.0062 J0.0108
G2 X46.8691 Y68.0388 Z-2.0 I0.0063 J-0.0108
G2 X46.8504 Y68.028 Z-2.0333 I-0.0125 J0.0
G2 Y68.0496 Z-2.0667 I0.0062 J0.0108
G2 X46.8691 Y68.0388 Z-2.1 I0.0063 J-0.0108
G2 X46.8504 Y68.028 Z-2.1333 I-0.0125 J0.0
G2 Y68.0496 Z-2.1667 I0.0062 J0.0108
G2 X46.8691 Y68.0388 Z-2.2 I0.0063 J-0.0108
G2 X46.8504 Y68.028 Z-2.2333 I-0.0125 J0.0
G2 Y68.0496 Z-2.2667 I0.0062 J0.0108
G2 X46.8691 Y68.0388 Z-2.3 I0.0063 J-0.0108
G2 X46.8504 Y68.028 Z-2.3333 I-0.0125 J0.0
G2 Y68.0496 Z-2.3667 I0.0062 J0.0108
G2 X46.8691 Y68.0388 Z-2.4 I0.0063 J-0.0108
G2 X46.8504 Y68.028 Z-2.4333 I-0.0125 J0.0
G2 Y68.0496 Z-2.4667 I0.0062 J0.0108
G2 X46.8691 Y68.0388 Z-2.5 I0.0063 J-0.0108
G2 X46.8504 Y68.028 Z-2.5333 I-0.0125 J0.0
G2 Y68.0496 Z-2.5667 I0.0062 J0.0108
G2 X46.8691 Y68.0388 Z-2.6 I0.0063 J-0.0108
G2 X46.8504 Y68.028 Z-2.6333 I-0.0125 J0.0
G2 Y68.0496 Z-2.6667 I0.0062 J0.0108
G2 X46.8691 Y68.0388 Z-2.7 I0.0063 J-0.0108
G2 X46.8504 Y68.028 Z-2.7333 I-0.0125 J0.0
G2 Y68.0496 Z-2.7667 I0.0062 J0.0108
G2 X46.8691 Y68.0388 Z-2.8 I0.0063 J-0.0108
G2 X46.8504 Y68.028 Z-2.8333 I-0.0125 J0.0
G2 Y68.0496 Z-2.8667 I0.0062 J0.0108
G2 X46.8691 Y68.0388 Z-2.9 I0.0063 J-0.0108
G2 X46.8504 Y68.028 Z-2.9333 I-0.0125 J0.0
G2 Y68.0496 Z-2.9667 I0.0063 J0.0108
G2 X46.8691 Y68.0388 Z-3.0 I0.0063 J-0.0108
G2 X46.8504 Y68.028 Z-3.0333 I-0.0125 J0.0
G2 Y68.0496 Z-3.0667 I0.0063 J0.0108
G2 X46.8691 Y68.0388 Z-3.1 I0.0063 J-0.0108
G2 X46.8504 Y68.028 Z-3.1333 I-0.0125 J0.0
G2 Y68.0496 Z-3.1667 I0.0063 J0.0108
G2 X46.8691 Y68.0388 Z-3.2 I0.0063 J-0.0108
G2 X46.8504 Y68.028 I-0.0125 J0.0
G2 Y68.0496 I0.0063 J0.0108
G2 X46.8691 Y68.0388 I0.0062 J-0.0108
G0 Z3.0
G0 X48.0037 Y41.4956
G1 F1000.0 Z0.0
G2 F2000.0 X47.985 Y41.4848 Z-0.0333 I-0.0125 J0.0
G2 Y41.5064 Z-0.0667 I0.0063 J0.0108
G2 X48.0037 Y41.4956 Z-0.1 I0.0063 J-0.0108
G2 X47.985 Y41.4848 Z-0.1333 I-0.0125 J0.0
G2 Y41.5064 Z-0.1667 I0.0063 J0.0108
G2 X48.0037 Y41.4956 Z-0.2 I0.0063 J-0.0108
G2 X47.985 Y41.4848 Z-0.2333 I-0.0125 J0.0
G2 Y41.5064 Z-0.2667 I0.0063 J0.0108
G2 X48.0037 Y41.4956 Z-0.3 I0.0063 J-0.0108
G2 X47.985 Y41.4848 Z-0.3333 I-0.0125 J0.0
G2 Y41.5064 Z-0.3667 I0.0063 J0.0108
G2 X48.0037 Y41.4956 Z-0.4 I0.0063 J-0.0108
G2 X47.985 Y41.4848 Z-0.4333 I-0.0125 J0.0
G2 Y41.5064 Z-0.4667 I0.0063 J0.0108
G2 X48.0037 Y41.4956 Z-0.5 I0.0063 J-0.0108
G2 X47.985 Y41.4848 Z-0.5333 I-0.0125 J0.0
G2 Y41.5064 Z-0.5667 I0.0063 J0.0108
G2 X48.0037 Y41.4956 Z-0.6 I0.0063 J-0.0108
G2 X47.985 Y41.4848 Z-0.6333 I-0.0125 J0.0
G2 Y41.5064 Z-0.6667 I0.0063 J0.0108
G2 X48.0037 Y41.4956 Z-0.7 I0.0063 J-0.0108
G2 X47.985 Y41.4848 Z-0.7333 I-0.0125 J0.0
G2 Y41.5064 Z-0.7667 I0.0063 J0.0108
G2 X48.0037 Y41.4956 Z-0.8 I0.0063 J-0.0108
G2 X47.985 Y41.4848 Z-0.8333 I-0.0125 J0.0
G2 Y41.5064 Z-0.8667 I0.0063 J0.0108
G2 X48.0037 Y41.4956 Z-0.9 I0.0063 J-0.0108
G2 X47.985 Y41.4848 Z-0.9333 I-0.0125 J0.0
G2 Y41.5064 Z-0.9667 I0.0063 J0.0108
G2 X48.0037 Y41.4956 Z-1.0 I0.0063 J-0.0108
G2 X47.985 Y41.4848 Z-1.0333 I-0.0125 J0.0
G2 Y41.5064 Z-1.0667 I0.0063 J0.0108
G2 X48.0037 Y41.4956 Z-1.1 I0.0063 J-0.0108
G2 X47.985 Y41.4848 Z-1.1333 I-0.0125 J0.0
G2 Y41.5064 Z-1.1667 I0.0063 J0.0108
G2 X48.0037 Y41.4956 Z-1.2 I0.0063 J-0.0108
G2 X47.985 Y41.4848 Z-1.2333 I-0.0125 J0.0
G2 Y41.5064 Z-1.2667 I0.0063 J0.0108
G2 X48.0037 Y41.4956 Z-1.3 I0.0063 J-0.0108
G2 X47.985 Y41.4848 Z-1.3333 I-0.0125 J0.0
G2 Y41.5064 Z-1.3667 I0.0063 J0.0108
G2 X48.0037 Y41.4956 Z-1.4 I0.0063 J-0.0108
G2 X47.985 Y41.4848 Z-1.4333 I-0.0125 J0.0
G2 Y41.5064 Z-1.4667 I0.0063 J0.0108
G2 X48.0037 Y41.4956 Z-1.5 I0.0063 J-0.0108
G2 X47.985 Y41.4848 Z-1.5333 I-0.0125 J0.0
G2 Y41.5064 Z-1.5667 I0.0063 J0.0108
G2 X48.0037 Y41.4956 Z-1.6 I0.0063 J-0.0108
G2 X47.985 Y41.4848 Z-1.6333 I-0.0125 J0.0
G2 Y41.5064 Z-1.6667 I0.0063 J0.0108
G2 X48.0037 Y41.4956 Z-1.7 I0.0063 J-0.0108
G2 X47.985 Y41.4848 Z-1.7333 I-0.0125 J0.0
G2 Y41.5064 Z-1.7667 I0.0063 J0.0108
G2 X48.0037 Y41.4956 Z-1.8 I0.0063 J-0.0108
G2 X47.985 Y41.4848 Z-1.8333 I-0.0125 J0.0
G2 Y41.5064 Z-1.8667 I0.0063 J0.0108
G2 X48.0037 Y41.4956 Z-1.9 I0.0063 J-0.0108
G2 X47.985 Y41.4848 Z-1.9333 I-0.0125 J0.0
G2 Y41.5064 Z-1.9667 I0.0063 J0.0108
G2 X48.0037 Y41.4956 Z-2.0 I0.0063 J-0.0108
G2 X47.985 Y41.4848 Z-2.0333 I-0.0125 J0.0
G2 Y41.5064 Z-2.0667 I0.0063 J0.0108
G2 X48.0037 Y41.4956 Z-2.1 I0.0063 J-0.0108
G2 X47.985 Y41.4848 Z-2.1333 I-0.0125 J0.0
G2 Y41.5064 Z-2.1667 I0.0063 J0.0108
G2 X48.0037 Y41.4956 Z-2.2 I0.0063 J-0.0108
G2 X47.985 Y41.4848 Z-2.2333 I-0.0125 J0.0
G2 Y41.5064 Z-2.2667 I0.0063 J0.0108
G2 X48.0037 Y41.4956 Z-2.3 I0.0063 J-0.0108
G2 X47.985 Y41.4848 Z-2.3333 I-0.0125 J0.0
G2 Y41.5064 Z-2.3667 I0.0063 J0.0108
G2 X48.0037 Y41.4956 Z-2.4 I0.0063 J-0.0108
G2 X47.985 Y41.4848 Z-2.4333 I-0.0125 J0.0
G2 Y41.5064 Z-2.4667 I0.0063 J0.0108
G2 X48.0037 Y41.4956 Z-2.5 I0.0063 J-0.0108
G2 X47.985 Y41.4848 Z-2.5333 I-0.0125 J0.0
G2 Y41.5064 Z-2.5667 I0.0063 J0.0108
G2 X48.0037 Y41.4956 Z-2.6 I0.0063 J-0.0108
G2 X47.985 Y41.4848 Z-2.6333 I-0.0125 J0.0
G2 Y41.5064 Z-2.6667 I0.0063 J0.0108
G2 X48.0037 Y41.4956 Z-2.7 I0.0063 J-0.0108
G2 X47.985 Y41.4848 Z-2.7333 I-0.0125 J0.0
G2 Y41.5064 Z-2.7667 I0.0063 J0.0108
G2 X48.0037 Y41.4956 Z-2.8 I0.0063 J-0.0108
G2 X47.985 Y41.4848 Z-2.8333 I-0.0125 J0.0
G2 Y41.5064 Z-2.8667 I0.0063 J0.0108
G2 X48.0037 Y41.4956 Z-2.9 I0.0063 J-0.0108
G2 X47.985 Y41.4848 Z-2.9333 I-0.0125 J0.0
G2 Y41.5064 Z-2.9667 I0.0063 J0.0108
G2 X48.0037 Y41.4956 Z-3.0 I0.0062 J-0.0108
G2 X47.985 Y41.4848 Z-3.0333 I-0.0125 J0.0
G2 Y41.5064 Z-3.0667 I0.0063 J0.0108
G2 X48.0037 Y41.4956 Z-3.1 I0.0062 J-0.0108
G2 X47.985 Y41.4848 Z-3.1333 I-0.0125 J0.0
G2 Y41.5064 Z-3.1667 I0.0063 J0.0108
G2 X48.0037 Y41.4956 Z-3.2 I0.0062 J-0.0108
G2 X47.985 Y41.4848 I-0.0125 J0.0
G2 Y41.5064 I0.0063 J0.0108
G2 X48.0037 Y41.4956 I0.0062 J-0.0108
G0 Z3.0
G0 X40.1049 Y18.9304
G1 F1000.0 Z0.0
G2 F2000.0 X40.0861 Y18.9196 Z-0.0333 I-0.0125 J0.0
G2 Y18.9412 Z-0.0667 I0.0063 J0.0108
G2 X40.1049 Y18.9304 Z-0.1 I0.0063 J-0.0108
G2 X40.0861 Y18.9196 Z-0.1333 I-0.0125 J0.0
G2 Y18.9412 Z-0.1667 I0.0063 J0.0108
G2 X40.1049 Y18.9304 Z-0.2 I0.0063 J-0.0108
G2 X40.0861 Y18.9196 Z-0.2333 I-0.0125 J0.0
G2 Y18.9412 Z-0.2667 I0.0063 J0.0108
G2 X40.1049 Y18.9304 Z-0.3 I0.0063 J-0.0108
G2 X40.0861 Y18.9196 Z-0.3333 I-0.0125 J0.0
G2 Y18.9412 Z-0.3667 I0.0063 J0.0108
G2 X40.1049 Y18.9304 Z-0.4 I0.0063 J-0.0108
G2 X40.0861 Y18.9196 Z-0.4333 I-0.0125 J0.0
G2 Y18.9412 Z-0.4667 I0.0063 J0.0108
G2 X40.1049 Y18.9304 Z-0.5 I0.0063 J-0.0108
G2 X40.0861 Y18.9196 Z-0.5333 I-0.0125 J0.0
G2 Y18.9412 Z-0.5667 I0.0063 J0.0108
G2 X40.1049 Y18.9304 Z-0.6 I0.0063 J-0.0108
G2 X40.0861 Y18.9196 Z-0.6333 I-0.0125 J0.0
G2 Y18.9412 Z-0.6667 I0.0063 J0.0108
G2 X40.1049 Y18.9304 Z-0.7 I0.0063 J-0.0108
G2 X40.0861 Y18.9196 Z-0.7333 I-0.0125 J0.0
G2 Y18.9412 Z-0.7667 I0.0063 J0.0108
G2 X40.1049 Y18.9304 Z-0.8 I0.0063 J-0.0108
G2 X40.0861 Y18.9196 Z-0.8333 I-0.0125 J0.0
G2 Y18.9412 Z-0.8667 I0.0063 J0.0108
G2 X40.1049 Y18.9304 Z-0.9 I0.0063 J-0.0108
G2 X40.0861 Y18.9196 Z-0.9333 I-0.0125 J0.0
G2 Y18.9412 Z-0.9667 I0.0063 J0.0108
G2 X40.1049 Y18.9304 Z-1.0 I0.0063 J-0.0108
G2 X40.0861 Y18.9196 Z-1.0333 I-0.0125 J0.0
G2 Y18.9412 Z-1.0667 I0.0063 J0.0108
G2 X40.1049 Y18.9304 Z-1.1 I0.0063 J-0.0108
G2 X40.0861 Y18.9196 Z-1.1333 I-0.0125 J0.0
G2 Y18.9412 Z-1.1667 I0.0063 J0.0108
G2 X40.1049 Y18.9304 Z-1.2 I0.0063 J-0.0108
G2 X40.0861 Y18.9196 Z-1.2333 I-0.0125 J0.0
G2 Y18.9412 Z-1.2667 I0.0063 J0.0108
G2 X40.1049 Y18.9304 Z-1.3 I0.0063 J-0.0108
G2 X40.0861 Y18.9196 Z-1.3333 I-0.0125 J0.0
G2 Y18.9412 Z-1.3667 I0.0063 J0.0108
G2 X40.1049 Y18.9304 Z-1.4 I0.0063 J-0.0108
G2 X40.0861 Y18.9196 Z-1.4333 I-0.0125 J0.0
G2 Y18.9412 Z-1.4667 I0.0063 J0.0108
G2 X40.1049 Y18.9304 Z-1.5 I0.0063 J-0.0108
G2 X40.0861 Y18.9196 Z-1.5333 I-0.0125 J0.0
G2 Y18.9412 Z-1.5667 I0.0063 J0.0108
G2 X40.1049 Y18.9304 Z-1.6 I0.0063 J-0.0108
G2 X40.0861 Y18.9196 Z-1.6333 I-0.0125 J0.0
G2 Y18.9412 Z-1.6667 I0.0063 J0.0108
G2 X40.1049 Y18.9304 Z-1.7 I0.0063 J-0.0108
G2 X40.0861 Y18.9196 Z-1.7333 I-0.0125 J0.0
G2 Y18.9412 Z-1.7667 I0.0063 J0.0108
G2 X40.1049 Y18.9304 Z-1.8 I0.0063 J-0.0108
G2 X40.0861 Y18.9196 Z-1.8333 I-0.0125 J0.0
G2 Y18.9412 Z-1.8667 I0.0063 J0.0108
G2 X40.1049 Y18.9304 Z-1.9 I0.0063 J-0.0108
G2 X40.0861 Y18.9196 Z-1.9333 I-0.0125 J0.0
G2 Y18.9412 Z-1.9667 I0.0063 J0.0108
G2 X40.1049 Y18.9304 Z-2.0 I0.0063 J-0.0108
G2 X40.0861 Y18.9196 Z-2.0333 I-0.0125 J0.0
G2 Y18.9412 Z-2.0667 I0.0063 J0.0108
G2 X40.1049 Y18.9304 Z-2.1 I0.0063 J-0.0108
G2 X40.0861 Y18.9196 Z-2.1333 I-0.0125 J0.0
G2 Y18.9412 Z-2.1667 I0.0063 J0.0108
G2 X40.1049 Y18.9304 Z-2.2 I0.0063 J-0.0108
G2 X40.0861 Y18.9196 Z-2.2333 I-0.0125 J0.0
G2 Y18.9412 Z-2.2667 I0.0063 J0.0108
G2 X40.1049 Y18.9304 Z-2.3 I0.0063 J-0.0108
G2 X40.0861 Y18.9196 Z-2.3333 I-0.0125 J0.0
G2 Y18.9412 Z-2.3667 I0.0063 J0.0108
G2 X40.1049 Y18.9304 Z-2.4 I0.0063 J-0.0108
G2 X40.0861 Y18.9196 Z-2.4333 I-0.0125 J0.0
G2 Y18.9412 Z-2.4667 I0.0063 J0.0108
G2 X40.1049 Y18.9304 Z-2.5 I0.0063 J-0.0108
G2 X40.0861 Y18.9196 Z-2.5333 I-0.0125 J0.0
G2 Y18.9412 Z-2.5667 I0.0063 J0.0108
G2 X40.1049 Y18.9304 Z-2.6 I0.0063 J-0.0108
G2 X40.0861 Y18.9196 Z-2.6333 I-0.0125 J0.0
G2 Y18.9412 Z-2.6667 I0.0063 J0.0108
G2 X40.1049 Y18.9304 Z-2.7 I0.0063 J-0.0108
G2 X40.0861 Y18.9196 Z-2.7333 I-0.0125 J0.0
G2 Y18.9412 Z-2.7667 I0.0063 J0.0108
G2 X40.1049 Y18.9304 Z-2.8 I0.0063 J-0.0108
G2 X40.0861 Y18.9196 Z-2.8333 I-0.0125 J0.0
G2 Y18.9412 Z-2.8667 I0.0063 J0.0108
G2 X40.1049 Y18.9304 Z-2.9 I0.0063 J-0.0108
G2 X40.0861 Y18.9196 Z-2.9333 I-0.0125 J0.0
G2 Y18.9412 Z-2.9667 I0.0063 J0.0108
G2 X40.1049 Y18.9304 Z-3.0 I0.0062 J-0.0108
G2 X40.0861 Y18.9196 Z-3.0333 I-0.0125 J0.0
G2 Y18.9412 Z-3.0667 I0.0063 J0.0108
G2 X40.1049 Y18.9304 Z-3.1 I0.0062 J-0.0108
G2 X40.0861 Y18.9196 Z-3.1333 I-0.0125 J0.0
G2 Y18.9412 Z-3.1667 I0.0063 J0.0108
G2 X40.1049 Y18.9304 Z-3.2 I0.0062 J-0.0108
G2 X40.0861 Y18.9196 I-0.0125 J0.0
G2 Y18.9412 I0.0063 J0.0108
G2 X40.1049 Y18.9304 I0.0062 J-0.0108
G0 Z3.0
G0 X53.242 Y124.9301
G1 F1000.0 Z0.0
G2 F2000.0 X53.2233 Y124.9193 Z-0.0333 I-0.0125 J0.0
G2 Y124.9409 Z-0.0667 I0.0062 J0.0108
G2 X53.242 Y124.9301 Z-0.1 I0.0063 J-0.0108
G2 X53.2233 Y124.9193 Z-0.1333 I-0.0125 J0.0
G2 Y124.9409 Z-0.1667 I0.0062 J0.0108
G2 X53.242 Y124.9301 Z-0.2 I0.0063 J-0.0108
G2 X53.2233 Y124.9193 Z-0.2333 I-0.0125 J0.0
G2 Y124.9409 Z-0.2667 I0.0062 J0.0108
G2 X53.242 Y124.9301 Z-0.3 I0.0063 J-0.0108
G2 X53.2233 Y124.9193 Z-0.3333 I-0.0125 J0.0
G2 Y124.9409 Z-0.3667 I0.0062 J0.0108
G2 X53.242 Y124.9301 Z-0.4 I0.0063 J-0.0108
G2 X53.2233 Y124.9193 Z-0.4333 I-0.0125 J0.0
G2 Y124.9409 Z-0.4667 I0.0062 J0.0108
G2 X53.242 Y124.9301 Z-0.5 I0.0063 J-0.0108
G2 X53.2233 Y124.9193 Z-0.5333 I-0.0125 J0.0
G2 Y124.9409 Z-0.5667 I0.0062 J0.0108
G2 X53.242 Y124.9301 Z-0.6 I0.0063 J-0.0108
G2 X53.2233 Y124.9193 Z-0.6333 I-0.0125 J0.0
G2 Y124.9409 Z-0.6667 I0.0062 J0.0108
G2 X53.242 Y124.9301 Z-0.7 I0.0063 J-0.0108
G2 X53.2233 Y124.9193 Z-0.7333 I-0.0125 J0.0
G2 Y124.9409 Z-0.7667 I0.0062 J0.0108
G2 X53.242 Y124.9301 Z-0.8 I0.0063 J-0.0108
G2 X53.2233 Y124.9193 Z-0.8333 I-0.0125 J0.0
G2 Y124.9409 Z-0.8667 I0.0062 J0.0108
G2 X53.242 Y124.9301 Z-0.9 I0.0063 J-0.0108
G2 X53.2233 Y124.9193 Z-0.9333 I-0.0125 J0.0
G2 Y124.9409 Z-0.9667 I0.0062 J0.0108
G2 X53.242 Y124.9301 Z-1.0 I0.0063 J-0.0108
G2 X53.2233 Y124.9193 Z-1.0333 I-0.0125 J0.0
G2 Y124.9409 Z-1.0667 I0.0062 J0.0108
G2 X53.242 Y124.9301 Z-1.1 I0.0063 J-0.0108
G2 X53.2233 Y124.9193 Z-1.1333 I-0.0125 J0.0
G2 Y124.9409 Z-1.1667 I0.0062 J0.0108
G2 X53.242 Y124.9301 Z-1.2 I0.0063 J-0.0108
G2 X53.2233 Y124.9193 Z-1.2333 I-0.0125 J0.0
G2 Y124.9409 Z-1.2667 I0.0062 J0.0108
G2 X53.242 Y124.9301 Z-1.3 I0.0063 J-0.0108
G2 X53.2233 Y124.9193 Z-1.3333 I-0.0125 J0.0
G2 Y124.9409 Z-1.3667 I0.0062 J0.0108
G2 X53.242 Y124.9301 Z-1.4 I0.0063 J-0.0108
G2 X53.2233 Y124.9193 Z-1.4333 I-0.0125 J0.0
G2 Y124.9409 Z-1.4667 I0.0062 J0.0108
G2 X53.242 Y124.9301 Z-1.5 I0.0063 J-0.0108
G2 X53.2233 Y124.9193 Z-1.5333 I-0.0125 J0.0
G2 Y124.9409 Z-1.5667 I0.0062 J0.0108
G2 X53.242 Y124.9301 Z-1.6 I0.0063 J-0.0108
G2 X53.2233 Y124.9193 Z-1.6333 I-0.0125 J0.0
G2 Y124.9409 Z-1.6667 I0.0062 J0.0108
G2 X53.242 Y124.9301 Z-1.7 I0.0063 J-0.0108
G2 X53.2233 Y124.9193 Z-1.7333 I-0.0125 J0.0
G2 Y124.9409 Z-1.7667 I0.0062 J0.0108
G2 X53.242 Y124.9301 Z-1.8 I0.0063 J-0.0108
G2 X53.2233 Y124.9193 Z-1.8333 I-0.0125 J0.0
G2 Y124.9409 Z-1.8667 I0.0062 J0.0108
G2 X53.242 Y124.9301 Z-1.9 I0.0063 J-0.0108
G2 X53.2233 Y124.9193 Z-1.9333 I-0.0125 J0.0
G2 Y124.9409 Z-1.9667 I0.0062 J0.0108
G2 X53.242 Y124.9301 Z-2.0 I0.0063 J-0.0108
G2 X53.2233 Y124.9193 Z-2.0333 I-0.0125 J0.0
G2 Y124.9409 Z-2.0667 I0.0062 J0.0108
G2 X53.242 Y124.9301 Z-2.1 I0.0063 J-0.0108
G2 X53.2233 Y124.9193 Z-2.1333 I-0.0125 J0.0
G2 Y124.9409 Z-2.1667 I0.0062 J0.0108
G2 X53.242 Y124.9301 Z-2.2 I0.0063 J-0.0108
G2 X53.2233 Y124.9193 Z-2.2333 I-0.0125 J0.0
G2 Y124.9409 Z-2.2667 I0.0062 J0.0108
G2 X53.242 Y124.9301 Z-2.3 I0.0063 J-0.0108
G2 X53.2233 Y124.9193 Z-2.3333 I-0.0125 J0.0
G2 Y124.9409 Z-2.3667 I0.0062 J0.0108
G2 X53.242 Y124.9301 Z-2.4 I0.0063 J-0.0108
G2 X53.2233 Y124.9193 Z-2.4333 I-0.0125 J0.0
G2 Y124.9409 Z-2.4667 I0.0062 J0.0108
G2 X53.242 Y124.9301 Z-2.5 I0.0063 J-0.0108
G2 X53.2233 Y124.9193 Z-2.5333 I-0.0125 J0.0
G2 Y124.9409 Z-2.5667 I0.0062 J0.0108
G2 X53.242 Y124.9301 Z-2.6 I0.0063 J-0.0108
G2 X53.2233 Y124.9193 Z-2.6333 I-0.0125 J0.0
G2 Y124.9409 Z-2.6667 I0.0062 J0.0108
G2 X53.242 Y124.9301 Z-2.7 I0.0063 J-0.0108
G2 X53.2233 Y124.9193 Z-2.7333 I-0.0125 J0.0
G2 Y124.9409 Z-2.7667 I0.0062 J0.0108
G2 X53.242 Y124.9301 Z-2.8 I0.0063 J-0.0108
G2 X53.2233 Y124.9193 Z-2.8333 I-0.0125 J0.0
G2 Y124.9409 Z-2.8667 I0.0062 J0.0108
G2 X53.242 Y124.9301 Z-2.9 I0.0063 J-0.0108
G2 X53.2233 Y124.9193 Z-2.9333 I-0.0125 J0.0
G2 Y124.9409 Z-2.9667 I0.0063 J0.0108
G2 X53.242 Y124.9301 Z-3.0 I0.0063 J-0.0108
G2 X53.2233 Y124.9193 Z-3.0333 I-0.0125 J0.0
G2 Y124.9409 Z-3.0667 I0.0063 J0.0108
G2 X53.242 Y124.9301 Z-3.1 I0.0063 J-0.0108
G2 X53.2233 Y124.9193 Z-3.1333 I-0.0125 J0.0
G2 Y124.9409 Z-3.1667 I0.0063 J0.0108
G2 X53.242 Y124.9301 Z-3.2 I0.0063 J-0.0108
G2 X53.2233 Y124.9193 I-0.0125 J0.0
G2 Y124.9409 I0.0063 J0.0108
G2 X53.242 Y124.9301 I0.0062 J-0.0108
( cutout )
S1000
G0 Z3.0
G0 X21.9939 Y-1.5554
G1 F1000.0 Z-0.1
G1 F2000.0 X0.034
G2 X-1.5535 Y0.0321 I0.0 J1.5875
G1 Y128.1135
G2 X0.034 Y129.701 I1.5875 J0.0
G1 X60.8436
G2 X62.4311 Y128.1135 I0.0 J-1.5875
G1 Y0.0321
G2 X60.8436 Y-1.5554 I-1.5875 J0.0
G1 X21.9939
G1 F1000.0 Z-0.2
G1 F2000.0 X0.034
G2 X-1.5535 Y0.0321 I0.0 J1.5875
G1 Y128.1135
G2 X0.034 Y129.701 I1.5875 J0.0
G1 X60.8436
G2 X62.4311 Y128.1135 I0.0 J-1.5875
G1 Y0.0321
G2 X60.8436 Y-1.5554 I-1.5875 J0.0
G1 X21.9939
G1 F1000.0 Z-0.3
G1 F2000.0 X0.034
G2 X-1.5535 Y0.0321 I0.0 J1.5875
G1 Y128.1135
G2 X0.034 Y129.701 I1.5875 J0.0
G1 X60.8436
G2 X62.4311 Y128.1135 I0.0 J-1.5875
G1 Y0.0321
G2 X60.8436 Y-1.5554 I-1.5875 J0.0
G1 X21.9939
G1 F1000.0 Z-0.4
G1 F2000.0 X0.034
G2 X-1.5535 Y0.0321 I0.0 J1.5875
G1 Y128.1135
G2 X0.034 Y129.701 I1.5875 J0.0
G1 X60.8436
G2 X62.4311 Y128.1135 I0.0 J-1.5875
G1 Y0.0321
G2 X60.8436 Y-1.5554 I-1.5875 J0.0
G1 X21.9939
G1 F1000.0 Z-0.5
G1 F2000.0 X0.034
G2 X-1.5535 Y0.0321 I0.0 J1.5875
G1 Y128.1135
G2 X0.034 Y129.701 I1.5875 J0.0
G1 X60.8436
G2 X62.4311 Y128.1135 I0.0 J-1.5875
G1 Y0.0321
G2 X60.8436 Y-1.5554 I-1.5875 J0.0
G1 X21.9939
G1 F1000.0 Z-0.6
G1 F2000.0 X0.034
G2 X-1.5535 Y0.0321 I0.0 J1.5875
G1 Y128.1135
G2 X0.034 Y129.701 I1.5875 J0.0
G1 X60.8436
G2 X62.4311 Y128.1135 I0.0 J-1.5875
G1 Y0.0321
G2 X60.8436 Y-1.5554 I-1.5875 J0.0
G1 X21.9939
G1 F1000.0 Z-0.7
G1 F2000.0 X0.034
G2 X-1.5535 Y0.0321 I0.0 J1.5875
G1 Y128.1135
G2 X0.034 Y129.701 I1.5875 J0.0
G1 X60.8436
G2 X62.4311 Y128.1135 I0.0 J-1.5875
G1 Y0.0321
G2 X60.8436 Y-1.5554 I-1.5875 J0.0
G1 X21.9939
G1 F1000.0 Z-0.8
G1 F2000.0 X0.034
G2 X-1.5535 Y0.0321 I0.0 J1.5875
G1 Y128.1135
G2 X0.034 Y129.701 I1.5875 J0.0
G1 X60.8436
G2 X62.4311 Y128.1135 I0.0 J-1.5875
G1 Y0.0321
G2 X60.8436 Y-1.5554 I-1.5875 J0.0
G1 X21.9939
G1 F1000.0 Z-0.9
G1 F2000.0 X0.034
G2 X-1.5535 Y0.0321 I0.0 J1.5875
G1 Y128.1135
G2 X0.034 Y129.701 I1.5875 J0.0
G1 X60.8436
G2 X62.4311 Y128.1135 I0.0 J-1.5875
G1 Y0.0321
G2 X60.8436 Y-1.5554 I-1.5875 J0.0
G1 X21.9939
G1 F1000.0 Z-1.0
G1 F2000.0 X0.034
G2 X-1.5535 Y0.0321 I0.0 J1.5875
G1 Y128.1135
G2 X0.034 Y129.701 I1.5875 J0.0
G1 X60.8436
G2 X62.4311 Y128.1135 I0.0 J-1.5875
G1 Y0.0321
G2 X60.8436 Y-1.5554 I-1.5875 J0.0
G1 X21.9939
G1 F1000.0 Z-1.1
G1 F2000.0 X0.034
G2 X-1.5535 Y0.0321 I0.0 J1.5875
G1 Y128.1135
G2 X0.034 Y129.701 I1.5875 J0.0
G1 X60.8436
G2 X62.4311 Y128.1135 I0.0 J-1.5875
G1 Y0.0321
G2 X60.8436 Y-1.5554 I-1.5875 J0.0
G1 X21.9939
G1 F1000.0 Z-1.2
G1 F2000.0 X0.034
G2 X-1.5535 Y0.0321 I0.0 J1.5875
G1 Y128.1135
G2 X0.034 Y129.701 I1.5875 J0.0
G1 X60.8436
G2 X62.4311 Y128.1135 I0.0 J-1.5875
G1 Y0.0321
G2 X60.8436 Y-1.5554 I-1.5875 J0.0
G1 X21.9939
G1 F1000.0 Z-1.3
G1 F2000.0 X0.034
G2 X-1.5535 Y0.0321 I0.0 J1.5875
G1 Y25.9524
G1 Y28.0399 Z-1.2
G1 Y30.1274 Z-1.3
G1 Y128.1135
G2 X0.034 Y129.701 I1.5875 J0.0
G1 X8.5732
G1 X10.6607 Z-1.2
G1 X12.7482 Z-1.3
G1 X60.8436
G2 X62.4311 Y128.1135 I0.0 J-1.5875
G1 Y91.2133
G1 Y89.1258 Z-1.2
G1 Y87.0383 Z-1.3
G1 Y0.0321
G2 X60.8436 Y-1.5554 I-1.5875 J0.0
G1 X52.0893
G1 X50.0018 Z-1.2
G1 X47.9143 Z-1.3
G1 X21.9939
G1 F1000.0 Z-1.4
G1 F2000.0 X0.034
G2 X-1.5535 Y0.0321 I0.0 J1.5875
G1 Y25.9524
G1 Y28.0399 Z-1.2
G1 Y30.1274 Z-1.4
G1 Y128.1135
G2 X0.034 Y129.701 I1.5875 J0.0
G1 X8.5732
G1 X10.6607 Z-1.2
G1 X12.7482 Z-1.4
G1 X60.8436
G2 X62.4311 Y128.1135 I0.0 J-1.5875
G1 Y91.2133
G1 Y89.1258 Z-1.2
G1 Y87.0383 Z-1.4
G1 Y0.0321
G2 X60.8436 Y-1.5554 I-1.5875 J0.0
G1 X52.0893
G1 X50.0018 Z-1.2
G1 X47.9143 Z-1.4
G1 X21.9939
G1 F1000.0 Z-1.5
G1 F2000.0 X0.034
G2 X-1.5535 Y0.0321 I0.0 J1.5875
G1 Y25.9524
G1 Y28.0399 Z-1.2
G1 Y30.1274 Z-1.5
G1 Y128.1135
G2 X0.034 Y129.701 I1.5875 J0.0
G1 X8.5732
G1 X10.6607 Z-1.2
G1 X12.7482 Z-1.5
G1 X60.8436
G2 X62.4311 Y128.1135 I0.0 J-1.5875
G1 Y91.2133
G1 Y89.1258 Z-1.2
G1 Y87.0383 Z-1.5
G1 Y0.0321
G2 X60.8436 Y-1.5554 I-1.5875 J0.0
G1 X52.0893
G1 X50.0018 Z-1.2
G1 X47.9143 Z-1.5
G1 X21.9939
G1 F1000.0 Z-1.6
G1 F2000.0 X0.034
G2 X-1.5535 Y0.0321 I0.0 J1.5875
G1 Y25.9524
G1 Y28.0399 Z-1.2
G1 Y30.1274 Z-1.6
G1 Y128.1135
G2 X0.034 Y129.701 I1.5875 J0.0
G1 X8.5732
G1 X10.6607 Z-1.2
G1 X12.7482 Z-1.6
G1 X60.8436
G2 X62.4311 Y128.1135 I0.0 J-1.5875
G1 Y91.2133
G1 Y89.1258 Z-1.2
G1 Y87.0383 Z-1.6
G1 Y0.0321
G2 X60.8436 Y-1.5554 I-1.5875 J0.0
G1 X52.0893
G1 X50.0018 Z-1.2
G1 X47.9143 Z-1.6
G1 X21.9939
G1 F1000.0 Z-1.7
G1 F2000.0 X0.034
G2 X-1.5535 Y0.0321 I0.0 J1.5875
G1 Y25.9524
G1 Y28.0399 Z-1.2
G1 Y30.1274 Z-1.7
G1 Y128.1135
G2 X0.034 Y129.701 I1.5875 J0.0
G1 X8.5732
G1 X10.6607 Z-1.2
G1 X12.7482 Z-1.7
G1 X60.8436
G2 X62.4311 Y128.1135 I0.0 J-1.5875
G1 Y91.2133
G1 Y89.1258 Z-1.2
G1 Y87.0383 Z-1.7
G1 Y0.0321
G2 X60.8436 Y-1.5554 I-1.5875 J0.0
G1 X52.0893
G1 X50.0018 Z-1.2
G1 X47.9143 Z-1.7
G1 X21.9939
G1 F1000.0 Z-1.8
G1 F2000.0 X0.034
G2 X-1.5535 Y0.0321 I0.0 J1.5875
G1 Y25.9524
G1 Y28.0399 Z-1.2
G1 Y30.1274 Z-1.8
G1 Y128.1135
G2 X0.034 Y129.701 I1.5875 J0.0
G1 X8.5732
G1 X10.6607 Z-1.2
G1 X12.7482 Z-1.8
G1 X60.8436
G2 X62.4311 Y128.1135 I0.0 J-1.5875
G1 Y91.2133
G1 Y89.1258 Z-1.2
G1 Y87.0383 Z-1.8
G1 Y0.0321
G2 X60.8436 Y-1.5554 I-1.5875 J0.0
G1 X52.0893
G1 X50.0018 Z-1.2
G1 X47.9143 Z-1.8
G1 X21.9939
G1 F1000.0 Z-1.9
G1 F2000.0 X0.034
G2 X-1.5535 Y0.0321 I0.0 J1.5875
G1 Y25.9524
G1 Y28.0399 Z-1.2
G1 Y30.1274 Z-1.9
G1 Y128.1135
G2 X0.034 Y129.701 I1.5875 J0.0
G1 X8.5732
G1 X10.6607 Z-1.2
G1 X12.7482 Z-1.9
G1 X60.8436
G2 X62.4311 Y128.1135 I0.0 J-1.5875
G1 Y91.2133
G1 Y89.1258 Z-1.2
G1 Y87.0383 Z-1.9
G1 Y0.0321
G2 X60.8436 Y-1.5554 I-1.5875 J0.0
G1 X52.0893
G1 X50.0018 Z-1.2
G1 X47.9143 Z-1.9
G1 X21.9939
G1 F1000.0 Z-2.0
G1 F2000.0 X0.034
G2 X-1.5535 Y0.0321 I0.0 J1.5875
G1 Y25.9524
G1 Y28.0399 Z-1.2
G1 Y30.1274 Z-2.0
G1 Y128.1135
G2 X0.034 Y129.701 I1.5875 J0.0
G1 X8.5732
G1 X10.6607 Z-1.2
G1 X12.7482 Z-2.0
G1 X60.8436
G2 X62.4311 Y128.1135 I0.0 J-1.5875
G1 Y91.2133
G1 Y89.1258 Z-1.2
G1 Y87.0383 Z-2.0
G1 Y0.0321
G2 X60.8436 Y-1.5554 I-1.5875 J0.0
G1 X52.0893
G1 X50.0018 Z-1.2
G1 X47.9143 Z-2.0
G1 X21.9939
G1 F1000.0 Z-2.1
G1 F2000.0 X0.034
G2 X-1.5535 Y0.0321 I0.0 J1.5875
G1 Y25.9524
G1 Y28.0399 Z-1.2
G1 Y30.1274 Z-2.1
G1 Y128.1135
G2 X0.034 Y129.701 I1.5875 J0.0
G1 X8.5732
G1 X10.6607 Z-1.2
G1 X12.7482 Z-2.1
G1 X60.8436
G2 X62.4311 Y128.1135 I0.0 J-1.5875
G1 Y91.2133
G1 Y89.1258 Z-1.2
G1 Y87.0383 Z-2.1
G1 Y0.0321
G2 X60.8436 Y-1.5554 I-1.5875 J0.0
G1 X52.0893
G1 X50.0018 Z-1.2
G1 X47.9143 Z-2.1
G1 X21.9939
G1 F1000.0 Z-2.2
G1 F2000.0 X0.034
G2 X-1.5535 Y0.0321 I0.0 J1.5875
G1 Y25.9524
G1 Y28.0399 Z-1.2
G1 Y30.1274 Z-2.2
G1 Y128.1135
G2 X0.034 Y129.701 I1.5875 J0.0
G1 X8.5732
G1 X10.6607 Z-1.2
G1 X12.7482 Z-2.2
G1 X60.8436
G2 X62.4311 Y128.1135 I0.0 J-1.5875
G1 Y91.2133
G1 Y89.1258 Z-1.2
G1 Y87.0383 Z-2.2
G1 Y0.0321
G2 X60.8436 Y-1.5554 I-1.5875 J0.0
G1 X52.0893
G1 X50.0018 Z-1.2
G1 X47.9143 Z-2.2
G1 X21.9939
G1 F1000.0 Z-2.3
G1 F2000.0 X0.034
G2 X-1.5535 Y0.0321 I0.0 J1.5875
G1 Y25.9524
G1 Y28.0399 Z-1.2
G1 Y30.1274 Z-2.3
G1 Y128.1135
G2 X0.034 Y129.701 I1.5875 J0.0
G1 X8.5732
G1 X10.6607 Z-1.2
G1 X12.7482 Z-2.3
G1 X60.8436
G2 X62.4311 Y128.1135 I0.0 J-1.5875
G1 Y91.2133
G1 Y89.1258 Z-1.2
G1 Y87.0383 Z-2.3
G1 Y0.0321
G2 X60.8436 Y-1.5554 I-1.5875 J0.0
G1 X52.0893
G1 X50.0018 Z-1.2
G1 X47.9143 Z-2.3
G1 X21.9939
G1 F1000.0 Z-2.4
G1 F2000.0 X0.034
G2 X-1.5535 Y0.0321 I0.0 J1.5875
G1 Y25.9524
G1 Y28.0399 Z-1.2
G1 Y30.1274 Z-2.4
G1 Y128.1135
G2 X0.034 Y129.701 I1.5875 J0.0
G1 X8.5732
G1 X10.6607 Z-1.2
G1 X12.7482 Z-2.4
G1 X60.8436
G2 X62.4311 Y128.1135 I0.0 J-1.5875
G1 Y91.2133
G1 Y89.1258 Z-1.2
G1 Y87.0383 Z-2.4
G1 Y0.0321
G2 X60.8436 Y-1.5554 I-1.5875 J0.0
G1 X52.0893
G1 X50.0018 Z-1.2
G1 X47.9143 Z-2.4
G1 X21.9939
G1 F1000.0 Z-2.5
G1 F2000.0 X0.034
G2 X-1.5535 Y0.0321 I0.0 J1.5875
G1 Y25.9524
G1 Y28.0399 Z-1.2
G1 Y30.1274 Z-2.5
G1 Y128.1135
G2 X0.034 Y129.701 I1.5875 J0.0
G1 X8.5732
G1 X10.6607 Z-1.2
G1 X12.7482 Z-2.5
G1 X60.8436
G2 X62.4311 Y128.1135 I0.0 J-1.5875
G1 Y91.2133
G1 Y89.1258 Z-1.2
G1 Y87.0383 Z-2.5
G1 Y0.0321
G2 X60.8436 Y-1.5554 I-1.5875 J0.0
G1 X52.0893
G1 X50.0018 Z-1.2
G1 X47.9143 Z-2.5
G1 X21.9939
G1 F1000.0 Z-2.6
G1 F2000.0 X0.034
G2 X-1.5535 Y0.0321 I0.0 J1.5875
G1 Y25.9524
G1 Y28.0399 Z-1.2
G1 Y30.1274 Z-2.6
G1 Y128.1135
G2 X0.034 Y129.701 I1.5875 J0.0
G1 X8.5732
G1 X10.6607 Z-1.2
G1 X12.7482 Z-2.6
G1 X60.8436
G2 X62.4311 Y128.1135 I0.0 J-1.5875
G1 Y91.2133
G1 Y89.1258 Z-1.2
G1 Y87.0383 Z-2.6
G1 Y0.0321
G2 X60.8436 Y-1.5554 I-1.5875 J0.0
G1 X52.0893
G1 X50.0018 Z-1.2
G1 X47.9143 Z-2.6
G1 X21.9939
G1 F1000.0 Z-2.7
G1 F2000.0 X0.034
G2 X-1.5535 Y0.0321 I0.0 J1.5875
G1 Y25.9524
G1 Y28.0399 Z-1.2
G1 Y30.1274 Z-2.7
G1 Y128.1135
G2 X0.034 Y129.701 I1.5875 J0.0
G1 X8.5732
G1 X10.6607 Z-1.2
G1 X12.7482 Z-2.7
G1 X60.8436
G2 X62.4311 Y128.1135 I0.0 J-1.5875
G1 Y91.2133
G1 Y89.1258 Z-1.2
G1 Y87.0383 Z-2.7
G1 Y0.0321
G2 X60.8436 Y-1.5554 I-1.5875 J0.0
G1 X52.0893
G1 X50.0018 Z-1.2
G1 X47.9143 Z-2.7
G1 X21.9939
G1 F1000.0 Z-2.8
G1 F2000.0 X0.034
G2 X-1.5535 Y0.0321 I0.0 J1.5875
G1 Y25.9524
G1 Y28.0399 Z-1.2
G1 Y30.1274 Z-2.8
G1 Y128.1135
G2 X0.034 Y129.701 I1.5875 J0.0
G1 X8.5732
G1 X10.6607 Z-1.2
G1 X12.7482 Z-2.8
G1 X60.8436
G2 X62.4311 Y128.1135 I0.0 J-1.5875
G1 Y91.2133
G1 Y89.1258 Z-1.2
G1 Y87.0383 Z-2.8
G1 Y0.0321
G2 X60.8436 Y-1.5554 I-1.5875 J0.0
G1 X52.0893
G1 X50.0018 Z-1.2
G1 X47.9143 Z-2.8
G1 X21.9939
G1 F1000.0 Z-2.9
G1 F2000.0 X0.034
G2 X-1.5535 Y0.0321 I0.0 J1.5875
G1 Y25.9524
G1 Y28.0399 Z-1.2
G1 Y30.1274 Z-2.9
G1 Y128.1135
G2 X0.034 Y129.701 I1.5875 J0.0
G1 X8.5732
G1 X10.6607 Z-1.2
G1 X12.7482 Z-2.9
G1 X60.8436
G2 X62.4311 Y128.1135 I0.0 J-1.5875
G1 Y91.2133
G1 Y89.1258 Z-1.2
G1 Y87.0383 Z-2.9
G1 Y0.0321
G2 X60.8436 Y-1.5554 I-1.5875 J0.0
G1 X52.0893
G1 X50.0018 Z-1.2
G1 X47.9143 Z-2.9
G1 X21.9939
G1 F1000.0 Z-3.0
G1 F2000.0 X0.034
G2 X-1.5535 Y0.0321 I0.0 J1.5875
G1 Y25.9524
G1 Y28.0399 Z-1.2
G1 Y30.1274 Z-3.0
G1 Y128.1135
G2 X0.034 Y129.701 I1.5875 J0.0
G1 X8.5732
G1 X10.6607 Z-1.2
G1 X12.7482 Z-3.0
G1 X60.8436
G2 X62.4311 Y128.1135 I0.0 J-1.5875
G1 Y91.2133
G1 Y89.1258 Z-1.2
G1 Y87.0383 Z-3.0
G1 Y0.0321
G2 X60.8436 Y-1.5554 I-1.5875 J0.0
G1 X52.0893
G1 X50.0018 Z-1.2
G1 X47.9143 Z-3.0
G1 X21.9939
G1 F1000.0 Z-3.1
G1 F2000.0 X0.034
G2 X-1.5535 Y0.0321 I0.0 J1.5875
G1 Y25.9524
G1 Y28.0399 Z-1.2
G1 Y30.1274 Z-3.1
G1 Y128.1135
G2 X0.034 Y129.701 I1.5875 J0.0
G1 X8.5732
G1 X10.6607 Z-1.2
G1 X12.7482 Z-3.1
G1 X60.8436
G2 X62.4311 Y128.1135 I0.0 J-1.5875
G1 Y91.2133
G1 Y89.1258 Z-1.2
G1 Y87.0383 Z-3.1
G1 Y0.0321
G2 X60.8436 Y-1.5554 I-1.5875 J0.0
G1 X52.0893
G1 X50.0018 Z-1.2
G1 X47.9143 Z-3.1
G1 X21.9939
G1 F1000.0 Z-3.2
G1 F2000.0 X0.034
G2 X-1.5535 Y0.0321 I0.0 J1.5875
G1 Y25.9524
G1 Y28.0399 Z-1.2
G1 Y30.1274 Z-3.2
G1 Y128.1135
G2 X0.034 Y129.701 I1.5875 J0.0
G1 X8.5732
G1 X10.6607 Z-1.2
G1 X12.7482 Z-3.2
G1 X60.8436
G2 X62.4311 Y128.1135 I0.0 J-1.5875
G1 Y91.2133
G1 Y89.1258 Z-1.2
G1 Y87.0383 Z-3.2
G1 Y0.0321
G2 X60.8436 Y-1.5554 I-1.5875 J0.0
G1 X52.0893
G1 X50.0018 Z-1.2
G1 X47.9143 Z-3.2
G1 X21.9939
G0 Z3.0
M5
M30
